ncols 150
nrows 121
xllcorner 288400
yllcorner 4893820
cellsize 50
NODATA_value -9999.0
0.2929368054933025 0.1803664559032107 0.1058293822984974 0.0751652638643919 0.12676667830597318 0.2309120400120132 0.015749573318371596 -9999.0 -9999.0 -9999.0 -9999.0 -9999.0 -9999.0 -9999.0 -9999.0 -9999.0 -9999.0 -9999.0 -9999.0 -9999.0 -9999.0 -9999.0 -9999.0 -9999.0 -9999.0 -9999.0 -9999.0 -9999.0 -9999.0 -9999.0 -9999.0 -9999.0 -9999.0 -9999.0 1.2141506809904639 1.8552022259573664 1.8847305266383756 1.9064748248958339 2.10708291824032 2.271146017026817 2.120409423398699 2.0232241568039138 2.041157412215388 1.8693927825959629 1.5070280860538698 1.5525486864509799 1.652834530002861 1.4797774379480972 0.6796870377611126 0.8791235362357193 0.9489432007983007 0.6924931168744743 0.400450540322987 0.3431815773733918 0.612178162985638 0.967449013271187 0.07831535590440739 -9999.0 -9999.0 -9999.0 -9999.0 -9999.0 -9999.0 -9999.0 -9999.0 -9999.0 -9999.0 -9999.0 -9999.0 -9999.0 -9999.0 -9999.0 -9999.0 -9999.0 -9999.0 -9999.0 -9999.0 -9999.0 -9999.0 -9999.0 -9999.0 -9999.0 -9999.0 -9999.0 -9999.0 -9999.0 -9999.0 -9999.0 -9999.0 -9999.0 -9999.0 -9999.0 -9999.0 -9999.0 -9999.0 -9999.0 -9999.0 -9999.0 -9999.0 -9999.0 -9999.0 -9999.0 -9999.0 -9999.0 -9999.0 -9999.0 -9999.0 -9999.0 -9999.0 -9999.0 -9999.0 -9999.0 -9999.0 -9999.0 -9999.0 -9999.0 -9999.0 -9999.0 -9999.0 -9999.0 -9999.0 -9999.0 -9999.0 -9999.0 -9999.0 -9999.0 -9999.0 -9999.0 -9999.0 -9999.0 -9999.0 -9999.0 -9999.0 -9999.0 -9999.0 -9999.0 -9999.0 -9999.0 -9999.0 -9999.0 -9999.0 -9999.0 -9999.0 -9999.0 -9999.0 -9999.0 -9999.0 -9999.0 -9999.0 -9999.0
0.3007883015916917 0.21626334566795508 0.1380562481906305 0.10348163828562829 0.12086551975493309 0.177472439301375 0.0787743770761532 -9999.0 -9999.0 -9999.0 -9999.0 -9999.0 -9999.0 -9999.0 -9999.0 -9999.0 -9999.0 -9999.0 -9999.0 -9999.0 -9999.0 -9999.0 -9999.0 -9999.0 -9999.0 -9999.0 -9999.0 -9999.0 -9999.0 -9999.0 -9999.0 -9999.0 -9999.0 -9999.0 0.6474188486865491 1.8656739508067708 1.9835132884979247 1.9331920857305656 2.129703722672641 2.1858278739440347 2.097881607463997 2.0280805613942565 2.043220471746397 1.8510616314961583 1.689175568622783 1.6803816564069594 1.723060831134305 1.6598398516951722 0.8656335260533925 0.8542344612039416 0.8794012127911557 0.666629573361206 0.3073250956991754 0.3085185462454493 0.4445133804488815 0.8274763446895619 0.8364602330685769 -9999.0 -9999.0 -9999.0 -9999.0 -9999.0 -9999.0 -9999.0 -9999.0 -9999.0 -9999.0 -9999.0 -9999.0 -9999.0 -9999.0 -9999.0 -9999.0 -9999.0 -9999.0 -9999.0 -9999.0 -9999.0 -9999.0 -9999.0 -9999.0 -9999.0 -9999.0 -9999.0 -9999.0 -9999.0 -9999.0 -9999.0 -9999.0 -9999.0 -9999.0 -9999.0 -9999.0 -9999.0 -9999.0 -9999.0 -9999.0 -9999.0 -9999.0 -9999.0 -9999.0 -9999.0 -9999.0 -9999.0 -9999.0 -9999.0 -9999.0 -9999.0 -9999.0 -9999.0 -9999.0 -9999.0 -9999.0 -9999.0 -9999.0 -9999.0 -9999.0 -9999.0 -9999.0 -9999.0 -9999.0 -9999.0 -9999.0 -9999.0 -9999.0 -9999.0 -9999.0 -9999.0 -9999.0 -9999.0 -9999.0 -9999.0 -9999.0 -9999.0 -9999.0 -9999.0 -9999.0 -9999.0 -9999.0 -9999.0 -9999.0 -9999.0 -9999.0 -9999.0 -9999.0 -9999.0 -9999.0 -9999.0 -9999.0 -9999.0
0.31593035807344827 0.3084940547956094 0.2571622340845858 0.1592030184940411 0.1126631619028034 0.096112666157565 0.032129817911194 -0.05114393439095681 -9999.0 -9999.0 -9999.0 -9999.0 -9999.0 -9999.0 -9999.0 -9999.0 -9999.0 -9999.0 -9999.0 -9999.0 -9999.0 -9999.0 -9999.0 -9999.0 -9999.0 -9999.0 -9999.0 -9999.0 -9999.0 -9999.0 -9999.0 -9999.0 -9999.0 -9999.0 -9999.0 1.3286264607932983 1.872979205943013 1.942594003033285 2.1684577131534573 2.196158401249834 2.179627111031109 2.1822162263848957 1.9659850670481565 1.829823242962856 1.7944932562425984 1.7095189148015482 1.5880043523963467 1.6086862524667263 1.0446253894529234 0.8543174969934273 0.8496824243357137 0.7193591755552551 0.2855880363691064 0.21621017384354452 0.2907090296167164 0.7008704904231757 0.826335288681868 0.26831471520050587 -9999.0 -9999.0 -9999.0 -9999.0 -9999.0 -9999.0 -9999.0 -9999.0 -9999.0 -9999.0 -9999.0 -9999.0 -9999.0 -9999.0 -9999.0 -9999.0 -9999.0 -9999.0 -9999.0 -9999.0 -9999.0 -9999.0 -9999.0 -9999.0 -9999.0 -9999.0 -9999.0 -9999.0 -9999.0 -9999.0 -9999.0 -9999.0 -9999.0 -9999.0 -9999.0 -9999.0 -9999.0 -9999.0 -9999.0 -9999.0 -9999.0 -9999.0 -9999.0 -9999.0 -9999.0 -9999.0 -9999.0 -9999.0 -9999.0 -9999.0 -9999.0 -9999.0 -9999.0 -9999.0 -9999.0 -9999.0 -9999.0 -9999.0 -9999.0 -9999.0 -9999.0 -9999.0 -9999.0 -9999.0 -9999.0 -9999.0 -9999.0 -9999.0 -9999.0 -9999.0 -9999.0 -9999.0 -9999.0 -9999.0 -9999.0 -9999.0 -9999.0 -9999.0 -9999.0 -9999.0 -9999.0 -9999.0 -9999.0 -9999.0 -9999.0 -9999.0 -9999.0 -9999.0 -9999.0 -9999.0 -9999.0 -9999.0
0.3555061763679734 0.40899597393963677 0.3407811114519702 0.22607827105387868 0.12055641403694378 0.0665393526974846 0.014151347694736 -0.05221092749281081 -9999.0 -9999.0 -9999.0 -9999.0 -9999.0 -0.024007671894125504 0.17495440414736319 0.1433928274867142 -9999.0 -9999.0 -9999.0 -9999.0 -9999.0 -9999.0 -9999.0 -9999.0 -9999.0 -9999.0 -9999.0 -9999.0 -9999.0 -9999.0 -9999.0 -9999.0 -9999.0 -9999.0 -9999.0 -9999.0 1.3102509844625816 1.713645237549021 2.1535305362671253 2.2933956761409315 2.334264304457876 2.3612107340031874 1.9006229056442134 1.826916202672527 1.8270858984779867 1.4655791015778175 1.2197921452483929 1.4140835807866552 1.4423581400245786 0.8844603113255751 0.9162716188759965 0.8682713512924585 0.2936739110169203 0.154542539615212 0.5927153072682194 0.5948881342727463 0.6438067046624962 0.6428441749056857 -9999.0 -9999.0 -9999.0 -9999.0 -9999.0 -9999.0 -9999.0 -9999.0 -9999.0 -9999.0 -9999.0 -9999.0 -9999.0 -9999.0 -9999.0 -9999.0 -9999.0 -9999.0 -9999.0 -9999.0 -9999.0 -9999.0 -9999.0 -9999.0 -9999.0 -9999.0 -9999.0 -9999.0 -9999.0 -9999.0 -9999.0 -9999.0 -9999.0 -9999.0 -9999.0 -9999.0 -9999.0 -9999.0 -9999.0 -9999.0 -9999.0 -9999.0 -9999.0 -9999.0 -9999.0 -9999.0 -9999.0 -9999.0 -9999.0 -9999.0 -9999.0 -9999.0 -9999.0 -9999.0 -9999.0 -9999.0 -9999.0 -9999.0 -9999.0 -9999.0 -9999.0 -9999.0 -9999.0 -9999.0 -9999.0 -9999.0 -9999.0 -9999.0 -9999.0 -9999.0 -9999.0 -9999.0 -9999.0 -9999.0 -9999.0 -9999.0 -9999.0 -9999.0 -9999.0 -9999.0 -9999.0 -9999.0 -9999.0 -9999.0 -9999.0 -9999.0 -9999.0 -9999.0 -9999.0 -9999.0 -9999.0 -9999.0
0.47095908126460245 0.45189199868872526 0.340849796974163 0.2163350327309549 0.1296801746276472 0.06929225134038608 0.028472569604808193 -0.021681911324417706 -9999.0 -9999.0 -9999.0 -9999.0 -9999.0 0.10350236399331819 0.3642355056690741 0.3711300226570885 0.034326993376858086 -9999.0 -9999.0 -9999.0 -9999.0 -9999.0 -9999.0 -9999.0 -9999.0 -9999.0 -9999.0 -9999.0 -9999.0 -9999.0 -9999.0 -9999.0 -9999.0 -9999.0 -9999.0 -9999.0 -9999.0 1.0548977144975686 1.8232450657276664 2.2448995928284763 2.1484322077485283 1.984114220228072 1.8136105249601027 1.8094228863192314 1.8624488167143947 1.42510397389384 1.328690731616434 1.5413180985441284 1.643829542025119 1.3747394109159947 1.065996622174709 0.8621954012262343 0.371074296126245 0.49943663779964514 0.5101354053742131 0.5678298751597861 0.6186456051128717 0.6807666016271612 -0.030686018744143707 -9999.0 -9999.0 -9999.0 -9999.0 -9999.0 -9999.0 -9999.0 -9999.0 -9999.0 -9999.0 -9999.0 -9999.0 -9999.0 -9999.0 -9999.0 -9999.0 -9999.0 -9999.0 -9999.0 -9999.0 -9999.0 -9999.0 -9999.0 -9999.0 -9999.0 -9999.0 -9999.0 -9999.0 -9999.0 -9999.0 -9999.0 -9999.0 -9999.0 -9999.0 -9999.0 -9999.0 -9999.0 -9999.0 -9999.0 -9999.0 -9999.0 -9999.0 -9999.0 -9999.0 -9999.0 -9999.0 -9999.0 -9999.0 -9999.0 -9999.0 -9999.0 -9999.0 -9999.0 -9999.0 -9999.0 -9999.0 -9999.0 -9999.0 -9999.0 -9999.0 -9999.0 -9999.0 -9999.0 -9999.0 -9999.0 -9999.0 -9999.0 -9999.0 -9999.0 -9999.0 -9999.0 -9999.0 -9999.0 -9999.0 -9999.0 -9999.0 -9999.0 -9999.0 -9999.0 -9999.0 -9999.0 -9999.0 -9999.0 -9999.0 -9999.0 -9999.0 -9999.0 -9999.0 -9999.0 -9999.0 -9999.0
0.4947058714205799 0.396932148431981 0.250005439881842 0.17971801091404818 0.13455481379525489 0.09841957764121351 0.07264007339717019 0.05508463677354389 0.011685177524517698 -0.052422667815514405 -9999.0 -9999.0 -9999.0 -0.019287123053649304 0.20895254692042742 0.21264380912660047 0.02187196673800429 -9999.0 -9999.0 -9999.0 -9999.0 -9999.0 -9999.0 -9999.0 -9999.0 -9999.0 -9999.0 -9999.0 -9999.0 -9999.0 -9999.0 -9999.0 -9999.0 -9999.0 -9999.0 -9999.0 -9999.0 0.5347957757601323 1.440186300021522 1.320623510416423 1.499408035485463 1.7801439422063903 1.7883879424534723 1.639697278980283 1.6396424288973792 1.4867291635293085 1.457473047236042 1.5509559279673677 1.6795277038595 1.8329873549023887 0.9694788936672376 0.387806399672025 0.8635878873291138 0.48715822431604267 0.45949231746513025 0.5304417181021925 0.6575873588188472 0.7665716404735794 0.6167862131915465 -9999.0 -9999.0 -9999.0 -9999.0 -9999.0 -9999.0 -9999.0 -9999.0 -9999.0 -9999.0 -9999.0 -9999.0 -9999.0 -9999.0 -9999.0 -9999.0 -9999.0 -9999.0 -9999.0 -9999.0 -9999.0 -9999.0 -9999.0 -9999.0 -9999.0 -9999.0 -9999.0 -9999.0 -9999.0 -9999.0 -9999.0 -9999.0 -9999.0 -9999.0 -9999.0 -9999.0 -9999.0 -9999.0 -9999.0 -9999.0 -9999.0 -9999.0 -9999.0 -9999.0 -9999.0 -9999.0 -9999.0 -9999.0 -9999.0 -9999.0 -9999.0 -9999.0 -9999.0 -9999.0 -9999.0 -9999.0 -9999.0 -9999.0 -9999.0 -9999.0 -9999.0 -9999.0 -9999.0 -9999.0 -9999.0 -9999.0 -9999.0 -9999.0 -9999.0 -9999.0 -9999.0 -9999.0 -9999.0 -9999.0 -9999.0 -9999.0 -9999.0 -9999.0 -9999.0 -9999.0 -9999.0 -9999.0 -9999.0 -9999.0 -9999.0 -9999.0 -9999.0 -9999.0 -9999.0 -9999.0 -9999.0
0.5760243078366256 0.3759819019196642 0.2363066710194281 0.19448661734595057 0.167354931332247 0.15130080060151269 0.1705930670544957 0.20310608881941378 0.1914208749847397 0.13381404960799878 0.057315283597115185 -0.026493528013533607 -9999.0 -9999.0 -9999.0 -0.013419966897152809 -0.05895561728768861 -9999.0 -9999.0 -9999.0 -9999.0 -9999.0 -9999.0 -9999.0 -9999.0 -9999.0 -9999.0 -9999.0 -9999.0 -9999.0 -9999.0 -9999.0 -9999.0 -9999.0 -9999.0 -9999.0 -9999.0 0.2724645131308966 0.9451398140674059 1.3337952618359887 1.3793937002790246 1.6776430576836512 1.871690768647004 1.7677424080105208 1.6349842449057301 1.597103250376504 1.552617139209832 1.6248466439504436 1.8378960689575752 1.891853346747676 0.9625573216393013 1.1529575250826916 1.0361081810176904 0.505083818766427 0.32704605470004827 0.4349124861881693 0.6317770333601236 0.7868736668991763 1.067372213817836 -9999.0 -9999.0 -9999.0 -9999.0 -9999.0 -9999.0 -9999.0 -9999.0 -9999.0 -9999.0 -9999.0 -9999.0 -9999.0 -9999.0 -9999.0 -9999.0 -9999.0 -9999.0 -9999.0 -9999.0 -9999.0 -9999.0 -9999.0 -9999.0 -9999.0 -9999.0 -9999.0 -9999.0 -9999.0 -9999.0 -9999.0 -9999.0 -9999.0 -9999.0 -9999.0 -9999.0 -9999.0 -9999.0 -9999.0 -9999.0 -9999.0 -9999.0 -9999.0 -9999.0 -9999.0 -9999.0 -9999.0 -9999.0 -9999.0 -9999.0 -9999.0 -9999.0 -9999.0 -9999.0 -9999.0 -9999.0 -9999.0 -9999.0 -9999.0 -9999.0 -9999.0 -9999.0 -9999.0 -9999.0 -9999.0 -9999.0 -9999.0 -9999.0 -9999.0 -9999.0 -9999.0 -9999.0 -9999.0 -9999.0 -9999.0 -9999.0 -9999.0 -9999.0 -9999.0 -9999.0 -9999.0 -9999.0 -9999.0 -9999.0 -9999.0 -9999.0 -9999.0 -9999.0 -9999.0 -9999.0 -9999.0
0.6520940880238644 0.5400295419430547 0.3788265526410211 0.32905002128281247 0.2986427550799551 0.2944789343052058 0.35972454958767347 0.40296227489813247 0.316233707106844 0.21935247179669132 0.128445314291085 0.0394683356000395 -0.058552255167048206 -9999.0 -9999.0 -9999.0 -0.05807713696266611 -9999.0 -9999.0 -9999.0 -9999.0 -9999.0 -9999.0 -9999.0 -9999.0 -9999.0 -9999.0 -9999.0 -9999.0 -9999.0 -9999.0 -9999.0 -9999.0 -9999.0 -9999.0 -9999.0 -9999.0 -9999.0 0.8577085058360323 1.5325170940229864 1.332488515171689 1.3858684697413408 1.9368784228341627 2.127532622016636 1.731410774493339 1.6172788502404807 1.66525023111642 1.7945837601591932 1.7999596120883516 1.624997531358827 1.269997035063941 1.091528060253937 1.0022394013381122 0.6414552591954426 0.41265463911672157 0.4664834258417912 0.5453874732028896 0.5847791078852735 0.979543394631986 0.5817623780277528 -9999.0 -9999.0 -9999.0 -9999.0 -9999.0 -9999.0 -9999.0 -9999.0 -9999.0 -9999.0 -9999.0 -9999.0 -9999.0 -9999.0 -9999.0 -9999.0 -9999.0 -9999.0 -9999.0 -9999.0 -9999.0 -9999.0 -9999.0 -9999.0 -9999.0 -9999.0 -9999.0 -9999.0 -9999.0 -9999.0 -9999.0 -9999.0 -9999.0 -9999.0 -9999.0 -9999.0 -9999.0 -9999.0 -9999.0 -9999.0 -9999.0 -9999.0 -9999.0 -9999.0 -9999.0 -9999.0 -9999.0 -9999.0 -9999.0 -9999.0 -9999.0 -9999.0 -9999.0 -9999.0 -9999.0 -9999.0 -9999.0 -9999.0 -9999.0 -9999.0 -9999.0 -9999.0 -9999.0 -9999.0 -9999.0 -9999.0 -9999.0 -9999.0 -9999.0 -9999.0 -9999.0 -9999.0 -9999.0 -9999.0 -9999.0 -9999.0 -9999.0 -9999.0 -9999.0 -9999.0 -9999.0 -9999.0 -9999.0 -9999.0 -9999.0 -9999.0 -9999.0 -9999.0 -9999.0 -9999.0
0.7186633680006096 0.7464929267587099 0.5939748259678221 0.5275084350502182 0.5231726418130953 0.564602902910287 0.5743334458062586 0.47738806871891976 0.2905759542078365 0.1767133015371597 0.12044386371970489 0.08051798438130328 0.014479590006163293 -0.03373931949202591 -0.03991324761055141 -0.017192513925444505 0.055728329352914996 0.04712424154656969 -9999.0 -9999.0 -9999.0 -9999.0 -9999.0 -9999.0 -9999.0 -9999.0 -9999.0 -9999.0 -9999.0 -9999.0 -9999.0 -9999.0 -9999.0 -9999.0 -9999.0 -9999.0 -9999.0 -9999.0 0.14952434785443688 1.2889207030605425 1.5885882875856596 1.693603917188689 1.9081167864374495 2.126148030082774 1.9702894051733295 1.5999999570846555 1.702800487126164 1.8047316235824804 1.4910669975076185 1.5794516016367688 1.5539798323461644 0.977268952210665 0.9446575438476306 0.8602488577170513 0.5767262846801706 0.533817052419935 0.5437436323612994 0.4738129961799958 0.739577239940491 0.8890997243012966 -9999.0 -9999.0 -9999.0 -9999.0 -9999.0 -9999.0 -9999.0 -9999.0 -9999.0 -9999.0 -9999.0 -9999.0 -9999.0 -9999.0 -9999.0 -9999.0 -9999.0 -9999.0 -9999.0 -9999.0 -9999.0 -9999.0 -9999.0 -9999.0 -9999.0 -9999.0 -9999.0 -9999.0 -9999.0 -9999.0 -9999.0 -9999.0 -9999.0 -9999.0 -9999.0 -9999.0 -9999.0 -9999.0 -9999.0 -9999.0 -9999.0 -9999.0 -9999.0 -9999.0 -9999.0 -9999.0 -9999.0 -9999.0 -9999.0 -9999.0 -9999.0 -9999.0 -9999.0 -9999.0 -9999.0 -9999.0 -9999.0 -9999.0 -9999.0 -9999.0 -9999.0 -9999.0 -9999.0 -9999.0 -9999.0 -9999.0 -9999.0 -9999.0 -9999.0 -9999.0 -9999.0 -9999.0 -9999.0 -9999.0 -9999.0 -9999.0 -9999.0 -9999.0 -9999.0 -9999.0 -9999.0 -9999.0 -9999.0 -9999.0 -9999.0 -9999.0 -9999.0 -9999.0 -9999.0 -9999.0
0.6924904719908842 0.733637555972489 0.6863428622146177 0.6640406518751509 0.7661177325548536 0.7749431634622952 0.6621161940856992 0.3749421627616564 0.17352709923790569 0.1177050472869963 0.1076416396448418 0.10577406323196889 0.0871813053814231 0.0734058265129647 0.0766050269698299 0.0967776099867747 0.1297467752803204 0.12211293730087408 0.00950348839612239 -9999.0 -9999.0 -9999.0 -9999.0 -9999.0 -9999.0 -9999.0 -9999.0 -9999.0 -9999.0 -9999.0 -9999.0 -9999.0 -9999.0 -9999.0 -9999.0 -9999.0 -9999.0 -9999.0 0.020343026451215288 0.2805811868349525 1.5629985856660122 1.845937750786583 1.848226313901719 2.017412198236679 2.4101094689913563 1.9196080916888398 1.6199025106702192 1.3701857345485287 1.4298195896771186 1.4982116270964096 1.5191270320885188 0.9542474428963414 0.8841972285551156 0.8376245339268766 0.6949517954211317 0.5871094279573679 0.5971577072301573 0.5695277925376061 0.564423823152143 0.8072054843130065 0.2472322392667971 -9999.0 -9999.0 -9999.0 -9999.0 -9999.0 -9999.0 -9999.0 -9999.0 -9999.0 -9999.0 -9999.0 -9999.0 -9999.0 -9999.0 -9999.0 -9999.0 -9999.0 -9999.0 -9999.0 -9999.0 -9999.0 -9999.0 -9999.0 -9999.0 -9999.0 -9999.0 -9999.0 -9999.0 -9999.0 -9999.0 -9999.0 -9999.0 -9999.0 -9999.0 -9999.0 -9999.0 -9999.0 -9999.0 -9999.0 -9999.0 -9999.0 -9999.0 -9999.0 -9999.0 -9999.0 -9999.0 -9999.0 -9999.0 -9999.0 -9999.0 -9999.0 -9999.0 -9999.0 -9999.0 -9999.0 -9999.0 -9999.0 -9999.0 -9999.0 -9999.0 -9999.0 -9999.0 -9999.0 -9999.0 -9999.0 -9999.0 -9999.0 -9999.0 -9999.0 -9999.0 -9999.0 -9999.0 -9999.0 -9999.0 -9999.0 -9999.0 -9999.0 -9999.0 -9999.0 -9999.0 -9999.0 -9999.0 -9999.0 -9999.0 -9999.0 -9999.0 -9999.0 -9999.0 -9999.0
0.615224089033958 0.6733993941051395 0.7061180204927029 0.8556380704747932 0.9519611887784898 0.8598616206189378 0.5916343202590895 0.28706473333609717 0.1254582904366709 0.0998022380248629 0.10714593211813289 0.11947076145335128 0.12822929147564868 0.1303609862942644 0.1287332032963441 0.13025533533259928 0.1403356394155891 0.13555624460004578 0.0516346066352624 -0.04769935340066481 -9999.0 -9999.0 -9999.0 -9999.0 -9999.0 -9999.0 -9999.0 -9999.0 -9999.0 -9999.0 -9999.0 -9999.0 -9999.0 -9999.0 -9999.0 -9999.0 -9999.0 -9999.0 0.1048513206437457 0.09520488852134548 0.7425442125274311 1.5765042411258519 1.792468614432496 2.051609142170815 2.451015581433539 1.765772409058666 1.3873733230699405 1.4191011840581707 1.515151089084632 1.4982989095331871 1.4896060653383185 1.4293376234960191 0.8216313502691637 0.6897465801131075 0.7067612947188828 0.6692987108651427 0.6636129829554225 0.6477183096715293 0.5279688445686841 0.583922119864756 0.6547132369107453 -9999.0 -9999.0 -9999.0 -9999.0 -9999.0 -9999.0 -9999.0 -9999.0 -9999.0 -9999.0 -9999.0 -9999.0 -9999.0 -9999.0 -9999.0 -9999.0 -9999.0 -9999.0 -9999.0 -9999.0 -9999.0 -9999.0 -9999.0 -9999.0 -9999.0 -9999.0 -9999.0 -9999.0 -9999.0 -9999.0 -9999.0 -9999.0 -9999.0 -9999.0 -9999.0 -9999.0 -9999.0 -9999.0 -9999.0 -9999.0 -9999.0 -9999.0 -9999.0 -9999.0 -9999.0 -9999.0 -9999.0 -9999.0 -9999.0 -9999.0 -9999.0 -9999.0 -9999.0 -9999.0 -9999.0 -9999.0 -9999.0 -9999.0 -9999.0 -9999.0 -9999.0 -9999.0 -9999.0 -9999.0 -9999.0 -9999.0 -9999.0 -9999.0 -9999.0 -9999.0 -9999.0 -9999.0 -9999.0 -9999.0 -9999.0 -9999.0 -9999.0 -9999.0 -9999.0 -9999.0 -9999.0 -9999.0 -9999.0 -9999.0 -9999.0 -9999.0 -9999.0 -9999.0 -9999.0
0.6086497345111588 0.6221397114457945 0.786462656614834 1.0445005203590476 1.0569086868099122 0.8265242965750548 0.4427748768386383 0.21644647183363547 0.1204195835361947 0.1067628472644433 0.12409268485957628 0.1333182185156821 0.1433133948831185 0.1519051936632708 0.1436707032209845 0.1309990194345437 0.12131680856715818 0.09400597447481929 0.019964710868203298 -9999.0 -9999.0 -9999.0 -9999.0 -9999.0 -9999.0 -9999.0 -9999.0 -9999.0 -9999.0 -9999.0 -9999.0 -9999.0 -9999.0 -9999.0 -9999.0 -9999.0 -9999.0 -9999.0 0.0406967441063828 -9999.0 -9999.0 1.2503497769139453 1.7058526158968714 2.02992404076898 1.6057364136879484 1.2915272111977614 1.4153617721219869 1.6443800237394068 1.601592732890193 1.4956551490210428 1.417762075947559 1.387570691940127 1.3213465614620692 0.5753070040731625 0.6647535010784864 0.6942071689743055 0.6444235682613451 0.6164244789142319 0.5559990874244112 0.5805805305169047 0.709981090119687 0.06657083364580779 -9999.0 -9999.0 -9999.0 -9999.0 -9999.0 -9999.0 -9999.0 -9999.0 -9999.0 -9999.0 -9999.0 -9999.0 -9999.0 -9999.0 -9999.0 -9999.0 -9999.0 -9999.0 -9999.0 -9999.0 -9999.0 -9999.0 -9999.0 -9999.0 -9999.0 -9999.0 -9999.0 -9999.0 -9999.0 -9999.0 -9999.0 -9999.0 -9999.0 -9999.0 -9999.0 -9999.0 -9999.0 -9999.0 -9999.0 -9999.0 -9999.0 -9999.0 -9999.0 -9999.0 -9999.0 -9999.0 -9999.0 -9999.0 -9999.0 -9999.0 -9999.0 -9999.0 -9999.0 -9999.0 -9999.0 -9999.0 -9999.0 -9999.0 -9999.0 -9999.0 -9999.0 -9999.0 -9999.0 -9999.0 -9999.0 -9999.0 -9999.0 -9999.0 -9999.0 -9999.0 -9999.0 -9999.0 -9999.0 -9999.0 -9999.0 -9999.0 -9999.0 -9999.0 -9999.0 -9999.0 -9999.0 -9999.0 -9999.0 -9999.0 -9999.0 -9999.0 -9999.0 -9999.0
0.7457171453903966 0.7325604706740061 0.8868638953051899 1.0766800218603356 1.0692768828229815 0.7657832292965434 0.4191758886783361 0.24182547407778532 0.1562105920370392 0.1356020702361461 0.1320261928206887 0.13481778562725838 0.15316445253446928 0.16827305089739109 0.1599235929488396 0.12209120817345429 0.0873396518884765 0.03922539664854709 -0.058696989291828004 -9999.0 -9999.0 -9999.0 -9999.0 -9999.0 -9999.0 -9999.0 -9999.0 -9999.0 -9999.0 -9999.0 -9999.0 -9999.0 -9999.0 -9999.0 -9999.0 -9999.0 -9999.0 -9999.0 -9999.0 -9999.0 -9999.0 -9999.0 1.4058475353717859 1.461425142708762 1.262659751097426 1.3385455501326586 1.8543887970002548 1.6753456401892943 1.5282099148712496 1.4386415083509752 1.3935586405463956 1.383508954805998 1.3881852676837096 0.8756979345832976 0.6602917217531594 0.7829672704306481 0.6738626071991523 0.6050651446290038 0.5651493208946652 0.6097917049948933 0.7250177781178648 0.6764658702515063 -9999.0 -9999.0 -9999.0 -9999.0 -9999.0 -9999.0 -9999.0 -9999.0 -9999.0 -9999.0 -9999.0 -9999.0 -9999.0 -9999.0 -9999.0 -9999.0 -9999.0 -9999.0 -9999.0 -9999.0 -9999.0 -9999.0 -9999.0 -9999.0 -9999.0 -9999.0 -9999.0 -9999.0 -9999.0 -9999.0 -9999.0 -9999.0 -9999.0 -9999.0 -9999.0 -9999.0 -9999.0 -9999.0 -9999.0 -9999.0 -9999.0 -9999.0 -9999.0 -9999.0 -9999.0 -9999.0 -9999.0 -9999.0 -9999.0 -9999.0 -9999.0 -9999.0 -9999.0 -9999.0 -9999.0 -9999.0 -9999.0 -9999.0 -9999.0 -9999.0 -9999.0 -9999.0 -9999.0 -9999.0 -9999.0 -9999.0 -9999.0 -9999.0 -9999.0 -9999.0 -9999.0 -9999.0 -9999.0 -9999.0 -9999.0 -9999.0 -9999.0 -9999.0 -9999.0 -9999.0 -9999.0 -9999.0 -9999.0 -9999.0 -9999.0 -9999.0 -9999.0 -9999.0
0.9033862086012996 0.9004263505012833 0.9434621444402704 1.0133771001914769 0.9793964536295381 0.7583631046567376 0.5854499681939433 0.38881157822820717 0.2673682704057735 0.2078787117493069 0.1681422185743826 0.15291929046296318 0.1828298155805938 0.20398223971365298 0.18450980495264452 0.1241546497666623 0.06097532373790579 -0.013526407819830603 -9999.0 -9999.0 -9999.0 -9999.0 -9999.0 -9999.0 -9999.0 -9999.0 -9999.0 -9999.0 -9999.0 -9999.0 -9999.0 -9999.0 -9999.0 -9999.0 -9999.0 -9999.0 -9999.0 -9999.0 -9999.0 -9999.0 -9999.0 -9999.0 0.9110231959004234 1.2511485078653408 1.3884453628253894 1.9945101495105722 1.965778616441088 1.7068681449455392 1.516462296053701 1.4569900910272617 1.4499757370544477 1.4640797152333107 1.5213207397903479 1.3916135478339888 0.7086839321222436 0.8396693759258491 0.8266804924423499 0.5480633501692698 0.4999963238189162 0.5615973039302351 0.7264300711231482 0.7467473165534886 -9999.0 -9999.0 -9999.0 -9999.0 -9999.0 -9999.0 -9999.0 -9999.0 -9999.0 -9999.0 -9999.0 -9999.0 -9999.0 -9999.0 -9999.0 -9999.0 -9999.0 -9999.0 -9999.0 -9999.0 -9999.0 -9999.0 -9999.0 -9999.0 -9999.0 -9999.0 -9999.0 -9999.0 -9999.0 -9999.0 -9999.0 -9999.0 -9999.0 -9999.0 -9999.0 -9999.0 -9999.0 -9999.0 -9999.0 -9999.0 -9999.0 -9999.0 -9999.0 -9999.0 -9999.0 -9999.0 -9999.0 -9999.0 -9999.0 -9999.0 -9999.0 -9999.0 -9999.0 -9999.0 -9999.0 -9999.0 -9999.0 -9999.0 -9999.0 -9999.0 -9999.0 -9999.0 -9999.0 -9999.0 -9999.0 -9999.0 -9999.0 -9999.0 -9999.0 -9999.0 -9999.0 -9999.0 -9999.0 -9999.0 -9999.0 -9999.0 -9999.0 -9999.0 -9999.0 -9999.0 -9999.0 -9999.0 -9999.0 -9999.0 -9999.0 -9999.0 -9999.0 -9999.0
0.9157953678798407 0.9294255478496576 0.9316334614624748 0.9525474792358999 0.8919317554419248 0.7337967767672504 0.6308000797784921 0.5313579554447954 0.40135570767758527 0.3117770421678822 0.259110010992247 0.23517805056403307 0.25276632946704797 0.2689239601877404 0.2273242610541082 0.141328388886827 0.061977913634573084 -0.0058546748056226006 -9999.0 -9999.0 -9999.0 -9999.0 -9999.0 -9999.0 -9999.0 -9999.0 -9999.0 -9999.0 -9999.0 -9999.0 -9999.0 -9999.0 -9999.0 -9999.0 -9999.0 -9999.0 -9999.0 -9999.0 -9999.0 -9999.0 -9999.0 -9999.0 -9999.0 1.3965175589746412 1.5372682891910154 1.9728816473216424 1.9199374505093643 1.656850040398508 1.4976961981559744 1.5316804443351217 1.5277105371057453 1.5461295827419845 1.611378408332291 1.5694021770137498 0.7372926660887824 0.7956279198521179 0.8697304764342599 0.6128074446124334 0.4905138097643535 0.5977021841809145 0.7648697654556338 0.8250860155103812 0.5389883572598455 -9999.0 -9999.0 -9999.0 -9999.0 -9999.0 -9999.0 -9999.0 -9999.0 -9999.0 -9999.0 -9999.0 -9999.0 -9999.0 -9999.0 -9999.0 -9999.0 -9999.0 -9999.0 -9999.0 -9999.0 -9999.0 -9999.0 -9999.0 -9999.0 -9999.0 -9999.0 -9999.0 -9999.0 -9999.0 -9999.0 -9999.0 -9999.0 -9999.0 -9999.0 -9999.0 -9999.0 -9999.0 -9999.0 -9999.0 -9999.0 -9999.0 -9999.0 -9999.0 -9999.0 -9999.0 -9999.0 -9999.0 -9999.0 -9999.0 -9999.0 -9999.0 -9999.0 -9999.0 -9999.0 -9999.0 -9999.0 -9999.0 -9999.0 -9999.0 -9999.0 -9999.0 -9999.0 -9999.0 -9999.0 -9999.0 -9999.0 -9999.0 -9999.0 -9999.0 -9999.0 -9999.0 -9999.0 -9999.0 -9999.0 -9999.0 -9999.0 -9999.0 -9999.0 -9999.0 -9999.0 -9999.0 -9999.0 -9999.0 -9999.0 -9999.0 -9999.0 -9999.0
0.9058659895359893 0.9210711971413457 0.9307936170141702 0.9235004845254513 0.8586496439385181 0.7259570864253535 0.637716089599051 0.5757363905402118 0.48941188830795695 0.4140368281783473 0.3548490984174277 0.3181866123407176 0.3162629763339822 0.3084010004481525 0.25833661453278417 0.149522796638039 0.07800122970220319 0.03846299334937729 -0.009769194057247306 -0.0637946552711249 -9999.0 -9999.0 -9999.0 -9999.0 -9999.0 -9999.0 -9999.0 -9999.0 -9999.0 -9999.0 -9999.0 -9999.0 -9999.0 -9999.0 -9999.0 -9999.0 -9999.0 -9999.0 -9999.0 -9999.0 -9999.0 -9999.0 0.06855618770599259 0.8964650206617977 1.2223603413679502 1.6535666197066188 1.6585227576251498 1.430790917102684 1.353748981871552 1.474750286556705 1.481475240307005 1.507203991523291 1.5361707886145755 1.553750569972564 1.519921950675941 0.8769891779768673 0.8673706747848644 0.5714479548246043 0.5070320605820553 0.674791851131227 0.7453032968394215 0.8030066037315442 0.7630390293054232 -9999.0 -9999.0 -9999.0 -9999.0 -9999.0 -9999.0 -9999.0 -9999.0 -9999.0 -9999.0 -9999.0 -9999.0 -9999.0 -9999.0 -9999.0 -9999.0 -9999.0 -9999.0 -9999.0 -9999.0 -9999.0 -9999.0 -9999.0 -9999.0 -9999.0 -9999.0 -9999.0 -9999.0 -9999.0 -9999.0 -9999.0 -9999.0 -9999.0 -9999.0 -9999.0 -9999.0 -9999.0 -9999.0 -9999.0 -9999.0 -9999.0 -9999.0 -9999.0 -9999.0 -9999.0 -9999.0 -9999.0 -9999.0 -9999.0 -9999.0 -9999.0 -9999.0 -9999.0 -9999.0 -9999.0 -9999.0 -9999.0 -9999.0 -9999.0 -9999.0 -9999.0 -9999.0 -9999.0 -9999.0 -9999.0 -9999.0 -9999.0 -9999.0 -9999.0 -9999.0 -9999.0 -9999.0 -9999.0 -9999.0 -9999.0 -9999.0 -9999.0 -9999.0 -9999.0 -9999.0 -9999.0 -9999.0 -9999.0 -9999.0 -9999.0 -9999.0 -9999.0
0.8897565162738996 0.9180219346076339 0.9755897655005739 0.9620903384002806 0.8995065781896148 0.805369234488456 0.7240497566227224 0.6536412801791154 0.5785550687362533 0.5145695801370769 0.44231374355633496 0.3787266663708538 0.332798578304674 0.3102157989417521 0.23548441889860117 0.1378041422274412 0.08961399994795388 0.0753095126003368 0.0547400865486941 0.0158074231550496 -0.0510962272871453 -9999.0 -9999.0 -9999.0 -9999.0 -9999.0 -9999.0 -9999.0 -9999.0 -9999.0 -9999.0 -9999.0 -9999.0 -9999.0 -9999.0 -9999.0 -9999.0 -9999.0 -9999.0 -9999.0 -9999.0 -0.05472319099291191 0.23064250692917382 0.6187254848751034 0.9853554298015201 1.2098218389147417 1.4843342912008122 1.3493784661327564 1.2874621660612124 1.3577814414776292 1.3973440818286036 1.4279989660056733 1.4699445196771144 1.5331380128085483 1.546369188318466 0.8679253295463989 0.7632121890982937 0.6009798343547521 0.5220346995802443 0.5821111747327392 0.661728377531408 0.6771934343083901 0.6870152447335873 -0.010709762959719704 -9999.0 -9999.0 -9999.0 -9999.0 -9999.0 -9999.0 -9999.0 -9999.0 -9999.0 -9999.0 -9999.0 -9999.0 -9999.0 -9999.0 -9999.0 -9999.0 -9999.0 -9999.0 -9999.0 -9999.0 -9999.0 -9999.0 -9999.0 -9999.0 -9999.0 -9999.0 -9999.0 -9999.0 -9999.0 -9999.0 -9999.0 -9999.0 -9999.0 -9999.0 -9999.0 -9999.0 -9999.0 -9999.0 -9999.0 -9999.0 -9999.0 -9999.0 -9999.0 -9999.0 -9999.0 -9999.0 -9999.0 -9999.0 -9999.0 -9999.0 -9999.0 -9999.0 -9999.0 -9999.0 -9999.0 -9999.0 -9999.0 -9999.0 -9999.0 -9999.0 -9999.0 -9999.0 -9999.0 -9999.0 -9999.0 -9999.0 -9999.0 -9999.0 -9999.0 -9999.0 -9999.0 -9999.0 -9999.0 -9999.0 -9999.0 -9999.0 -9999.0 -9999.0 -9999.0 -9999.0 -9999.0 -9999.0 -9999.0 -9999.0 -9999.0 -9999.0
0.8982308775481869 1.0381204217074143 1.0776644240836148 1.0236510247616193 0.9575198148497468 0.9278483191653979 0.8977342663386099 0.790033560052475 0.6955714365058769 0.627027697025536 0.5580177753598443 0.4777138474520158 0.3937150984493444 0.3134574117317777 0.21953473230918708 0.1257678642214247 0.08907284282207259 0.08867708004592839 0.10213830357109199 0.10011043213170479 0.06032046772767469 0.0158859838072246 -0.03957535796278981 -9999.0 -9999.0 -9999.0 -9999.0 -9999.0 -9999.0 -9999.0 -9999.0 -9999.0 -9999.0 -9999.0 -9999.0 -9999.0 -9999.0 -9999.0 -9999.0 -9999.0 -9999.0 0.1751030408094263 0.5803011094025978 0.8315882751162549 0.94746948100406 0.9986437644119852 1.3075815021213524 1.4376135557355016 1.4293826889811971 1.4607920458106924 1.6520218198001388 1.4699629803546679 1.466396787375686 1.5378433616043434 1.5047693460961227 0.8938624014689569 0.7854229284478254 0.7577718194114371 0.6329909785602219 0.5709676026350099 0.4774377443650171 0.46835355827742503 0.6371372944844975 0.6747036515430211 -9999.0 -9999.0 -9999.0 -9999.0 -9999.0 -9999.0 -9999.0 -9999.0 -9999.0 -9999.0 -9999.0 -9999.0 -9999.0 -9999.0 -9999.0 -9999.0 -9999.0 -9999.0 -9999.0 -9999.0 -9999.0 -9999.0 -9999.0 -9999.0 -9999.0 -9999.0 -9999.0 -9999.0 -9999.0 -9999.0 -9999.0 -9999.0 -9999.0 -9999.0 -9999.0 -9999.0 -9999.0 -9999.0 -9999.0 -9999.0 -9999.0 -9999.0 -9999.0 -9999.0 -9999.0 -9999.0 -9999.0 -9999.0 -9999.0 -9999.0 -9999.0 -9999.0 -9999.0 -9999.0 -9999.0 -9999.0 -9999.0 -9999.0 -9999.0 -9999.0 -9999.0 -9999.0 -9999.0 -9999.0 -9999.0 -9999.0 -9999.0 -9999.0 -9999.0 -9999.0 -9999.0 -9999.0 -9999.0 -9999.0 -9999.0 -9999.0 -9999.0 -9999.0 -9999.0 -9999.0 -9999.0 -9999.0 -9999.0 -9999.0 -9999.0 -9999.0
0.9851359042858874 1.135963914975739 1.1612426207304736 1.1336498901753609 1.0365348845634228 0.9661035046928448 0.9361031346561219 0.8628595062520179 0.7849216272735835 0.7393947501788711 0.7093248273238888 0.6438392208319694 0.5428459635362539 0.4049563343976218 0.2514846484882621 0.1180894722037183 0.0752814297864719 0.08456509758443259 0.12157761362518898 0.1267483675117272 0.0882445646468411 0.0226057905628472 -0.03763544551384291 -0.056662645300257206 -9999.0 -9999.0 -9999.0 -9999.0 -9999.0 -9999.0 -9999.0 -9999.0 -0.018335407436492708 0.006960302211033789 -9999.0 -9999.0 -9999.0 -9999.0 -9999.0 -9999.0 -9999.0 0.1726344267917545 0.46285994464156904 0.7373394397715993 0.7058379517196631 0.6891136053686704 1.0483958290041357 1.4313997266840588 1.6164661911333322 1.6919911854569338 1.8990876162311487 1.6278189339803628 1.3831048789271445 1.413008907810382 1.392943716172737 0.7985933559256237 0.8064374820599021 0.840092095467764 0.7908076140245268 0.6064282640956975 0.433385575479088 0.4245522710820913 0.5225291146297053 0.8541360391294652 -9999.0 -9999.0 -9999.0 -9999.0 -9999.0 -9999.0 -9999.0 -9999.0 -9999.0 -9999.0 -9999.0 -9999.0 -9999.0 -9999.0 -9999.0 -9999.0 -9999.0 -9999.0 -9999.0 -9999.0 -9999.0 -9999.0 -9999.0 -9999.0 -9999.0 -9999.0 -9999.0 -9999.0 -9999.0 -9999.0 -9999.0 -9999.0 -9999.0 -9999.0 -9999.0 -9999.0 -9999.0 -9999.0 -9999.0 -9999.0 -9999.0 -9999.0 -9999.0 -9999.0 -9999.0 -9999.0 -9999.0 -9999.0 -9999.0 -9999.0 -9999.0 -9999.0 -9999.0 -9999.0 -9999.0 -9999.0 -9999.0 -9999.0 -9999.0 -9999.0 -9999.0 -9999.0 -9999.0 -9999.0 -9999.0 -9999.0 -9999.0 -9999.0 -9999.0 -9999.0 -9999.0 -9999.0 -9999.0 -9999.0 -9999.0 -9999.0 -9999.0 -9999.0 -9999.0 -9999.0 -9999.0 -9999.0 -9999.0 -9999.0 -9999.0 -9999.0
1.042267099583279 1.0900564899743128 1.1694639948505927 1.18914477484533 1.1627040000129172 1.057550724692624 0.9592715348224385 0.9092401517040305 0.8597168516574587 0.8588039807863539 0.8495103374879152 0.8202801737047483 0.7518073676546198 0.6084979877974146 0.3847885813708818 0.1519261424838422 0.0549875478684104 0.046933601049343396 0.09521179108890729 0.1109458344280595 0.04916653206329359 -0.0459756258519534 -9999.0 -9999.0 -9999.0 -9999.0 -9999.0 -9999.0 -9999.0 -9999.0 -0.06922998999325991 -0.058528362355519004 0.04614780548161189 0.06256468650346189 -9999.0 -9999.0 -9999.0 -9999.0 -9999.0 -9999.0 -9999.0 0.05692458815398729 0.144608790349439 0.1788889440306252 0.13961855989105748 0.22247953779534352 0.893712205601443 1.1201750647987088 1.5080820923450478 1.6234080848700312 1.757242136265428 1.6224742880662866 1.3227662820746116 1.3072146490580578 1.299488926423926 0.7240000680351091 0.7590126814056606 0.8395916704137196 0.729379881806004 0.611473237154432 0.44185759093115645 0.3893460210788809 0.4548834925906094 0.7574959501433673 0.7006935682986999 -9999.0 -9999.0 -9999.0 -9999.0 -9999.0 -9999.0 -9999.0 -9999.0 -9999.0 -9999.0 -9999.0 -9999.0 -9999.0 -9999.0 -9999.0 -9999.0 -9999.0 -9999.0 -9999.0 -9999.0 -9999.0 -9999.0 -9999.0 -9999.0 -9999.0 -9999.0 -9999.0 -9999.0 -9999.0 -9999.0 -9999.0 -9999.0 -9999.0 -9999.0 -9999.0 -9999.0 -9999.0 -9999.0 -9999.0 -9999.0 -9999.0 -9999.0 -9999.0 -9999.0 -9999.0 -9999.0 -9999.0 -9999.0 -9999.0 -9999.0 -9999.0 -9999.0 -9999.0 -9999.0 -9999.0 -9999.0 -9999.0 -9999.0 -9999.0 -9999.0 -9999.0 -9999.0 -9999.0 -9999.0 -9999.0 -9999.0 -9999.0 -9999.0 -9999.0 -9999.0 -9999.0 -9999.0 -9999.0 -9999.0 -9999.0 -9999.0 -9999.0 -9999.0 -9999.0 -9999.0 -9999.0 -9999.0 -9999.0 -9999.0 -9999.0
1.1194922576953439 1.1271585620348021 1.1918652097251579 1.266976001874469 1.301701196303921 1.229463065866323 1.1033221624783303 0.9861250517830529 0.9477570559414705 0.9549079699592469 0.9415935349162052 0.945327954599589 0.9377615646896669 0.8461851941502891 0.6039764018539473 0.2876760266808285 0.056222565710683486 0.017786218386586394 0.04722092416149 0.05465332322650819 -0.027015397152881107 -9999.0 -9999.0 -9999.0 -9999.0 -9999.0 -0.04671911275460051 -0.040281615420922706 -0.055888487461520406 -0.0628485526728911 -0.06993684389417447 -0.05946073386146511 0.1042709200782734 0.1056087986094007 -9999.0 -9999.0 -9999.0 0.09309559611895749 -9999.0 -9999.0 -9999.0 -0.015736447707836207 0.04923780135006829 -9999.0 -9999.0 -9999.0 -9999.0 0.8589727841911463 1.2696729500433714 1.4821445828589912 1.6245933458076702 1.5450615275254467 1.3194157840120888 1.2525493815679298 1.2516803597005095 0.7509286265327151 0.7802989244261069 0.848640812421847 0.7398259784878534 0.5974478726582384 0.4930288861023662 0.3943529671521635 0.44174601103160555 0.5542970173505328 0.6976827012876088 0.47616553440176884 -9999.0 -9999.0 -9999.0 -9999.0 -9999.0 -9999.0 -9999.0 -9999.0 -9999.0 -9999.0 -9999.0 -9999.0 -9999.0 -9999.0 -9999.0 -9999.0 -9999.0 -9999.0 -9999.0 -9999.0 -9999.0 -9999.0 -9999.0 -9999.0 -9999.0 -9999.0 -9999.0 -9999.0 -9999.0 -9999.0 -9999.0 -9999.0 -9999.0 -9999.0 -9999.0 -9999.0 -9999.0 -9999.0 -9999.0 -9999.0 -9999.0 -9999.0 -9999.0 -9999.0 -9999.0 -9999.0 -9999.0 -9999.0 -9999.0 -9999.0 -9999.0 -9999.0 -9999.0 -9999.0 -9999.0 -9999.0 -9999.0 -9999.0 -9999.0 -9999.0 -9999.0 -9999.0 -9999.0 -9999.0 -9999.0 -9999.0 -9999.0 -9999.0 -9999.0 -9999.0 -9999.0 -9999.0 -9999.0 -9999.0 -9999.0 -9999.0 -9999.0 -9999.0 -9999.0 -9999.0 -9999.0 -9999.0 -9999.0 -9999.0
1.2814826687295158 1.2101519896953659 1.2674709200441305 1.3464019738755233 1.4072968181276837 1.4047040636213681 1.283146271649268 1.1476808131145744 1.1226097974621896 1.1277532628266538 1.1044742129456004 1.1092958431720659 1.0888608422897181 0.9888494863464434 0.8043883982694002 0.4659490675011477 0.1400416629276447 0.015774816393148497 0.026109354556006187 0.0151438709816165 -9999.0 -9999.0 -9999.0 -9999.0 -9999.0 -9999.0 -0.06027998358479711 -0.05033209375419681 -0.06116394419440771 -9999.0 -9999.0 0.01828708801497879 0.1450619321943324 0.14425005893235018 0.005661353186072388 -0.05593798869694071 0.3150960515008116 0.7167025490168475 0.209693939815632 -9999.0 -9999.0 -9999.0 -9999.0 -9999.0 -9999.0 -9999.0 -9999.0 0.6093933512855854 0.8286900068836334 1.2028855444159279 1.444576869159259 1.4556620180578475 1.3071264472640147 1.1588009271601352 1.138652219053675 1.2116953503647698 0.9309592826426389 0.8566837777251499 0.7971843346654104 0.6413380994785753 0.49720649677057954 0.43094782346153454 0.38864179827700157 0.3924050584753896 0.5274210629334766 0.6117928275088931 -0.03361101275402371 -9999.0 -9999.0 -9999.0 -9999.0 -9999.0 -9999.0 -9999.0 -9999.0 -9999.0 -9999.0 -9999.0 -9999.0 -9999.0 -9999.0 -9999.0 -9999.0 -9999.0 -9999.0 -9999.0 -9999.0 -9999.0 -9999.0 -9999.0 -9999.0 -9999.0 -9999.0 -9999.0 -9999.0 -9999.0 -9999.0 -9999.0 -9999.0 -9999.0 -9999.0 -9999.0 -9999.0 -9999.0 -9999.0 -9999.0 -9999.0 -9999.0 -9999.0 -9999.0 -9999.0 -9999.0 -9999.0 -9999.0 -9999.0 -9999.0 -9999.0 -9999.0 -9999.0 -9999.0 -9999.0 -9999.0 -9999.0 -9999.0 -9999.0 -9999.0 -9999.0 -9999.0 -9999.0 -9999.0 -9999.0 -9999.0 -9999.0 -9999.0 -9999.0 -9999.0 -9999.0 -9999.0 -9999.0 -9999.0 -9999.0 -9999.0 -9999.0 -9999.0 -9999.0 -9999.0 -9999.0 -9999.0 -9999.0 -9999.0
1.5325108004012336 1.3710139280161207 1.3156805060660979 1.330490543282467 1.4215040837903858 1.4603845753685387 1.4118738466749086 1.2921341424324457 1.276087851901489 1.274544881212023 1.246349173995201 1.290287731917888 1.214853760421968 1.0755589522399784 0.9037775568610273 0.6298507154784201 0.3582778927457845 0.150855623878029 0.031852586763065294 -0.05698395212055231 -9999.0 -9999.0 -9999.0 -9999.0 -9999.0 -9999.0 -0.0689225922043488 -9999.0 -9999.0 -9999.0 0.02488143519415309 0.1675321483101358 0.2543462344038198 0.2359972572841515 0.1138895516871693 0.0268358055337167 0.2975624724652672 1.7755554419402984 0.7893870230066939 0.3865748602551325 0.04014073564110329 -9999.0 -9999.0 -9999.0 -9999.0 -9999.0 -9999.0 -9999.0 0.7127535635839586 1.0565828479882535 1.2604532070961376 1.367961480700595 1.3002866053425906 1.126683015104293 1.1300690288937403 1.5052616068714184 1.6910498792237243 0.942875264995616 0.837651658852756 0.7340614545815589 0.5332091716362317 0.4400149163904246 0.3375485966889289 0.3118050321656329 0.3799501484084459 0.44914284606880045 0.4116356662567788 0.01822664671218259 -9999.0 -9999.0 -9999.0 -9999.0 -9999.0 -9999.0 -9999.0 -9999.0 -9999.0 -9999.0 -9999.0 -9999.0 -9999.0 -9999.0 -9999.0 -9999.0 -9999.0 -9999.0 -9999.0 -9999.0 -9999.0 -9999.0 -9999.0 -9999.0 -9999.0 -9999.0 -9999.0 -9999.0 -9999.0 -9999.0 -9999.0 -9999.0 -9999.0 -9999.0 -9999.0 -9999.0 -9999.0 -9999.0 -9999.0 -9999.0 -9999.0 -9999.0 -9999.0 -9999.0 -9999.0 -9999.0 -9999.0 -9999.0 -9999.0 -9999.0 -9999.0 -9999.0 -9999.0 -9999.0 -9999.0 -9999.0 -9999.0 -9999.0 -9999.0 -9999.0 -9999.0 -9999.0 -9999.0 -9999.0 -9999.0 -9999.0 -9999.0 -9999.0 -9999.0 -9999.0 -9999.0 -9999.0 -9999.0 -9999.0 -9999.0 -9999.0 -9999.0 -9999.0 -9999.0 -9999.0 -9999.0 -9999.0
1.7977457544348887 1.5675093963336888 1.3626847408053224 1.3188156691481718 1.3518773299301161 1.4539857157777112 1.4557552151262672 1.3915372829063541 1.4142237467976557 1.5082508678686712 1.5159911950797103 1.4256876348051775 1.31086421838903 1.1203834757384499 0.9372588282302412 0.7368285510186556 0.5437625697380097 0.4037306400656428 0.14477217025115538 -9999.0 -9999.0 -9999.0 -9999.0 -9999.0 -0.0671247379976566 -9999.0 -9999.0 -9999.0 -9999.0 -0.024165331973696406 0.1497693181154332 0.2789950119490831 0.326655499419989 0.2949637720845042 0.1859910677068417 0.062307377700387384 0.0340495145056986 4.446289393199291 4.536851042535099 0.8350406846041478 0.5036498017828401 -0.041567254858906805 -9999.0 -9999.0 -9999.0 -9999.0 -9999.0 -9999.0 -9999.0 0.7807559804344155 1.158287045359591 1.3329230421692835 1.3301966404536176 1.2512572359310727 1.4028528386235362 1.9530888370130868 1.8280019648183359 1.5501863959535953 0.9279291148780429 0.8976885409205295 0.7337813745323833 0.504132728724956 0.3725298166476893 0.3222396287193448 0.3506861768770923 0.390598802367245 0.5153836915674499 0.5720736858010418 -0.044048278066441404 -9999.0 -9999.0 -9999.0 -9999.0 -9999.0 -9999.0 -9999.0 -9999.0 -9999.0 -9999.0 -9999.0 -9999.0 -9999.0 -9999.0 -9999.0 -9999.0 -9999.0 -9999.0 -9999.0 -9999.0 -9999.0 -9999.0 -9999.0 -9999.0 -9999.0 -9999.0 -9999.0 -9999.0 -9999.0 -9999.0 -9999.0 -9999.0 -9999.0 -9999.0 -9999.0 -9999.0 -9999.0 -9999.0 -9999.0 -9999.0 -9999.0 -9999.0 -9999.0 -9999.0 -9999.0 -9999.0 -9999.0 -9999.0 -9999.0 -9999.0 -9999.0 -9999.0 -9999.0 -9999.0 -9999.0 -9999.0 -9999.0 -9999.0 -9999.0 -9999.0 -9999.0 -9999.0 -9999.0 -9999.0 -9999.0 -9999.0 -9999.0 -9999.0 -9999.0 -9999.0 -9999.0 -9999.0 -9999.0 -9999.0 -9999.0 -9999.0 -9999.0 -9999.0 -9999.0 -9999.0 -9999.0
1.9354677416592783 1.8896734659582544 1.64495618542335 1.4414600505704025 1.3932130808681444 1.4782158439668587 1.5419716712504623 1.506415710619056 1.5880352852154835 1.7046811024771598 1.6257211675862384 1.4670827704707579 1.282988384608698 1.120046548049833 0.9455712646025989 0.7674140376851737 0.6171917026862295 0.47997458306968915 0.1745839886239351 -0.0596946967904913 -9999.0 -9999.0 -0.0675064585292294 -0.067910843337082 -9999.0 -9999.0 -9999.0 -9999.0 -0.04879544990334171 0.10703315549644449 0.2793371207443098 0.3785234655585295 0.4038216939739217 0.3487384245828135 0.2284656118026791 0.07747244628558808 0.0342973538608444 0.06296853098592989 6.613782305532943 2.807757827423153 0.5594952115482157 0.3189226753631604 0.05289241786469029 -9999.0 -9999.0 -9999.0 -9999.0 -9999.0 -9999.0 0.2843676908607084 0.8361030014680528 1.336460299426475 1.3837614033236367 1.3892729770537617 1.4475826021628364 1.5879679328979248 1.5840026181312679 1.568083770337546 1.5146696776898192 1.1490708589997662 1.091408213757869 0.5863171506536857 0.4321581999124046 0.3581182127676294 0.3497144930301385 0.4073781412899238 0.6214882245702125 0.741321159285204 0.5549932050695685 -9999.0 -9999.0 -9999.0 -9999.0 -9999.0 -9999.0 -9999.0 -9999.0 -9999.0 -9999.0 -9999.0 -9999.0 -9999.0 -9999.0 -9999.0 -9999.0 -9999.0 -9999.0 -9999.0 -9999.0 -9999.0 -9999.0 -9999.0 -9999.0 -9999.0 -9999.0 -9999.0 -9999.0 -9999.0 -9999.0 -9999.0 -9999.0 -9999.0 -9999.0 -9999.0 -9999.0 -9999.0 -9999.0 -9999.0 -9999.0 -9999.0 -9999.0 -9999.0 -9999.0 -9999.0 -9999.0 -9999.0 -9999.0 -9999.0 -9999.0 -9999.0 -9999.0 -9999.0 -9999.0 -9999.0 -9999.0 -9999.0 -9999.0 -9999.0 -9999.0 -9999.0 -9999.0 -9999.0 -9999.0 -9999.0 -9999.0 -9999.0 -9999.0 -9999.0 -9999.0 -9999.0 -9999.0 -9999.0 -9999.0 -9999.0 -9999.0 -9999.0 -9999.0 -9999.0 -9999.0 -9999.0
1.9284666563509663 1.9355381293213256 1.9370230075845376 1.905169848294176 1.8001174401706208 1.836721174089625 1.844188977257308 1.7444865195515036 1.7986302926459727 1.814515344202816 1.5739977252539719 1.3407762874230984 1.1683184966819657 1.0376728844981054 0.9333947363799615 0.717553446058514 0.5529316792294321 0.382818735108811 0.2539811736903825 0.016406658107529587 -9999.0 -0.06692432141471771 -0.04431465060806811 -0.062198014501095904 -9999.0 -9999.0 -0.021919533574234408 0.11706577383168448 0.21915844289646308 0.350535179786651 0.45890143908590914 0.507528086779627 0.5116807292931704 0.4263136637873479 0.2853637140923757 0.11620977496287768 0.05877918981611338 0.0908577635158985 0.1232369875278709 1.0737987597027145 0.4433325791123966 -9999.0 0.18251489155312617 0.010891912953627694 -9999.0 -9999.0 -9999.0 -9999.0 -9999.0 -9999.0 0.7027668802240841 1.139731890114412 1.3915440704891038 1.4052171835012461 1.4324470403592875 1.452653451475922 1.5134311126126903 1.6291132490450437 1.8871488183163267 1.3794727065246188 1.1416253248558779 0.9621322050595726 0.5256529534473497 0.3866240808531287 0.3735419005293647 0.4417324106780954 0.7758400117469564 0.6140719757409208 0.5776567001033068 0.5281702916211073 -9999.0 -9999.0 -9999.0 -9999.0 -9999.0 -9999.0 -9999.0 -9999.0 -9999.0 -9999.0 -9999.0 -9999.0 -9999.0 -9999.0 -9999.0 -9999.0 -9999.0 -9999.0 -9999.0 -9999.0 -9999.0 -9999.0 -9999.0 -9999.0 -9999.0 -9999.0 -9999.0 -9999.0 -9999.0 -9999.0 -9999.0 -9999.0 -9999.0 -9999.0 -9999.0 -9999.0 -9999.0 -9999.0 -9999.0 -9999.0 -9999.0 -9999.0 -9999.0 -9999.0 -9999.0 -9999.0 -9999.0 -9999.0 -9999.0 -9999.0 -9999.0 -9999.0 -9999.0 -9999.0 -9999.0 -9999.0 -9999.0 -9999.0 -9999.0 -9999.0 -9999.0 -9999.0 -9999.0 -9999.0 -9999.0 -9999.0 -9999.0 -9999.0 -9999.0 -9999.0 -9999.0 -9999.0 -9999.0 -9999.0 -9999.0 -9999.0 -9999.0 -9999.0 -9999.0 -9999.0
1.7943571465420296 1.875751604609221 1.930033496982665 1.93587480575087 1.9312111088596497 1.9354195948170825 1.9468424940794231 1.915880002911021 1.991804919648098 1.982419351942175 1.5507667648024814 1.3231472166138494 1.14133418156912 1.0274334786487047 0.9170213445503053 0.6639609132630766 0.548238637421474 0.454135570153494 0.4044090795636428 0.21799747927325708 0.006156313053566495 0.016879447474369993 0.05993520870149949 0.0470507005644715 0.0014782359820148944 0.054439017429215794 0.18448959548298838 0.3226206027619678 0.4472197200373718 0.6493708695729765 0.6943153450707009 0.6587703163791725 0.6065227760643788 0.5109026340556135 0.36158961305128 0.2016309028227139 0.1132146649084908 0.11533327837528148 0.1208342734331431 0.1525978092328755 0.0004913488049684001 -9999.0 -9999.0 0.1208662707260949 0.006830075063103597 -9999.0 -9999.0 -9999.0 -9999.0 -9999.0 -9999.0 0.9118370550000641 1.2579334153940231 1.4606003305130721 1.5153401440473024 1.5265315208416959 1.5218797923856093 1.5611464926949394 1.9418366250474401 1.8963946287135063 1.2228051079195106 1.170044479456737 0.6675810325869385 0.408636152101991 0.3905845553141022 0.47922783661231744 0.5165470478797618 0.5264875977153702 0.5645905747934223 0.6528655484589856 0.5625518842977772 -9999.0 -9999.0 -9999.0 -9999.0 -9999.0 -9999.0 -9999.0 -9999.0 -9999.0 -9999.0 -9999.0 -9999.0 -9999.0 -9999.0 -9999.0 -9999.0 -9999.0 -9999.0 -9999.0 -9999.0 -9999.0 -9999.0 -9999.0 -9999.0 -9999.0 -9999.0 -9999.0 -9999.0 -9999.0 -9999.0 -9999.0 -9999.0 -9999.0 -9999.0 -9999.0 -9999.0 -9999.0 -9999.0 -9999.0 -9999.0 -9999.0 -9999.0 -9999.0 -9999.0 -9999.0 -9999.0 -9999.0 -9999.0 -9999.0 -9999.0 -9999.0 -9999.0 -9999.0 -9999.0 -9999.0 -9999.0 -9999.0 -9999.0 -9999.0 -9999.0 -9999.0 -9999.0 -9999.0 -9999.0 -9999.0 -9999.0 -9999.0 -9999.0 -9999.0 -9999.0 -9999.0 -9999.0 -9999.0 -9999.0 -9999.0 -9999.0 -9999.0 -9999.0 -9999.0
1.6302819956388215 1.708213966566 1.8251836512133868 1.8968119535189927 1.9261222503648758 1.9285902168586708 1.9274233398811529 1.9283088684935423 2.017231893718115 2.083549394667951 1.7854758622384663 1.533460329393366 1.359616834790924 1.1322779903858804 0.9302478711045812 0.7352412767184624 0.6682005601983494 0.5738032329488114 0.4718316072471154 0.3138741531066347 0.1840938642608811 0.18108760216298242 0.2570381101258911 0.2714521523723863 0.2314192121804725 0.2329180535963698 0.3112561934850195 0.4300326331193915 0.6834169172186475 0.87386395544121 0.8386824277555758 0.7379222656970543 0.6480392760586093 0.5324591947849957 0.39123829797798887 0.2678378203577047 0.1848734171719093 0.13622909778882059 0.1439959404682597 0.1713282719840733 0.1317162522068327 -9999.0 -9999.0 -9999.0 -9999.0 -0.01297159972880891 -9999.0 -9999.0 -9999.0 -9999.0 -9999.0 0.1421611419076548 0.949686592260621 1.403524597749766 1.8471904058051716 1.8915083202190368 1.5426450476972258 1.46654054172839 1.8295787397069636 2.021021314480385 1.6390526663859921 1.1783528255688502 0.6532363395832324 0.4935344622511911 0.45324131246480187 0.4283322688731885 0.42393701849902277 0.4823512097633476 0.4752429150761052 0.5536094791959612 0.6666772865008448 0.4095822106752427 -9999.0 -9999.0 -9999.0 -9999.0 -9999.0 -9999.0 -9999.0 -9999.0 -9999.0 -9999.0 -9999.0 -9999.0 -9999.0 -9999.0 -9999.0 -9999.0 -9999.0 -9999.0 -9999.0 -9999.0 -9999.0 -9999.0 -9999.0 -9999.0 -9999.0 -9999.0 -9999.0 -9999.0 -9999.0 -9999.0 -9999.0 -9999.0 -9999.0 -9999.0 -9999.0 -9999.0 -9999.0 -9999.0 -9999.0 -9999.0 -9999.0 -9999.0 -9999.0 -9999.0 -9999.0 -9999.0 -9999.0 -9999.0 -9999.0 -9999.0 -9999.0 -9999.0 -9999.0 -9999.0 -9999.0 -9999.0 -9999.0 -9999.0 -9999.0 -9999.0 -9999.0 -9999.0 -9999.0 -9999.0 -9999.0 -9999.0 -9999.0 -9999.0 -9999.0 -9999.0 -9999.0 -9999.0 -9999.0 -9999.0 -9999.0 -9999.0 -9999.0 -9999.0
1.6345202912423704 1.6905013523540908 1.7830934574158908 1.8586027482578171 1.9101136010962751 1.9300644843255943 1.9361099638146728 1.9295362896390236 1.9263742679870919 1.9301546809454344 1.9221527220146455 1.835088520686016 1.73758684216072 1.4350397421218324 1.0296742462979036 0.7712540742337277 0.6811324945061046 0.5572264627231078 0.41773896990641357 0.3472505607618242 0.2908005881895951 0.3260860988507318 0.38478223493013547 0.3881534845529196 0.3814366792552099 0.4142193913260143 0.5033712623166464 0.6819912554923773 0.9176145262972448 0.9385859424432756 0.8664482881907505 0.7317395724734308 0.5899133879772436 0.4548008193342335 0.3411418200626718 0.2785889115713368 0.26497055657962937 0.2532544027295975 0.2564242431890889 0.2199663166164429 0.19538022141017047 -9999.0 -9999.0 -9999.0 -9999.0 -9999.0 0.11973669086026709 -9999.0 -9999.0 -9999.0 -9999.0 -9999.0 0.8292904591139345 1.124716899210849 1.8215976765707844 1.8538962776076928 1.695681319303667 1.7272802136941876 1.9629963847057985 2.061934418107741 1.9947635381925595 1.1476503371812155 0.7132215426599029 0.6359370739410868 0.47986319657691273 0.4207663186360755 0.37347129601290757 0.2999769158335941 0.2924423401625575 0.4321075042884642 0.6092895836224803 0.6454201418784979 -9999.0 -9999.0 -9999.0 -9999.0 -9999.0 -9999.0 -9999.0 -9999.0 -9999.0 -9999.0 -9999.0 -9999.0 -9999.0 -9999.0 -9999.0 -9999.0 -9999.0 -9999.0 -9999.0 -9999.0 -9999.0 -9999.0 -9999.0 -9999.0 -9999.0 -9999.0 -9999.0 -9999.0 -9999.0 -9999.0 -9999.0 -9999.0 -9999.0 -9999.0 -9999.0 -9999.0 -9999.0 -9999.0 -9999.0 -9999.0 -9999.0 -9999.0 -9999.0 -9999.0 -9999.0 -9999.0 -9999.0 -9999.0 -9999.0 -9999.0 -9999.0 -9999.0 -9999.0 -9999.0 -9999.0 -9999.0 -9999.0 -9999.0 -9999.0 -9999.0 -9999.0 -9999.0 -9999.0 -9999.0 -9999.0 -9999.0 -9999.0 -9999.0 -9999.0 -9999.0 -9999.0 -9999.0 -9999.0 -9999.0 -9999.0 -9999.0 -9999.0 -9999.0
1.8282531942074383 1.8672552323192109 1.8721919326995347 1.8992930311346896 1.9323815420110149 2.0196418649767947 1.973558810744293 1.9242079964231122 1.90429869735445 1.9215602566047687 1.9295407989926832 1.9280987007423271 1.9146949326210558 1.714692480808328 1.2341685872177128 0.7663199196032207 0.5730736810105663 0.447630383983529 0.3840052819770208 0.3755090904960662 0.385276024031262 0.4062068033462596 0.40630138131311627 0.4073022470463069 0.4544604202126917 0.5774476490290426 0.7142077124926964 0.9153077849310021 1.0227331062611904 0.9579499202132848 0.7236702671650617 0.5820751179693062 0.44893763391010005 0.33988290711471847 0.2728826018344357 0.2643691169604519 0.27812379694776307 0.3294522406796497 0.34234650078778667 0.2679235079665291 0.20051777799296489 0.1769854798482694 -9999.0 -9999.0 -9999.0 -9999.0 -9999.0 0.0365600336343659 -9999.0 -9999.0 -9999.0 0.005869822349508794 0.5451919437770889 1.0066815951559187 1.2876475961979275 1.6728072536936007 1.876542442357395 1.9599696854561206 2.0143112263413863 2.1089401776520353 2.021157248690252 1.6386000086013357 0.7619674422412435 0.6941445823570898 0.6006221475672819 0.450108387999324 0.3767022094652885 0.2836242630006668 0.35727548109921187 0.5365472871377714 0.5767561522246776 0.6288499030946062 0.5953440582732654 -9999.0 -9999.0 -9999.0 -9999.0 -9999.0 -9999.0 -9999.0 -9999.0 -9999.0 -9999.0 -9999.0 -9999.0 -9999.0 -9999.0 -9999.0 -9999.0 -9999.0 -9999.0 -9999.0 -9999.0 -9999.0 -9999.0 -9999.0 -9999.0 -9999.0 -9999.0 -9999.0 -9999.0 -9999.0 -9999.0 -9999.0 -9999.0 -9999.0 -9999.0 -9999.0 -9999.0 -9999.0 -9999.0 -9999.0 -9999.0 -9999.0 -9999.0 -9999.0 -9999.0 -9999.0 -9999.0 -9999.0 -9999.0 -9999.0 -9999.0 -9999.0 -9999.0 -9999.0 -9999.0 -9999.0 -9999.0 -9999.0 -9999.0 -9999.0 -9999.0 -9999.0 -9999.0 -9999.0 -9999.0 -9999.0 -9999.0 -9999.0 -9999.0 -9999.0 -9999.0 -9999.0 -9999.0 -9999.0 -9999.0 -9999.0 -9999.0 -9999.0
1.9693699103007278 2.009137347906158 2.002937148862349 2.003504921533553 2.0730146130435227 2.145848615307092 2.0070572871531103 1.8281543285726796 1.7601024770768412 1.8260635436540447 1.9125949088224035 1.9275555572204308 1.9313396820616238 1.9339225896429528 1.7044676141000408 1.073684411507277 0.680088273092585 0.49793649885653973 0.457505250934591 0.47474514896223236 0.45308192831754973 0.4202363582188723 0.3871452853260481 0.3913620683727538 0.5822951688306146 0.7870351578512698 0.9747680207528628 1.1378219974631854 1.0260213155510542 0.7059279092724504 0.5403948376063559 0.4244126733151457 0.3342626032904824 0.2578400214095819 0.2076199787920503 0.19741212700891947 0.23158592600949351 0.2894269363135002 0.3039349434496519 0.2516140401496395 0.18987817928284878 0.1629498857587145 0.11865283994075179 -9999.0 -9999.0 -9999.0 -9999.0 -9999.0 0.004226893279681593 -0.030546747671340704 0.16930952794501308 0.6442011039545448 0.8593186662473042 0.8680798486277019 1.0663427483694394 1.2802191846606104 1.923957898988788 2.1700341278849473 2.1907174767989614 2.0875661784359103 1.7409336222215475 1.5457561039907577 1.3091470917437944 0.6936637935978502 0.6262262997004886 0.5242494064691174 0.4600194812804122 0.5141739774062444 0.5919764047988354 0.6434407776159308 0.6854959828079712 0.720250593643839 0.7490485371794751 0.5763383300710401 -9999.0 -9999.0 -9999.0 -9999.0 -9999.0 -9999.0 -9999.0 -9999.0 -9999.0 -9999.0 -9999.0 -9999.0 -9999.0 -9999.0 -9999.0 -9999.0 -9999.0 -9999.0 -9999.0 -9999.0 -9999.0 -9999.0 -9999.0 -9999.0 -9999.0 -9999.0 -9999.0 -9999.0 -9999.0 -9999.0 -9999.0 -9999.0 -9999.0 -9999.0 -9999.0 -9999.0 -9999.0 -9999.0 -9999.0 -9999.0 -9999.0 -9999.0 -9999.0 -9999.0 -9999.0 -9999.0 -9999.0 -9999.0 -9999.0 -9999.0 -9999.0 -9999.0 -9999.0 -9999.0 -9999.0 -9999.0 -9999.0 -9999.0 -9999.0 -9999.0 -9999.0 -9999.0 -9999.0 -9999.0 -9999.0 -9999.0 -9999.0 -9999.0 -9999.0 -9999.0 -9999.0 -9999.0 -9999.0 -9999.0 -9999.0 -9999.0
2.0522056229386467 2.095230934449412 2.1025996615758564 2.1042401074156527 2.119312679780608 2.123890071300021 1.9391281656827444 1.720092885958833 1.606685879634899 1.5812838099518138 1.7071277348200504 1.8450737096876584 1.9179205035472089 1.9348827660235781 1.9439145851135253 1.9305453096160952 1.654200620407396 0.904387213487396 0.6045171769782214 0.5416398794805861 0.5195496123052166 0.491276233649857 0.4245632218202336 0.5174412340448129 0.8540278344363104 1.078330110220427 1.1410942271922095 1.0733721896045036 0.7698270337651776 0.582932437930435 0.45115110229613803 0.3686024519439698 0.3157097636828265 0.2511324915322132 0.1857927498458729 0.1554546637336389 0.1441814266770638 0.17267200330293808 0.218037539782238 0.21300239666271548 0.1826832271805387 0.14409878095336298 0.11114649563129078 0.06537153342832419 -9999.0 -9999.0 -9999.0 -9999.0 -9999.0 0.0807849200699279 0.6782654065433065 1.0252163351007264 0.9745871998028044 0.8193770699038267 0.8704216986160989 1.0868024506301295 1.5939352716843234 2.3096375836779792 2.229690152034575 1.8594633058587229 1.4383492364152064 1.2821897243700497 1.2966449350959675 0.8297701416735699 0.5379385096532237 0.5221282927595743 0.6366162892755654 0.7767019562552939 0.9575578032157064 1.040259194778222 1.017560628115593 0.9988317373489948 0.9982276654462658 0.8777585930891652 0.5289988338911324 -9999.0 -9999.0 -9999.0 -9999.0 -9999.0 -9999.0 -9999.0 -9999.0 -9999.0 -9999.0 -9999.0 -9999.0 -9999.0 -9999.0 -9999.0 -9999.0 -9999.0 -9999.0 -9999.0 -9999.0 -9999.0 -9999.0 -9999.0 -9999.0 -9999.0 -9999.0 -9999.0 -9999.0 -9999.0 -9999.0 -9999.0 -9999.0 -9999.0 -9999.0 -9999.0 -9999.0 -9999.0 -9999.0 -9999.0 -9999.0 -9999.0 -9999.0 -9999.0 -9999.0 -9999.0 -9999.0 -9999.0 -9999.0 -9999.0 -9999.0 -9999.0 -9999.0 -9999.0 -9999.0 -9999.0 -9999.0 -9999.0 -9999.0 -9999.0 -9999.0 -9999.0 -9999.0 -9999.0 -9999.0 -9999.0 -9999.0 -9999.0 -9999.0 -9999.0 -9999.0 -9999.0 -9999.0 -9999.0 -9999.0 -9999.0
2.127366261991071 2.193451715048185 2.1465356886002946 2.1144817213225364 2.101072830765107 2.052025526147614 1.942467316832771 1.7375925684734115 1.5622791463165286 1.5189523029327392 1.5865220813066208 1.706072987417515 1.7653925358080855 1.8239178136984988 1.8760982865270623 1.9272528883798208 1.9291798656808903 1.925522750605225 1.3935408753894059 0.6963158222734736 0.6573949761047779 0.766161762194892 0.850772051108333 0.9844682332078369 1.0683932750526395 1.0675853632366803 0.9749321584165467 0.8252743885409042 0.6549538021084391 0.5691653216113108 0.4911598457430147 0.4083878198580603 0.3664851481840455 0.3206909879999235 0.2406171543597233 0.16545513074663978 0.1302539590005242 0.13006312746089768 0.161388522226152 0.2003202650957565 0.2016869108125678 0.1582912156371418 0.10277739486518869 0.07725478951735348 -9999.0 -9999.0 -9999.0 -9999.0 -9999.0 -9999.0 0.04750212862439049 0.7862664009932947 0.9445197951982884 1.0293821513068306 0.9197099390063057 0.9377917202419896 1.1985647193261975 1.5736195831689583 1.6926152653006314 1.477384468234999 1.272488569890156 1.2143241515635552 1.2491783500668439 1.2339874412124399 0.6170525476096635 0.6284806428772469 0.7198679313834331 1.0260536373048343 1.1888662945854163 1.2615859014627908 1.4105261918600482 1.3644556652093187 1.415858093494819 1.3793098041511083 1.1142711298435768 0.1731751140643793 -9999.0 -9999.0 -9999.0 -9999.0 -9999.0 -9999.0 -9999.0 -9999.0 -9999.0 -9999.0 -9999.0 -9999.0 -9999.0 -9999.0 -9999.0 -9999.0 -9999.0 -9999.0 -9999.0 -9999.0 -9999.0 -9999.0 -9999.0 -9999.0 -9999.0 -9999.0 -9999.0 -9999.0 -9999.0 -9999.0 -9999.0 -9999.0 -9999.0 -9999.0 -9999.0 -9999.0 -9999.0 -9999.0 -9999.0 -9999.0 -9999.0 -9999.0 -9999.0 -9999.0 -9999.0 -9999.0 -9999.0 -9999.0 -9999.0 -9999.0 -9999.0 -9999.0 -9999.0 -9999.0 -9999.0 -9999.0 -9999.0 -9999.0 -9999.0 -9999.0 -9999.0 -9999.0 -9999.0 -9999.0 -9999.0 -9999.0 -9999.0 -9999.0 -9999.0 -9999.0 -9999.0 -9999.0 -9999.0 -9999.0
2.332159898080127 2.360816865084422 2.216051829988826 2.0875345056065377 2.032924882076672 2.0054920154232883 1.9515752163924283 1.7891189952256528 1.656743134359978 1.591124194113426 1.6586334994574792 1.7167885737446276 1.7039473286569349 1.6258632585609682 1.5862678289861338 1.6161500155575923 1.725142525026429 1.8931460269906006 1.9169436109051439 1.924706225367917 1.8563826715354188 1.4757572949571036 1.2670351210574424 1.138309863823482 1.0699776256263152 0.9577246954321903 0.882578842577884 0.7773686411963199 0.6480021131117755 0.6066823273081987 0.6258587444269972 0.5782687981404631 0.5286925872572845 0.464163454876333 0.3692410858983337 0.2637625212995675 0.18594611724797572 0.1571119063122069 0.18327645765128547 0.2308055660459305 0.2679198440984361 0.22570970148436648 0.1490454966887945 0.1132746069058132 0.08283001513814378 -9999.0 -9999.0 -9999.0 -9999.0 -9999.0 -9999.0 -9999.0 0.846871586826998 1.07081361948926 0.9134565990619332 0.8673827577009126 1.0921728120905503 1.210206612697087 1.2944764972914051 1.3268695435171078 1.2674176112127749 1.2321317976884862 1.21875912700486 1.2405190676499243 1.2285646731262907 0.8667262929973465 0.8703116117244487 1.111574287247163 1.2516085249138744 1.4026083804493534 1.5507806986081258 1.6944271923034955 2.212416558085125 2.4200952628732693 1.2864050040875785 1.1162190160327181 0.1198561828717121 -9999.0 -9999.0 -9999.0 -9999.0 -9999.0 -9999.0 0.2528839159238998 0.1242868528758688 -9999.0 -9999.0 -9999.0 -9999.0 -9999.0 -9999.0 -9999.0 -9999.0 -9999.0 -9999.0 -9999.0 -9999.0 -9999.0 -9999.0 -9999.0 -9999.0 -9999.0 -9999.0 -9999.0 -9999.0 -9999.0 -9999.0 -9999.0 -9999.0 -9999.0 -9999.0 -9999.0 -9999.0 -9999.0 -9999.0 -9999.0 -9999.0 -9999.0 -9999.0 -9999.0 -9999.0 -9999.0 -9999.0 -9999.0 -9999.0 -9999.0 -9999.0 -9999.0 -9999.0 -9999.0 -9999.0 -9999.0 -9999.0 -9999.0 -9999.0 -9999.0 -9999.0 -9999.0 -9999.0 -9999.0 -9999.0 -9999.0 -9999.0 -9999.0 -9999.0 -9999.0 -9999.0 -9999.0 -9999.0 -9999.0
2.744280453594747 2.597818451226108 2.368678666118807 2.1205270277698602 2.012227264742689 1.9917681315822666 1.9388945821751131 1.8214248690083412 1.7439337312754335 1.7488933734606296 1.8659920144253794 1.8320143815380223 1.6438186884876302 1.4200867538388808 1.2228537441790892 1.1439382174291224 1.1158613985545098 1.3677844879748364 1.6869630843560592 1.886610343249699 1.894493133299154 1.6871021842766687 1.3583606230987233 1.1626424103456718 0.9820093982489981 0.9163898977528868 0.891518656075946 0.8453160349088 0.7613536113839625 0.8369200230933771 0.9312465483070023 0.8072245242253415 0.7008038557072764 0.6292462149822906 0.5374567423489993 0.4234519288208175 0.3048642419176333 0.2653908104613597 0.2906650967065936 0.3470132634469338 0.374864718772457 0.3143966733247111 0.1916487956212528 0.1702782029045597 0.1640726475397627 -9999.0 -9999.0 -9999.0 -9999.0 -9999.0 -9999.0 -9999.0 -9999.0 0.7993130517144682 0.7888856070765653 0.773970195467516 0.9847848367718743 1.130655106952405 1.2619429149833543 1.2886639061005989 1.2490945113066187 1.267405247173595 1.2447391908385876 1.297524142630801 1.2796730440712902 1.2382553868874118 1.1607197524349697 1.1339438885836577 1.2972091226516935 1.3624572846876524 1.332290277418329 1.5062176628670296 1.8834673913886648 1.358536544726578 0.9741833364501238 0.9378131447323454 0.7467930668511025 0.23047534888757337 -9999.0 -9999.0 -9999.0 -9999.0 0.2149133504992886 0.2891472919748631 0.3192464661926555 -9999.0 -9999.0 -9999.0 -9999.0 -9999.0 -9999.0 -9999.0 -9999.0 -9999.0 -9999.0 -9999.0 -9999.0 -9999.0 -9999.0 -9999.0 -9999.0 -9999.0 -9999.0 -9999.0 -9999.0 -9999.0 -9999.0 -9999.0 -9999.0 -9999.0 -9999.0 -9999.0 -9999.0 -9999.0 -9999.0 -9999.0 -9999.0 -9999.0 -9999.0 -9999.0 -9999.0 -9999.0 -9999.0 -9999.0 -9999.0 -9999.0 -9999.0 -9999.0 -9999.0 -9999.0 -9999.0 -9999.0 -9999.0 -9999.0 -9999.0 -9999.0 -9999.0 -9999.0 -9999.0 -9999.0 -9999.0 -9999.0 -9999.0 -9999.0 -9999.0 -9999.0 -9999.0 -9999.0 -9999.0 -9999.0
2.950789007432301 2.8196634079748497 2.586769583551155 2.3273688372421892 2.0921499926509703 1.980507481090289 1.929307635080591 1.8709536733537087 1.8262994784746407 1.8928178550649695 1.929320806147852 1.8630000748468336 1.5992689558442175 1.3070828912365144 1.1094023520393426 1.0568011634888284 1.031603190892846 1.110082126212746 1.362382243753111 1.6018168580803087 1.6336878488637367 1.407473689126541 1.1661957136705763 1.0419354811868733 0.9811230289687036 0.9429224908164799 1.0081846555479494 1.1475096335682897 1.2820039298925274 1.5247820503546456 1.3937093989690579 1.0135825995456904 0.7710682356111287 0.7114572039044265 0.6838301876075961 0.6384806495981377 0.5327099593054883 0.46377069587368575 0.47227806896716745 0.4927097665859052 0.4892565233014588 0.3921540645635329 0.20726245619642147 0.1893478870565451 0.24312080175758938 -9999.0 -9999.0 0.007864452583210793 -9999.0 -9999.0 -9999.0 -9999.0 -9999.0 0.06011146088312788 0.7192104593580495 0.3765500163756979 0.2939921554988339 1.0114252135055672 1.1579416658656156 1.2466214608546509 1.3025576503880683 1.5256942088468686 1.4871383325072849 1.4047859163851455 1.3804608335943724 1.2824892938646542 1.2723706520722655 1.200161309492729 1.1808694664471178 1.030958367679853 0.8166007405065683 0.5816641165019805 0.5065893327997124 0.47597210214423485 0.4627574513726009 0.6199546327106578 0.6582440575131248 0.6322733360087465 0.6397853245734417 0.6232133494476588 0.2781835877499344 0.22794623640930578 0.18356083669511847 0.24145740214717587 0.3428934710000301 -0.021972924735139607 -9999.0 -9999.0 -9999.0 -9999.0 -9999.0 -9999.0 -9999.0 -9999.0 -9999.0 -9999.0 -9999.0 -9999.0 -9999.0 -9999.0 -9999.0 -9999.0 -9999.0 -9999.0 -9999.0 -9999.0 -9999.0 -9999.0 -9999.0 -9999.0 -9999.0 -9999.0 -9999.0 -9999.0 -9999.0 -9999.0 -9999.0 -9999.0 -9999.0 -9999.0 -9999.0 -9999.0 -9999.0 -9999.0 -9999.0 -9999.0 -9999.0 -9999.0 -9999.0 -9999.0 -9999.0 -9999.0 -9999.0 -9999.0 -9999.0 -9999.0 -9999.0 -9999.0 -9999.0 -9999.0 -9999.0 -9999.0 -9999.0 -9999.0 -9999.0 -9999.0 -9999.0 -9999.0 -9999.0 -9999.0
2.955528759341831 2.904515684390958 2.772265843208512 2.555062830458012 2.293185701382095 2.0589112893171913 1.945909905806712 1.9220564558565523 1.92223126748526 1.936129817282293 1.9042385754464863 1.6978144969132238 1.5214792828617651 1.3452169601681183 1.1685882752033003 1.1197883457381614 1.0780348824914596 1.1156562170488458 1.264116246829336 1.3949945242844846 1.283811199959539 1.1352478791972593 1.094309095336053 1.0925036496613385 1.0839331992106562 1.1015589218601938 1.2109890531088283 1.3709198630967099 1.5774984250024535 1.7483642325454263 1.6226751301009454 1.282941480295853 0.9017755575760524 0.8091970919392943 0.8122341085232407 0.8259383246928715 0.8146239693318968 0.7280686654321111 0.6438396075777191 0.5836718671108059 0.5449085281673431 0.4258384849867022 0.2235114039029965 0.204712511727003 0.24771986246670408 0.07181009707932828 0.001267880934279389 0.25079187040460127 -0.022121089104733704 -9999.0 -9999.0 -9999.0 -9999.0 -9999.0 0.11611834771058438 0.1360601975281825 0.1746469157020358 0.8962492854082285 1.0619137178615174 1.1951504631322922 1.4296145002600913 1.4699234769198875 1.4810193426337832 1.5004319992167972 1.466773605765959 1.3697277423215324 1.3513931112212292 1.361724770655447 1.0269212780626231 0.6730335381052 0.2062735495286851 -9999.0 -9999.0 -9999.0 0.05342499904337639 0.2858327409162537 0.4641213175431768 0.4176442901909579 0.5034991685916137 0.5036747472046592 0.3215052112674827 0.11950637028100888 0.015921234433099396 0.1589134351542533 0.3221336913457189 0.3667547430757729 -9999.0 -9999.0 -9999.0 -9999.0 -9999.0 -9999.0 -9999.0 -9999.0 -9999.0 -9999.0 -9999.0 -9999.0 -9999.0 -9999.0 -9999.0 -9999.0 -9999.0 -9999.0 -9999.0 -9999.0 -9999.0 -9999.0 -9999.0 -9999.0 -9999.0 -9999.0 -9999.0 -9999.0 -9999.0 -9999.0 -9999.0 -9999.0 -9999.0 -9999.0 -9999.0 -9999.0 -9999.0 -9999.0 -9999.0 -9999.0 -9999.0 -9999.0 -9999.0 -9999.0 -9999.0 -9999.0 -9999.0 -9999.0 -9999.0 -9999.0 -9999.0 -9999.0 -9999.0 -9999.0 -9999.0 -9999.0 -9999.0 -9999.0 -9999.0 -9999.0 -9999.0 -9999.0 -9999.0 -9999.0
2.9391973274798042 2.9147835188453786 2.8285539731701013 2.697924375764869 2.497186780985137 2.237114763030827 2.072400596569856 2.0067465604817873 1.9646733218478458 1.930889715330794 1.6398525750703348 1.4090501783547897 1.3634794711870304 1.2817886135828196 1.199248230774765 1.1581492812673344 1.1787609097378384 1.2036347592677992 1.2512834725789077 1.254550705320394 1.1836553092856985 1.1686343427630532 1.2980096810803334 1.4359470033358572 1.4523585730106796 1.2840973272414413 1.3599650442852342 1.5764885409374136 1.6935833083730323 1.7748175464776528 1.7161337275160176 1.4219585527357403 1.1306027812183268 0.9489553584566477 0.9113585420401009 0.9276972659814084 0.940641769341334 0.8396493265493765 0.7424771341862606 0.6287661217127001 0.5253220606729583 0.37903516525738357 0.2521117755589852 0.2076606478885244 0.20199725066054547 0.1276853324489092 -0.016860811909838007 0.3623413450737369 0.7098002952105993 0.12280701332487148 -9999.0 -9999.0 -9999.0 -9999.0 -9999.0 0.12113927022017729 0.19315265512824298 0.3884880194363754 1.0208187285755932 1.1333298743599156 1.4451635227586395 1.5619294268222197 1.5925320052678835 1.622008280602031 1.50155920273925 1.4325758788145428 1.4063160446144383 1.3631986416515327 1.1203322148696073 0.5352096335059797 -9999.0 -9999.0 -9999.0 -9999.0 -9999.0 -9999.0 0.07036691916486298 0.19434949316072642 0.4275315801366823 0.6075542529029647 0.3992919432122334 -0.017676037724112303 -0.019320648551586106 0.07016141527333059 0.35734025247718537 0.5002930255802285 -9999.0 -9999.0 -9999.0 -9999.0 -9999.0 -9999.0 -9999.0 -9999.0 -9999.0 -9999.0 -9999.0 -9999.0 -9999.0 -9999.0 -9999.0 -9999.0 -9999.0 -9999.0 -9999.0 -9999.0 -9999.0 -9999.0 -9999.0 -9999.0 -9999.0 -9999.0 -9999.0 -9999.0 -9999.0 -9999.0 -9999.0 -9999.0 -9999.0 -9999.0 -9999.0 -9999.0 -9999.0 -9999.0 -9999.0 -9999.0 -9999.0 -9999.0 -9999.0 -9999.0 -9999.0 -9999.0 -9999.0 -9999.0 -9999.0 -9999.0 -9999.0 -9999.0 -9999.0 -9999.0 -9999.0 -9999.0 -9999.0 -9999.0 -9999.0 -9999.0 -9999.0 -9999.0 -9999.0 -9999.0
2.9605301088184484 2.9038513770367467 2.811358091335681 2.7156945534843326 2.6445301543567945 2.413419363848149 2.2193291336648207 2.119048044707876 2.0232803401087676 1.8661589865395263 1.3617679913903686 1.1685455987170756 1.1807465267575912 1.2072663863145476 1.178734407413715 1.1646124725738571 1.364863502538866 1.5719776771256344 1.4440362058065905 1.329959611210093 1.3971433848183332 1.584654242061527 1.6913504855632822 1.811566068547527 1.858732748461932 1.5315540261597083 1.5527256366998365 1.7533303591081075 1.8116081723585484 1.8448122822187916 1.78456746230598 1.5574897684388171 1.3295396620785853 1.1527040688849357 1.0155009959606422 0.9691193758765955 0.9592941575502669 0.8816285408091982 0.7744801839506215 0.6157348622982068 0.44095455024315805 0.31559627547149577 0.2507478095959016 0.2094676439730236 0.168118583539215 0.1286230029213809 0.11927788415711899 0.5607795583823589 0.5410732344753657 0.3480022946052457 -9999.0 -9999.0 -9999.0 -9999.0 -9999.0 -9999.0 0.15798922470383 0.20909662393298212 0.8995293906310211 0.991614241089342 1.2985961849119911 1.6721173907006335 1.8016573549579016 1.746491197811864 1.543751797238218 1.4090460366696531 1.3751313561970628 1.273944321122589 1.0960257201868235 0.9361521597686473 0.0491048010768428 -9999.0 -0.04198587365025941 -0.0455311456772616 -9999.0 0.0811027563209129 0.09872923251028559 0.2709079311435983 0.7668688644027852 0.7442133461384448 0.520251587881656 0.06025266441349439 0.02795239630474959 0.12437206866394929 0.2816460073027275 0.46100201907584376 0.4291534275683793 -9999.0 -9999.0 -9999.0 -9999.0 -9999.0 -9999.0 -9999.0 -9999.0 -9999.0 -9999.0 -9999.0 -9999.0 -9999.0 -9999.0 -9999.0 -9999.0 -9999.0 -9999.0 -9999.0 -9999.0 -9999.0 -9999.0 -9999.0 -9999.0 -9999.0 -9999.0 -9999.0 -9999.0 -9999.0 -9999.0 -9999.0 -9999.0 -9999.0 -9999.0 -9999.0 -9999.0 -9999.0 -9999.0 -9999.0 -9999.0 -9999.0 -9999.0 -9999.0 -9999.0 -9999.0 -9999.0 -9999.0 -9999.0 -9999.0 -9999.0 -9999.0 -9999.0 -9999.0 -9999.0 -9999.0 -9999.0 -9999.0 -9999.0 -9999.0 -9999.0 -9999.0 -9999.0 -9999.0
3.0085209717791233 2.8922193103231417 2.807445788275403 2.7314163899293464 2.6781251501220003 2.502297347566297 2.3135608743337768 2.1807450286253203 2.1234178497434173 1.984596540426048 1.6045999118248917 1.2117846092683109 1.1725908409843298 1.2061995522388163 1.2163295344848721 1.3084157967745844 1.6694397927082196 1.8041977164566079 1.6313276614497292 1.5408117520332256 1.6309043132814562 1.7445814072699855 1.8307135095773468 1.9352070199170954 1.9853364394387463 1.6910563559975926 1.7144732335672097 1.9767088547953866 2.0227502507385693 2.002111523320721 1.891175387741596 1.720213692519168 1.5317944350441255 1.3677391892632496 1.1878644384225652 1.0323120327791941 0.9508505853871043 0.8809374280488222 0.7518520832776041 0.566051179680821 0.3707640935791967 0.2772382648438047 0.23992881772866848 0.2127155452089155 0.1742903711393549 0.1459642553000819 0.3073936430224258 0.257631501078217 0.017261347642119895 0.108980141973747 -9999.0 -9999.0 -9999.0 -9999.0 -9999.0 -9999.0 -9999.0 0.07176430109218349 0.8613460389897711 0.9377155938595652 1.1740292410889883 1.6420155991605094 1.8042905220819498 1.7495573773712862 1.5435147632340624 1.2736709127520263 1.2210746089344817 1.1902169663846502 1.1252472456930889 0.9700088563931295 0.8504418075170508 0.02867262475148799 -9999.0 -9999.0 0.017828963334081793 0.1583848526432625 0.212593677900619 0.7151246185778457 0.7708008415863736 0.6951200550756571 0.5428788798968005 0.19826213660735448 0.0643965947693809 0.09593861058229308 0.24665134964184188 0.311518672971306 0.4662445449168377 -9999.0 -9999.0 -9999.0 -9999.0 -9999.0 -9999.0 -9999.0 -9999.0 -9999.0 -9999.0 -9999.0 -9999.0 -9999.0 -9999.0 -9999.0 -9999.0 -9999.0 -9999.0 -9999.0 -9999.0 -9999.0 -9999.0 -9999.0 -9999.0 -9999.0 -9999.0 -9999.0 -9999.0 -9999.0 -9999.0 -9999.0 -9999.0 -9999.0 -9999.0 -9999.0 -9999.0 -9999.0 -9999.0 -9999.0 -9999.0 -9999.0 -9999.0 -9999.0 -9999.0 -9999.0 -9999.0 -9999.0 -9999.0 -9999.0 -9999.0 -9999.0 -9999.0 -9999.0 -9999.0 -9999.0 -9999.0 -9999.0 -9999.0 -9999.0 -9999.0 -9999.0 -9999.0 -9999.0
3.0206566598954243 2.9334238933957786 2.868264397012201 2.8124597964340023 2.72874758130483 2.55529162641428 2.3414543322545343 2.1796918585559553 2.12694583437957 2.093378515972165 1.9176979463271895 1.5849875322789246 1.4158632991429279 1.4877258142714835 1.6127089100793714 1.7134462976961384 1.7598078300606887 1.736696858740384 1.535636044513005 1.5338064870682997 1.6535418875654146 1.7624867175230168 1.8314013721012423 1.856957126645892 1.8250273378732287 1.7579667426234284 1.8909307591029179 2.0644528860322935 2.1187063127522743 2.101968511678853 1.9621160301888787 1.8677791508298471 1.7781521501545314 1.6267424937317165 1.4102706720964588 1.1747266850450224 0.983316266674938 0.8802422202946452 0.7573073318433541 0.5953198127979571 0.4277815551536587 0.3045019838453126 0.2448685346525461 0.214180908529506 0.18399493105008757 0.14858600372068229 0.0746571131086643 -9999.0 -9999.0 0.139492862045653 0.1818415788609884 -9999.0 -9999.0 -9999.0 -9999.0 -9999.0 -9999.0 0.11781255073071409 1.3240442785817226 1.211669658455911 1.2037552193092003 1.4857493205209857 1.667861475930203 1.6952714844381571 1.5721986392986755 1.338483462364433 1.3129791910403859 1.225478831852093 1.105194367460266 0.9828070660568435 0.9557564052927578 0.7614402853415954 0.00681192731432699 -9999.0 -0.0639864303599508 0.043748170419692395 0.3247796901396293 0.8245385230300333 0.846679615248934 0.6776071960403327 0.523001728182741 0.3188878194257776 0.11304325778889729 0.05772267455106159 0.2584983342669513 0.2399053376533577 0.3548427863106991 0.3080445381508395 -9999.0 -9999.0 -9999.0 -9999.0 -9999.0 -9999.0 -9999.0 -9999.0 -9999.0 -9999.0 -9999.0 -9999.0 -9999.0 -9999.0 -9999.0 -9999.0 -9999.0 -9999.0 -9999.0 -9999.0 -9999.0 -9999.0 -9999.0 -9999.0 -9999.0 -9999.0 -9999.0 -9999.0 -9999.0 -9999.0 -9999.0 -9999.0 -9999.0 -9999.0 -9999.0 -9999.0 -9999.0 -9999.0 -9999.0 -9999.0 -9999.0 -9999.0 -9999.0 -9999.0 -9999.0 -9999.0 -9999.0 -9999.0 -9999.0 -9999.0 -9999.0 -9999.0 -9999.0 -9999.0 -9999.0 -9999.0 -9999.0 -9999.0 -9999.0 -9999.0 -9999.0 -9999.0
3.155500243075142 3.0727057274887173 2.960918011588271 2.9235687361486193 2.8409635841301792 2.635225165505805 2.343983859123604 2.124784837656525 2.076661106734286 2.103072068050988 2.0688951563187876 1.877681485239459 1.767526886836761 1.8386967532907903 1.94373414284197 1.932774829509391 1.7616760578949964 1.599236785306299 1.5239742105836502 1.5601598389967568 1.7212901081540892 1.8281145782255548 1.855775542952047 1.8585846154281684 1.8977231531676144 1.9255485858161936 1.9563741623446183 2.010420399746396 2.123032401799182 2.110547235818181 1.9864617194505 1.9187871509774999 1.8652562608615948 1.7007927549166963 1.4626746057728885 1.246794201155365 1.0613908143855275 0.8934127132856566 0.8201370120741069 0.6939546733518525 0.5445212058634059 0.4018747600846598 0.284307804052101 0.2125871325753097 0.1726632265180007 0.123822538528713 -0.06060662936323591 -9999.0 -9999.0 0.3508628986357808 0.3010784842605141 0.0577104030967146 -9999.0 -9999.0 -9999.0 -9999.0 -9999.0 0.4999391631156513 1.399139763090823 1.2586589250913571 1.1810000467300414 1.3023853718126868 1.4837065478181763 1.6375647154381463 1.5613747092857344 1.3453290357325514 1.609272882466663 1.620588279290255 1.1134899740495685 1.0093258920638377 1.0535088428169943 0.827529606586477 0.6147493283232106 0.5869800545043291 0.2205248346352211 0.17407508368138258 0.6534906129439815 0.8946460332837429 1.005408724361716 0.8318689468464813 0.5414400012553902 0.4424399494310746 0.276303936417608 0.1026195239228628 0.12529881313571528 0.2032108091917037 0.21396755024453668 0.4632843581171961 -9999.0 -9999.0 -9999.0 -9999.0 -9999.0 -9999.0 -9999.0 -9999.0 -9999.0 -9999.0 -9999.0 -9999.0 -9999.0 -9999.0 -9999.0 -9999.0 -9999.0 -9999.0 -9999.0 -9999.0 -9999.0 -9999.0 -9999.0 -9999.0 -9999.0 -9999.0 -9999.0 -9999.0 -9999.0 -9999.0 -9999.0 -9999.0 -9999.0 -9999.0 -9999.0 -9999.0 -9999.0 -9999.0 -9999.0 -9999.0 -9999.0 -9999.0 -9999.0 -9999.0 -9999.0 -9999.0 -9999.0 -9999.0 -9999.0 -9999.0 -9999.0 -9999.0 -9999.0 -9999.0 -9999.0 -9999.0 -9999.0 -9999.0 -9999.0 -9999.0 -9999.0 -9999.0
3.284107389787162 3.17912541491298 3.0505832707537945 2.9610753113683095 2.9084719754193142 2.6523016970723243 2.326328357674334 2.0857669213244723 2.0339540767669684 2.1163038257955322 2.206037781365118 2.083955911769113 1.9051914443613163 1.9005220230083384 1.9087305864587378 1.824852601886108 1.663599951668514 1.5682161690149907 1.5674389449877364 1.6947743199811904 1.8671006939408836 1.974313529084881 2.001184702509179 2.0262076138973812 2.042842788560676 2.025042247243938 1.9846127408662408 1.989575504360768 2.0217462752353055 2.0207263233199906 1.9209156038003208 1.7444816815652544 1.607167325077034 1.502658943365188 1.3309009427498038 1.1624330127467637 1.0015035620670218 0.8870699681964915 0.8563159459628893 0.7988095964402611 0.6819296307624318 0.5212180955680892 0.3436857510988682 0.2127377255704559 0.1501025362539221 0.0937680467103065 0.03479595308589699 -9999.0 -9999.0 -9999.0 0.2650497351987596 0.1643899237366032 -0.0015943040390266061 -9999.0 -9999.0 -9999.0 -9999.0 0.1171797427987577 1.1808513189068208 1.0509508498707736 1.0589711081140118 1.291135232994686 1.4287336090399576 1.4952345914825984 1.4306462647696736 1.331339712581145 1.6357910717474138 1.634228096207626 1.2017115353333694 1.2481889596798867 1.259392202100551 1.0058565664495032 0.7392510972904356 0.6341306460627529 0.7132290465503635 1.112421345205883 1.738958563187044 0.93616851659889 1.0238534028931983 1.2004048245461516 0.7047489084686878 0.5581010042337957 0.45282373104094337 0.2075594112973742 0.1781342375772742 0.323050680030413 0.2456390414270178 0.4365148624028324 0.4698375542753089 -9999.0 -9999.0 -9999.0 -9999.0 -9999.0 -9999.0 -9999.0 -9999.0 -9999.0 -9999.0 -9999.0 -9999.0 -9999.0 -9999.0 -9999.0 -9999.0 -9999.0 -9999.0 -9999.0 -9999.0 -9999.0 -9999.0 -9999.0 -9999.0 -9999.0 -9999.0 -9999.0 -9999.0 -9999.0 -9999.0 -9999.0 -9999.0 -9999.0 -9999.0 -9999.0 -9999.0 -9999.0 -9999.0 -9999.0 -9999.0 -9999.0 -9999.0 -9999.0 -9999.0 -9999.0 -9999.0 -9999.0 -9999.0 -9999.0 -9999.0 -9999.0 -9999.0 -9999.0 -9999.0 -9999.0 -9999.0 -9999.0 -9999.0 -9999.0 -9999.0 -9999.0
3.392900242138284 3.2348877207678535 3.083337878748221 2.9680414783607 2.8579367908121625 2.613919016430077 2.3308664106182015 2.190634638525233 2.1614198844032084 2.294876448156095 2.3787632839868187 2.204689112115701 1.9271264074882435 1.8983676864478984 1.772122338059375 1.6594371723242973 1.6067859842138614 1.5557243356003199 1.5931593325815463 1.7476241023332864 1.9549941955051169 2.0590100632544734 2.09771394912682 2.115893401008186 2.128708352190619 2.118585984789494 2.067756401090115 2.0237187158990895 2.028781747855475 2.012283214844466 1.7788232459823463 1.5252339524858958 1.518701305891726 1.5159131604025768 1.3070940750782882 1.0891935829376744 0.9285099365507512 0.8693892410753752 0.854810992880128 0.8443412173134053 0.7961752178944708 0.6524833961703274 0.4256836496559363 0.24963488942461137 0.1555868757199147 0.08936786069842179 0.04071723058655079 -9999.0 -9999.0 -9999.0 -9999.0 -9999.0 0.0516023826269887 0.12358928270873598 -9999.0 -9999.0 -9999.0 0.3355429004184071 0.6320626745541107 0.9455485444327345 0.9786285812510134 1.3091159989604304 1.5321603650033353 1.5446186284107224 1.5049569711589832 1.4019944008590641 1.3974826647905922 1.4162668361054136 1.379541471394577 1.4746690333585855 1.3615640479817124 1.0443775442959788 0.8068878426205957 0.6880186997742881 0.9183486392897628 1.760524565836233 1.828908086890432 1.881964713631455 1.3113735035218828 1.3946733196315708 0.972489729612585 0.758108359762967 0.6240497621662402 0.3644470408588531 0.3052222583302058 0.4032568962340451 0.3077816515609862 0.3368898283693617 0.4716242375829954 -9999.0 -9999.0 -9999.0 -9999.0 -9999.0 -9999.0 -9999.0 -9999.0 -9999.0 -9999.0 -9999.0 -9999.0 -9999.0 -9999.0 -9999.0 -9999.0 -9999.0 -9999.0 -9999.0 -9999.0 -9999.0 -9999.0 -9999.0 -9999.0 -9999.0 -9999.0 -9999.0 -9999.0 -9999.0 -9999.0 -9999.0 -9999.0 -9999.0 -9999.0 -9999.0 -9999.0 -9999.0 -9999.0 -9999.0 -9999.0 -9999.0 -9999.0 -9999.0 -9999.0 -9999.0 -9999.0 -9999.0 -9999.0 -9999.0 -9999.0 -9999.0 -9999.0 -9999.0 -9999.0 -9999.0 -9999.0 -9999.0 -9999.0 -9999.0 -9999.0 -9999.0
3.455033498964973 3.247769761200304 3.0744269660787644 2.951696009212116 2.8069305777062903 2.5785825874820048 2.403894482950315 2.315433868635701 2.3718607107871432 2.471669044071992 2.437873487674635 2.1274934813481323 1.9669857068715861 1.946335045510917 1.8436461037396588 1.7066966279440623 1.6419968031316095 1.5542835818981284 1.5476891796662757 1.6862603697038179 1.9085526987366959 2.061591381624053 2.119028094703833 2.148557169614195 2.180575403178022 2.1914823377691564 2.168184695492715 2.1340709631944166 2.111364594391707 2.0479217886929457 1.7581988119466727 1.548760151856825 1.6149349890074307 1.6289112906928045 1.3842725813637367 1.0522492150229252 0.8724249142584692 0.8572690956041531 0.8600982899004312 0.8548767912554429 0.8479542254011196 0.7822854384863649 0.5836739195357958 0.3504497053640408 0.20358195958913627 0.11062933556284418 0.06620198282100129 -9999.0 -9999.0 -9999.0 -9999.0 -9999.0 -9999.0 0.19335576123318038 0.15810227905013619 -9999.0 0.10732964826447039 0.49366976741261676 0.5554528828573455 0.961355280343382 1.043147119740017 1.1065695730151208 1.538545213600034 1.6334943819993715 1.6363151743226563 1.6110777345359677 1.429192127404556 1.417053426636591 1.556392501318787 1.6218087536394246 1.5087164989768513 1.079859902335277 0.8309200184003611 0.85563995115129 1.32082658401972 1.7249233684379288 1.7455392271699863 1.9038014636112188 2.228406153373957 1.38002982667633 1.1906954946536579 0.8714509734357301 0.6826530085850422 0.486281176970008 0.3456022369078147 0.2912749944519424 0.287397095971832 0.2754849059915797 0.3275738871111229 0.3264425489739193 -9999.0 -9999.0 -9999.0 -9999.0 -9999.0 -9999.0 -9999.0 -9999.0 -9999.0 -9999.0 -9999.0 -9999.0 -9999.0 -9999.0 -9999.0 -9999.0 -9999.0 -9999.0 -9999.0 -9999.0 -9999.0 -9999.0 -9999.0 -9999.0 -9999.0 -9999.0 -9999.0 -9999.0 -9999.0 -9999.0 -9999.0 -9999.0 -9999.0 -9999.0 -9999.0 -9999.0 -9999.0 -9999.0 -9999.0 -9999.0 -9999.0 -9999.0 -9999.0 -9999.0 -9999.0 -9999.0 -9999.0 -9999.0 -9999.0 -9999.0 -9999.0 -9999.0 -9999.0 -9999.0 -9999.0 -9999.0 -9999.0 -9999.0 -9999.0 -9999.0
3.48959049962258 3.254158078977405 3.0485444521870764 2.939877388025016 2.825993103959753 2.644076378466153 2.525706330460322 2.5151490751225274 2.5882553363189333 2.571852070409042 2.4884275107693745 2.2433585616619744 2.0182543586223476 1.9587780073647905 1.903587439202316 1.8866242172618304 1.8253200954525928 1.681798964630541 1.5882204989639328 1.6784258746057816 1.8620779260004119 2.0266938087496973 2.1184068706570396 2.1706620786877298 2.2078221625887626 2.229775934188381 2.2408423002036497 2.2134436025245923 2.1678191085498644 2.0658670128156658 1.7905006964813324 1.5941883912937171 1.6140650955103073 1.6192923588998274 1.4287922299038467 1.0309704616886748 0.9149987004024969 1.0407727145921664 0.9461315859212986 0.8783657714968467 0.8548371075392722 0.846420517202882 0.7514754471332472 0.5015706635921244 0.2840767987096445 0.1692089939488767 0.1109218068235201 0.0686168294478127 -9999.0 -9999.0 -9999.0 -9999.0 -9999.0 0.229256105054997 0.5106128509356889 0.3817421984321399 0.3141590332912137 0.5560638714130888 0.5595401027180302 0.8661938322792089 1.022365021757774 1.0127117305547702 1.3989640054936812 1.638949226689401 1.6351310764176799 1.7646158746201503 1.9522332940937057 2.008139703151652 2.06039277420662 2.0884496792950515 1.8433498228896399 1.3370953879476788 0.9515167816271743 0.9725232713976524 1.64794583153745 1.7302912768011955 1.7594641170216536 1.86886225561463 2.127154539665352 1.6878342385725797 1.1897906505452134 1.0514051421256614 0.7565601774202859 0.4886962651785342 0.3432350335615182 0.2676660862655984 0.2515671408487588 0.3041748294104445 0.3122243457147905 0.3842442530071793 -9999.0 -9999.0 -9999.0 -9999.0 -9999.0 -9999.0 -9999.0 -9999.0 -9999.0 -9999.0 -9999.0 -9999.0 -9999.0 -9999.0 -9999.0 -9999.0 -9999.0 -9999.0 -9999.0 -9999.0 -9999.0 -9999.0 -9999.0 -9999.0 -9999.0 -9999.0 -9999.0 -9999.0 -9999.0 -9999.0 -9999.0 -9999.0 -9999.0 -9999.0 -9999.0 -9999.0 -9999.0 -9999.0 -9999.0 -9999.0 -9999.0 -9999.0 -9999.0 -9999.0 -9999.0 -9999.0 -9999.0 -9999.0 -9999.0 -9999.0 -9999.0 -9999.0 -9999.0 -9999.0 -9999.0 -9999.0 -9999.0 -9999.0 -9999.0 -9999.0
3.589204551786145 3.3110009394544186 3.0297739342213443 2.933499523405203 2.9123590829839467 2.7905279143662463 2.729954796502437 2.729438723942708 2.7196892117726033 2.651771684810224 2.47315479628689 2.2657718454661624 2.048800907562204 1.877376584986935 1.816163364205877 1.913328800069356 1.9304971214727378 1.8957462393585127 1.79598337503504 1.810660117956197 1.9003697344061943 2.012391472323879 2.1131602338931335 2.162706626326107 2.198019605521856 2.234328287263916 2.253241233825684 2.2392919869165233 2.1700152796405874 2.0266693747854956 1.8390290802747264 1.7177585979223062 1.6899180969230034 1.6986797318057922 1.601711132040559 1.3138184938698239 1.3833729797797623 1.3858526159733515 1.1379301093779675 0.8944365707028681 0.8475135343334577 0.8621687397240072 0.8416970468840745 0.5785872736946769 0.3137475293543394 0.2687254761755022 0.23916609464147498 0.2107370566798939 -9999.0 -9999.0 -9999.0 -9999.0 -9999.0 0.1636143275887562 0.46440224592189533 0.5160675106900743 0.3893250609187154 0.47685501088445054 0.5607691169447977 0.8532805926129616 0.9230733094613168 0.8183809918662652 1.2706719724479258 1.620219806105561 1.6931380658457962 1.8662904722772524 2.1019879776115125 2.1805193254839814 2.428966156674247 2.495619938598095 2.110888366834172 1.478685793624398 1.0174582783599018 1.1543378391858752 1.7369464471199327 1.7571057514892259 1.7874036257395456 1.899353161400173 2.027724632563272 2.0914866322405574 1.1676225890548995 1.064927783977994 0.8335212015245643 0.4892525174714382 0.40895741546568287 0.3362512523474532 0.46069882605086626 0.5890032707860373 0.3539091889983964 0.306395906292802 0.20730140681870707 -9999.0 -9999.0 -9999.0 -9999.0 -9999.0 -9999.0 -9999.0 -9999.0 -9999.0 -9999.0 -9999.0 -9999.0 -9999.0 -9999.0 -9999.0 -9999.0 -9999.0 -9999.0 -9999.0 -9999.0 -9999.0 -9999.0 -9999.0 -9999.0 -9999.0 -9999.0 -9999.0 -9999.0 -9999.0 -9999.0 -9999.0 -9999.0 -9999.0 -9999.0 -9999.0 -9999.0 -9999.0 -9999.0 -9999.0 -9999.0 -9999.0 -9999.0 -9999.0 -9999.0 -9999.0 -9999.0 -9999.0 -9999.0 -9999.0 -9999.0 -9999.0 -9999.0 -9999.0 -9999.0 -9999.0 -9999.0 -9999.0 -9999.0 -9999.0
3.7951285835074104 3.5062953431742714 3.1476697424737785 2.960325595162547 2.9555913310188067 2.942181154457912 2.906329133234443 2.83404392090662 2.755599474307175 2.602351489312196 2.3901964108998466 2.205552207847599 2.038858976916577 1.8829898152098339 1.8307254469918304 1.9424801271270884 1.9633457494935553 1.9529597066380469 1.935736406890072 1.9122531549496387 1.9168633927325816 1.9645493319959317 2.0520647367173837 2.1110776720570876 2.138600364624105 2.1770305505527485 2.2153554098096877 2.1847534206516 2.0867079607292305 1.9546468463692557 1.8505715734090524 1.84093584834673 1.8815090085183028 1.8253581365271492 1.7456499066019464 1.6011755987130696 1.4875364198077043 1.3747207037768376 1.1685453647171575 0.8403936022097047 0.823607721354706 0.8780945856296851 0.8548298352879846 0.5214817601801158 0.2971479486393161 0.3132712764296776 0.408195937620258 0.3591182766411924 0.2733875236093576 -9999.0 -9999.0 -0.03495539406114421 -0.014182161867500605 0.19712357631011407 0.3030080682146159 0.3894859626146237 0.3779010105655269 0.380668212248019 0.5140790748451753 0.8991560755284 0.8872308368771649 0.671316733794828 0.7739544720098417 1.5644421978001752 1.6253018989862864 1.777284971990184 1.8030966192853823 1.808326901670228 1.9960902980886341 2.149272302601335 1.679208515318633 1.2327525094913476 1.0135784115013393 1.593832297036532 1.9569317785737044 1.819422752309928 1.7862130379015968 1.8784301500596423 1.9609837903869105 2.0986523930646293 1.8976363114164847 0.755424068420222 0.6835418511722333 0.5755536116516442 0.484088803655325 0.4026385477120436 0.4010356643749106 0.4508987173340416 0.2282494822497575 0.1611964755485881 0.1869308277379894 -9999.0 -9999.0 -9999.0 -9999.0 -9999.0 -9999.0 -9999.0 -9999.0 -9999.0 -9999.0 -9999.0 -9999.0 -9999.0 -9999.0 -9999.0 -9999.0 -9999.0 -9999.0 -9999.0 -9999.0 -9999.0 -9999.0 -9999.0 -9999.0 -9999.0 -9999.0 -9999.0 -9999.0 -9999.0 -9999.0 -9999.0 -9999.0 -9999.0 -9999.0 -9999.0 -9999.0 -9999.0 -9999.0 -9999.0 -9999.0 -9999.0 -9999.0 -9999.0 -9999.0 -9999.0 -9999.0 -9999.0 -9999.0 -9999.0 -9999.0 -9999.0 -9999.0 -9999.0 -9999.0 -9999.0 -9999.0 -9999.0 -9999.0 -9999.0
3.985668083374121 3.8261539965827387 3.50499641604933 3.255488629903406 3.1585661602701687 3.0746688173747585 2.9688972320090254 2.901098201182895 2.7023423816559746 2.453858196742791 2.2583853917275403 2.1205276334051146 2.025327358477785 1.9759933236586382 1.9616621729524788 1.9394433222293481 1.7812953093005854 1.873020731357096 1.9330420451309969 1.916874514576951 1.8897954936357384 1.8817784634253156 1.9256761564423055 1.9720195213727052 2.0097068555664244 2.0605761990299594 2.09662889120043 2.0602545360176268 1.9604752069625928 1.8604002165138256 1.8244151313501635 1.832258281491352 1.8419070379474207 1.7546671873419468 1.6619135422013387 1.6020151748542706 1.53000073326719 1.3291307188035228 1.0686406756614026 0.855924224694876 0.8516026210872722 0.8789580667945476 0.846693457227653 0.5234498830293364 0.3325284606237698 0.4462689296237173 0.5175733953566404 0.4769956926372722 0.43696021984550687 0.0034935065513320984 -0.029508569859272103 0.007033597614542697 0.2897786263104813 0.32586379957527967 0.46683862368496526 0.4596586713322371 0.4205901108067643 0.4436749929161548 0.5217104755887905 0.8442518021605789 1.0128362161697797 1.015001657434855 0.5492507679805962 1.3717456765020135 1.4722866112278072 1.3998958502716092 1.1461987568238456 1.2051077430786916 1.3828318458531441 1.4605688252291695 1.3891324606828515 0.8961653655194013 1.0802626521406384 2.05980088086796 2.3138316369080485 1.911457307420622 1.75790962170038 1.8221527512018587 1.9393803662746845 2.005774470494636 1.9202864411987428 0.6650628285521343 0.6353110383266374 0.6241683822676878 0.5818718441768072 0.4450932375305113 0.281661384631837 0.1455397799271262 0.20947488471248787 0.10806145688953339 0.1265166955030943 0.16941233983354478 -9999.0 -9999.0 -9999.0 -9999.0 -9999.0 -9999.0 -9999.0 -9999.0 -9999.0 -9999.0 -9999.0 -9999.0 -9999.0 -9999.0 -9999.0 -9999.0 -9999.0 -9999.0 -9999.0 -9999.0 -9999.0 -9999.0 -9999.0 -9999.0 -9999.0 -9999.0 -9999.0 -9999.0 -9999.0 -9999.0 -9999.0 -9999.0 -9999.0 -9999.0 -9999.0 -9999.0 -9999.0 -9999.0 -9999.0 -9999.0 -9999.0 -9999.0 -9999.0 -9999.0 -9999.0 -9999.0 -9999.0 -9999.0 -9999.0 -9999.0 -9999.0 -9999.0 -9999.0 -9999.0 -9999.0 -9999.0 -9999.0 -9999.0
4.217225650987092 3.97821474287426 3.883577011166364 3.6454441415469683 3.3956034219699465 3.1974552600887947 3.023138566315736 2.8633360886136052 2.501551808868275 2.241311460465234 2.1049606300377732 2.029220055801054 1.9791786090267764 1.9785908914545283 1.9830301155898742 1.9142246714063131 1.4844422347348016 1.577827947768449 1.70107653518345 1.7674459942062464 1.7383082428101504 1.7628750642673638 1.83497635826445 1.8578945660391568 1.901134099284792 1.9289274973178536 1.9460209014924772 1.924111062540583 1.8781550150297424 1.813970927300121 1.7836032177459127 1.765708517663488 1.7137580102253243 1.6141771829366784 1.5864838928785385 1.5626219971802344 1.4795226045875454 1.2386457051296216 0.9484446802552848 0.8696176299003409 0.8631306620106063 0.8706464375226053 0.8429280469008231 0.6872640934514422 0.5229147715548865 0.5572379276612285 0.5652970758552158 0.5501134214636947 0.5141127202478721 -0.015102139490556506 0.007559383883960699 0.6033917012106771 0.3055826223871316 0.45011887695219305 0.6636836128163242 0.5254405966604898 0.5052757259438128 0.5204140567492535 0.608524982073569 0.93093050712369 1.0885184949928142 1.1300305764803444 0.7036569105210317 1.07114232537649 1.3854729182599381 1.338834145507896 0.9831983914674212 0.6042720607423375 0.9447487194879949 1.1368264642017063 0.9113082579019971 0.8740849050542132 1.4183996606605893 2.2398339497865565 2.4168445498664406 1.879552756955496 1.7449842951054015 1.8143003289351864 1.8713984062631914 1.906734132283693 1.914597730447956 1.3615982105115827 0.6508913507368932 0.6504942501403601 0.5810628758987104 0.4685301223330541 0.2432353474189305 0.14176130857479619 0.2030763209339353 0.173094946611635 0.1268844878457519 0.18809651452475068 -9999.0 -9999.0 -9999.0 -9999.0 -9999.0 -9999.0 -9999.0 -9999.0 -9999.0 -9999.0 -9999.0 -9999.0 -9999.0 -9999.0 -9999.0 -9999.0 -9999.0 -9999.0 -9999.0 -9999.0 -9999.0 -9999.0 -9999.0 -9999.0 -9999.0 -9999.0 -9999.0 -9999.0 -9999.0 -9999.0 -9999.0 -9999.0 -9999.0 -9999.0 -9999.0 -9999.0 -9999.0 -9999.0 -9999.0 -9999.0 -9999.0 -9999.0 -9999.0 -9999.0 -9999.0 -9999.0 -9999.0 -9999.0 -9999.0 -9999.0 -9999.0 -9999.0 -9999.0 -9999.0 -9999.0 -9999.0 -9999.0 -9999.0
4.379240414889316 4.137886846171894 3.993938008290899 3.8769066388035514 3.5959342833040235 3.2386419019242623 2.937194640646228 2.624266634110114 2.2247284247435704 2.0322895065424285 1.9850046165121589 1.9284444574805046 1.8907168218842896 1.9285044929953628 1.9747858292040619 1.961360980033689 1.799273872871736 1.6571716643159733 1.6368105409219436 1.663769749356859 1.6771875976290895 1.7257487414709431 1.8377907481004438 1.8696555846810867 1.90381812874496 1.9177449434871632 1.929223122210101 1.9405807991889856 1.9368058858094541 1.9112059008983455 1.9094939965726472 1.8629468041700223 1.7957709944199869 1.7480018072218206 1.705107516314076 1.6225619165749163 1.474785521659187 1.2133166718220503 0.9416836668485153 0.8970586285456867 0.875085781196836 0.869670865003046 0.85717388649705 0.8199697275683109 0.7749301281355019 0.7663103928777004 0.7181840098898664 0.6850904931771 0.6298762496735495 0.0670133904321604 0.6009134751028002 0.7916592858642886 0.3642795879642076 0.6378409716990232 0.7108559462382356 0.6235549759355832 0.562330061447593 0.5264615424529411 0.6506019405575012 1.0314933428295912 1.1172031216302327 1.0186365223358564 0.6941218958296793 0.6374876441907233 1.347591743594921 1.3330063211432883 0.5529883218262328 0.4990387550532153 0.856884506228138 0.9590569232873036 0.9385518201283058 1.147745845410107 1.65654159767928 2.515797741703588 2.522645107857902 1.8034704044318288 1.6454905285615977 1.7401290578199848 1.8234471158580667 1.8745071120118169 1.8747438576652449 1.769764141386957 0.6992618472083392 0.6800801396683323 0.5867074572234658 0.4895251031707975 0.3142558462951261 0.1991838612262425 0.15091370834155468 0.16107949504174998 0.1506681255211012 0.1434369576955021 0.1839109555000334 -9999.0 -9999.0 -9999.0 -9999.0 -9999.0 -9999.0 -9999.0 -9999.0 -9999.0 -9999.0 -9999.0 -9999.0 -9999.0 -9999.0 -9999.0 -9999.0 -9999.0 -9999.0 -9999.0 -9999.0 -9999.0 -9999.0 -9999.0 -9999.0 -9999.0 -9999.0 -9999.0 -9999.0 -9999.0 -9999.0 -9999.0 -9999.0 -9999.0 -9999.0 -9999.0 -9999.0 -9999.0 -9999.0 -9999.0 -9999.0 -9999.0 -9999.0 -9999.0 -9999.0 -9999.0 -9999.0 -9999.0 -9999.0 -9999.0 -9999.0 -9999.0 -9999.0 -9999.0 -9999.0 -9999.0 -9999.0 -9999.0
4.442534361222705 4.262542566006705 4.130423241910852 3.9624057164602333 3.6793351217388435 3.1126968277285547 2.8107868249503274 2.490489694182692 2.1722401776158904 2.0226339318783753 1.9564422115936397 1.8803138090646876 1.837115238941497 1.8440517640103167 1.9108885742159387 1.93941402733739 1.92465659978618 1.9049380128912523 1.8679188571571943 1.853056270046304 1.858363020326197 1.8720582308539584 1.8749487074959268 1.8885794903378028 1.935640838670172 2.102195876340109 2.2976465116157985 2.316388920368486 2.343525848602542 2.3153537153295076 2.274754640187104 2.1813249542165125 2.040598914045932 1.9806279833513776 1.9402861854665632 1.864943972094767 1.6416541212177689 1.3539555998222668 1.0745566067233618 0.9529033107078655 0.9318818575485619 0.891401911996007 0.8724215325671036 0.8875891011840296 0.898393485969107 0.9010827916002189 0.9030510552009721 0.9128229975000512 0.8836520491086812 0.3634219816201304 0.6382402012586399 0.7438274350329568 0.6444721775958513 0.7174388541520553 0.6976932004821454 0.6319746608391896 0.6144777016916454 0.5691324921867964 0.7431894440624409 1.0266530817936281 1.176191273082434 0.93992169926128 0.7541266703604119 0.9211576684695477 1.3206295291946841 1.32485061609523 0.7709232288219992 0.8484052618842208 0.974972540984854 0.8766258986501612 0.9270352727171021 1.3126675504066347 1.7562109459037663 2.6244629473751044 2.6322572630849552 1.6571065061147778 1.55870331077665 1.706961352790991 1.833915539380572 1.878531657291096 1.8910522129485527 1.8801695328550383 1.667449836370794 0.7684213933687583 0.6709398394347987 0.5360669291902895 0.3533082751880016 0.2450419909540748 0.18676973056468488 0.12441405574829989 0.2166831285413498 0.1409668871907506 0.19338740816835187 0.0287658818493894 -9999.0 -9999.0 -9999.0 -9999.0 -9999.0 -9999.0 -9999.0 -9999.0 -9999.0 -9999.0 -9999.0 -9999.0 -9999.0 -9999.0 -9999.0 -9999.0 -9999.0 -9999.0 -9999.0 -9999.0 -9999.0 -9999.0 -9999.0 -9999.0 -9999.0 -9999.0 -9999.0 -9999.0 -9999.0 -9999.0 -9999.0 -9999.0 -9999.0 -9999.0 -9999.0 -9999.0 -9999.0 -9999.0 -9999.0 -9999.0 -9999.0 -9999.0 -9999.0 -9999.0 -9999.0 -9999.0 -9999.0 -9999.0 -9999.0 -9999.0 -9999.0 -9999.0 -9999.0 -9999.0 -9999.0 -9999.0
4.438080886425537 4.282985332585416 4.208166098612797 4.039488563613217 3.5684636515814723 2.9514944018684046 2.8312702475904983 2.5785418135950153 2.334450294588508 2.151980693356457 2.0161107334921424 1.8931110702485308 1.8198774010309928 1.7974560913176079 1.7877414176203184 1.8159671687824608 1.8463325708446752 1.8553675929934652 1.834611317830452 1.8334813258705815 1.8720004239783412 1.8527239464877923 1.7874099683126676 1.7801042583682032 2.010322542737136 2.3048947082980233 2.475457473359499 2.621691304986884 2.5611314090422863 2.407325627533567 2.300225406742906 2.2364965928524145 2.1778715387238905 2.0942120126431885 2.012324969565769 1.9321845560880486 1.862377446155521 1.6069295778723576 1.352845548778609 1.2074140278529355 1.1497144185873927 1.059973185467691 0.9807137338067526 0.9655303341251182 0.9593352394134864 0.9671194597826636 0.9998053923626258 1.052468076192502 1.0796351647755282 0.48502588960132004 0.539080679621371 0.814618844795383 0.7817392287959328 0.725740231350934 0.7400279755837968 0.6911288218037548 0.6889253563445525 0.7518666614981067 0.8486175762155215 0.9469951499527742 1.035560145869974 1.0591353283126876 1.0432938617948662 1.137953048487904 1.2903244211108342 1.3370683491591258 1.1336012872021328 0.9185955221024893 0.8830339422024924 0.7965388946964624 0.7975993270879609 1.1078132608329212 1.778558459769436 2.6058281056871384 2.567502354899361 1.6133650720152026 1.6094321372348008 1.7700238765832503 1.8890831734288775 1.9130706048542372 1.9193872471269815 1.9689743228019976 1.9062228723126935 1.0470502346416923 0.6473379659652712 0.5681963294150689 0.3763583995668794 0.24539599049266797 0.2193207364468578 0.20368658764750297 0.2574031879177831 0.20950878652902638 0.18789788927015638 0.1972125588225192 -9999.0 -9999.0 -9999.0 -9999.0 -9999.0 -9999.0 -9999.0 -9999.0 -9999.0 -9999.0 -9999.0 -9999.0 -9999.0 -9999.0 -9999.0 -9999.0 -9999.0 -9999.0 -9999.0 -9999.0 -9999.0 -9999.0 -9999.0 -9999.0 -9999.0 -9999.0 -9999.0 -9999.0 -9999.0 -9999.0 -9999.0 -9999.0 -9999.0 -9999.0 -9999.0 -9999.0 -9999.0 -9999.0 -9999.0 -9999.0 -9999.0 -9999.0 -9999.0 -9999.0 -9999.0 -9999.0 -9999.0 -9999.0 -9999.0 -9999.0 -9999.0 -9999.0 -9999.0 -9999.0 -9999.0 -9999.0
4.436543535740578 4.249189022175523 4.154350683662922 3.93644075102902 3.255763111666327 2.9321650985838166 2.8942811420464882 2.7293225993987003 2.5370493248247405 2.3319589611156837 2.1343972374817684 1.958819162927653 1.8367508096853031 1.770083765695808 1.7254933329059545 1.6917292412734026 1.6637181172410955 1.6303972437698744 1.577097790438452 1.5791361709678553 1.728912292284259 1.813384492788165 1.83533801344132 1.9587495192774493 2.2177601044418553 2.478525807999686 2.7312515304780565 2.904161653350217 2.797846233506293 2.3821469784007445 2.2563791622729905 2.2428168986551063 2.2481587908605825 2.1892440349932962 2.072074981054797 1.9451048164044902 1.929503711033644 1.8523576802428183 1.6240044474828683 1.520426338485494 1.517663242406744 1.4538336978397655 1.2162949866728792 1.05653299141126 1.0140904868555924 1.017762540313991 1.0776633994796498 1.1554145220128926 1.2161065743515416 0.7340360615752952 0.44378284178931554 0.7858917698071968 0.8402665481508844 0.7871644987736808 0.7881470927053453 0.7244411813785343 0.7391675558701782 0.8196567529031327 0.9116740594314623 0.8786201738849702 0.962134518345324 1.1597612409139955 1.2111786646839213 1.1665561965843305 1.2489794155033123 1.3608330363448264 1.2178674785285337 0.8333655356215062 0.7943964094558684 0.8314930936542992 0.787285800206722 0.8113011320249144 1.514072957542602 2.6748298156055967 2.7024387349440286 1.765056290261909 1.771514580454073 1.806969526258922 1.9393320524038133 2.0396921688400487 2.0073379784068073 2.049349568659802 2.0169913302630547 1.557008621587697 0.6143739836234532 0.5930598887399008 0.4636332461449935 0.2651922048421907 0.2635986490101533 0.24269199945007908 0.2065617022558242 0.2173262007130145 0.1832291721376368 0.1892333853244781 0.0880271062414116 -9999.0 -9999.0 -9999.0 -9999.0 -9999.0 -9999.0 -9999.0 -9999.0 -9999.0 -9999.0 -9999.0 -9999.0 -9999.0 -9999.0 -9999.0 -9999.0 -9999.0 -9999.0 -9999.0 -9999.0 -9999.0 -9999.0 -9999.0 -9999.0 -9999.0 -9999.0 -9999.0 -9999.0 -9999.0 -9999.0 -9999.0 -9999.0 -9999.0 -9999.0 -9999.0 -9999.0 -9999.0 -9999.0 -9999.0 -9999.0 -9999.0 -9999.0 -9999.0 -9999.0 -9999.0 -9999.0 -9999.0 -9999.0 -9999.0 -9999.0 -9999.0 -9999.0 -9999.0 -9999.0 -9999.0
4.4165821957413 4.151678509679569 3.972136252186598 3.6004940470778264 3.1061478432258753 2.932035669392105 2.9226465141287865 2.8547199998045363 2.719462120209102 2.503684968208125 2.250325497445028 2.0350225002269853 1.8995310220494264 1.800803546251524 1.7333588431418114 1.6778833784664882 1.636556249456786 1.608221615513634 1.5755564327243943 1.5568463764200569 1.6443358545735163 1.846108645158068 2.0276984060469347 2.1964513170882976 2.3412565220582873 2.613957007588704 2.8458153391171153 2.975716320643816 2.962367523203434 2.642755194167311 2.397522355218109 2.441706568779376 2.3820022823680937 2.260510609803029 2.0759666742937086 1.9578244428105427 1.9439993166844107 1.92936293912256 1.723207729194918 1.69127099505943 1.7490440609512967 1.6802758833518379 1.379151331831823 1.1055970752555104 1.0163362816224732 1.0158599661907841 1.0828957062548576 1.1773046155178188 1.259882971000579 1.2707367669204455 0.5016570461396397 0.6207796144091815 0.836126260278123 0.8103219075143542 0.7817385125142948 0.7214131281957628 0.8036573615525895 0.9009788788578286 0.9616276418368959 0.9344089150065273 1.0199336153156897 1.1070935453720618 1.2019668546699867 1.1986565166943939 1.286198163664048 1.4291864965137084 1.5380723941828436 1.1475427683442807 0.9090824447385983 0.8494261575318554 0.8828470369077088 0.9048179002371672 1.163055592613681 2.031947562498735 2.294951177351092 1.874004091793879 1.5889856872834582 1.7347434606921528 1.936749707234897 2.1453140661038326 2.0799751118155165 2.0243029930915832 2.011972068971939 1.8525023046330062 0.7105521608509517 0.6517904728737853 0.5867656964795471 0.3288355353718059 0.26294911382469127 0.24331899964041148 0.18203631159248918 0.21510840746877669 0.22318886489955642 0.19539990770920418 0.24274421877035157 -9999.0 -9999.0 -9999.0 -9999.0 -9999.0 -9999.0 -9999.0 -9999.0 -9999.0 -9999.0 -9999.0 -9999.0 -9999.0 -9999.0 -9999.0 -9999.0 -9999.0 -9999.0 -9999.0 -9999.0 -9999.0 -9999.0 -9999.0 -9999.0 -9999.0 -9999.0 -9999.0 -9999.0 -9999.0 -9999.0 -9999.0 -9999.0 -9999.0 -9999.0 -9999.0 -9999.0 -9999.0 -9999.0 -9999.0 -9999.0 -9999.0 -9999.0 -9999.0 -9999.0 -9999.0 -9999.0 -9999.0 -9999.0 -9999.0 -9999.0 -9999.0 -9999.0 -9999.0 -9999.0 -9999.0
4.185268640682486 3.949082888331436 3.662941872867019 3.301070912288887 3.0272413739050363 2.932165823437243 2.927032750836258 2.8936635859178352 2.8076981545769666 2.590493811269485 2.3048924821894103 2.073310062735559 1.9437354472237425 1.8564936265514422 1.8087164507069584 1.7791865741850967 1.766137690039113 1.7701822496241983 1.7241869776889582 1.6497564387578962 1.725360337817972 1.974913437483653 2.205464857431372 2.3140150163553552 2.40223704048108 2.6818850016841034 2.917330128989776 2.9898222654273843 2.9777920701852683 2.925372810512186 2.7830707993080317 2.667023586350738 2.5105875685107613 2.294537829401427 2.1173874941208886 2.0019322444872323 1.9501005302583898 1.9126004017719744 1.7704893377477087 1.7580209005999567 1.8009065052844608 1.7307952713670731 1.3583305938081798 1.0516974772258822 0.9775227128593347 0.9873730463997572 1.0481539606677104 1.1404896534226863 1.2229848478389462 1.2406770660231075 0.6118388332293916 0.8842549224465672 0.9026587691237105 0.8329885486641873 0.806071715476619 0.7372017729021838 0.8387348882773835 0.9100415507300486 0.9351534687826955 0.9026487401368817 0.8525241869825697 0.9391197695448441 0.9823092859632796 1.2756495897467874 1.3544736105165087 1.386178054916016 1.552835557449029 1.523533105711203 1.0986469922402742 0.8511552910320677 0.8884384840460433 1.009686585434008 1.2439158035805924 1.983286862303988 2.2582417418287632 1.7051029328160756 1.3674717075691916 1.4217424335629472 1.7831921297643563 2.0996940046584722 1.9959787468688799 1.900601018467172 1.9595685104257299 1.9654638983607609 1.7098323896171306 0.949855301155252 0.6987652596173439 0.489979625292384 0.3019353059954507 0.2493984269172949 0.19238154044789552 0.19291168502759837 0.2030097368407699 0.19168540883427448 0.22790653956744367 0.2334988337552561 -9999.0 -9999.0 -9999.0 -9999.0 -9999.0 -9999.0 -9999.0 -9999.0 -9999.0 -9999.0 -9999.0 -9999.0 -9999.0 -9999.0 -9999.0 -9999.0 -9999.0 -9999.0 -9999.0 -9999.0 -9999.0 -9999.0 -9999.0 -9999.0 -9999.0 -9999.0 -9999.0 -9999.0 -9999.0 -9999.0 -9999.0 -9999.0 -9999.0 -9999.0 -9999.0 -9999.0 -9999.0 -9999.0 -9999.0 -9999.0 -9999.0 -9999.0 -9999.0 -9999.0 -9999.0 -9999.0 -9999.0 -9999.0 -9999.0 -9999.0 -9999.0 -9999.0 -9999.0 -9999.0
3.985337016926001 3.7812650740837963 3.397991678985773 3.1718403339877796 3.032489229269916 2.956706300629944 2.9308385917477446 2.9092960512919 2.781674655909303 2.5461650777540106 2.277839904910712 2.075089863030611 1.985634730608073 1.942113707893556 1.929346964495691 1.9513241966617667 1.9915387328809977 2.025982760665944 1.9551156507634209 1.8368533813548307 1.8649593246898835 2.125996421112833 2.3821552462056084 2.3669115141584545 2.4139545857220095 2.759991897125216 2.9510703767755495 3.0011005727755258 3.0016250953175834 2.9762067086367785 2.962197624840141 2.8840440976324673 2.6818080538434765 2.43618127119944 2.2432340890758113 2.109588238575176 2.02669797266458 1.9511272233340062 1.8735314577092248 1.842903477226061 1.8321049828486384 1.7670921676740114 1.3841850581070927 1.0642737113392515 0.9886203543217649 1.0050413456822926 1.06930655172831 1.1307164720611347 1.189739239817712 1.205759581922832 1.1928000049134255 1.050859151282555 1.107977525414882 1.0528540846374848 0.9255691354612872 0.8288827360037279 0.8325239934201945 0.8527425544348073 0.870113551322196 0.7009610568577507 0.4768958773899555 0.5475842834298252 0.9100946420379423 1.0347616256213121 1.360307475577767 1.4779442748614728 1.4727438643421114 1.4148541801694148 1.257658009894164 0.9878430536671439 0.9905351060895373 1.0672612464863092 1.3194086664154565 2.28514388577183 2.3377078910149716 1.6169748030457392 1.3978075315380714 1.4496591294963324 1.7310232308850355 1.985652142821327 1.926459612810052 1.850496581143372 1.8632578401995679 1.9470243078684304 2.024921915106449 1.4721399086157823 1.5129345236685834 0.5861532354076109 0.43706462722877776 0.2876949717395408 0.19082681847767952 0.1328437902501597 0.0986250470383088 0.1873398228842627 0.24395397710639422 0.3324502867448969 -0.0695500863447631 -9999.0 -9999.0 -9999.0 -9999.0 -9999.0 -9999.0 -9999.0 -9999.0 -9999.0 -9999.0 -9999.0 -9999.0 -9999.0 -9999.0 -9999.0 -9999.0 -9999.0 -9999.0 -9999.0 -9999.0 -9999.0 -9999.0 -9999.0 -9999.0 -9999.0 -9999.0 -9999.0 -9999.0 -9999.0 -9999.0 -9999.0 -9999.0 -9999.0 -9999.0 -9999.0 -9999.0 -9999.0 -9999.0 -9999.0 -9999.0 -9999.0 -9999.0 -9999.0 -9999.0 -9999.0 -9999.0 -9999.0 -9999.0 -9999.0 -9999.0 -9999.0 -9999.0 -9999.0
3.918743492479896 3.6306240362712723 3.3180872655874154 3.152063932024396 3.046167144896622 2.984816526515496 2.932391119367807 2.9077784931312562 2.794491587462336 2.4926896606555573 2.187648174064625 2.0269020736835865 1.9911304841727417 1.9975048258596682 2.0553907657564503 2.1268223072893844 2.1912117783564855 2.20979791386193 2.11558625224339 1.9479373674412603 1.9587310224418009 2.279178290149505 2.499149696878834 2.569559327865358 2.680788354883565 2.9094159607582135 3.0999594122368728 3.166984271311326 3.173603975050843 3.1497926171363297 3.108136679858062 3.0228316914446043 2.9034702691930985 2.680779307974908 2.4516675145579043 2.2940533952435236 2.107454496905056 2.024422410555991 1.954056592746489 1.9191632713093683 1.9140794905203486 1.8732567781527258 1.5203096767941229 1.187178902181589 1.0995756580532583 1.1175125228512681 1.1519091990098744 1.1763662316258159 1.197002881351202 1.1954200167169484 1.1895360851710823 1.1928574510782826 1.2499682704765602 1.1561913792093141 1.0331791270467703 0.9276267388070023 0.8747443795289409 0.8447663660598062 0.8451985038897556 0.7773287941883635 0.5414933138629472 0.6215819723932268 1.1442031409914153 0.9969849725528639 1.2452043377139927 1.467440401409535 1.4533127821127498 1.2910463666471115 1.2344746036775334 1.1181032331565137 1.0509324727584424 1.0333747258711394 1.1730329635054313 2.2420327972675973 2.221455714179304 2.048826166857249 1.8498943599822444 1.7032441699677867 1.7935856295963968 1.9705794710863398 1.953516115023232 1.871710126236025 1.8262877621494351 1.853406148905944 2.09801718872009 1.819053518483504 1.5694238942211511 0.8719500212747244 0.49281218733344595 0.32958391986009 0.1725682882168254 0.11657421402912369 0.1077031187251758 0.20882437664896608 0.2699331787104286 0.3272403747207135 0.3182878843811134 -9999.0 -9999.0 -9999.0 -9999.0 -9999.0 -9999.0 -9999.0 -9999.0 -9999.0 -9999.0 -9999.0 -9999.0 -9999.0 -9999.0 -9999.0 -9999.0 -9999.0 -9999.0 -9999.0 -9999.0 -9999.0 -9999.0 -9999.0 -9999.0 -9999.0 -9999.0 -9999.0 -9999.0 -9999.0 -9999.0 -9999.0 -9999.0 -9999.0 -9999.0 -9999.0 -9999.0 -9999.0 -9999.0 -9999.0 -9999.0 -9999.0 -9999.0 -9999.0 -9999.0 -9999.0 -9999.0 -9999.0 -9999.0 -9999.0 -9999.0 -9999.0 -9999.0 -9999.0
3.8242046661167644 3.613138460180011 3.3691883780014824 3.1670249747500128 3.0379091436824344 2.978983611551254 2.926951183031958 2.8734971476138287 2.6951756054091907 2.354943142083132 2.082741080994882 1.9862779622651197 1.9911239217239303 2.0459823255563583 2.133597706438375 2.216867353299142 2.2896679789936907 2.334603406693835 2.2852999620335064 2.122056658210681 2.191001703386119 2.5064885300902424 2.59568089616835 2.619535311665197 2.7642275526639444 2.997112817788849 3.231842839461367 3.375315985234604 3.4438712808883043 3.3665214307800015 3.238216040783905 3.110528444892148 2.9928580972767427 2.9279227219474686 2.8030925040433208 2.661411335762952 2.4767402157205805 2.2986522947412595 2.1417755763187993 2.0324003908633124 1.9626315118933724 1.9376449969366287 1.7133561959510843 1.4376290456916054 1.3255889848056535 1.3815589292591557 1.434163480355078 1.3880036848852064 1.2958748838111402 1.2188804231890424 1.1913130625568717 1.3669683094105196 1.3189599708848379 1.2679699924690293 1.2064314202670572 1.0681456563604246 0.9701477927675222 0.9992176403930464 0.9642687968692139 0.9483784382827347 1.061572888388434 1.079037569460422 1.0992608342316228 0.30986897697215177 0.2627695743624371 0.9645552511111775 1.1659264115304762 1.3307799866601389 1.2428027992740065 1.1383541504903882 0.9733564837447315 0.831819768395258 1.0807891884932366 1.6513088656880262 2.1117300440678863 2.1365612497164506 2.184783047397294 2.1623807744569947 2.1423443817560583 2.1192205374518784 1.9727155258593434 1.86555145008102 1.8186560562184528 1.8267064583211103 1.9397760394671522 1.9465874597225856 1.661555043278568 1.5602357425068694 0.776885273122564 0.4737858965906457 0.1821120996012487 0.09420485983163898 0.1170962658451401 0.1343602375553124 0.1423297208510983 0.250141684423065 0.25805992347218787 0.05606670164432978 -9999.0 -9999.0 -9999.0 -9999.0 -9999.0 -9999.0 -9999.0 -9999.0 -9999.0 -9999.0 -9999.0 -9999.0 -9999.0 -9999.0 -9999.0 -9999.0 -9999.0 -9999.0 -9999.0 -9999.0 -9999.0 -9999.0 -9999.0 -9999.0 -9999.0 -9999.0 -9999.0 -9999.0 -9999.0 -9999.0 -9999.0 -9999.0 -9999.0 -9999.0 -9999.0 -9999.0 -9999.0 -9999.0 -9999.0 -9999.0 -9999.0 -9999.0 -9999.0 -9999.0 -9999.0 -9999.0 -9999.0 -9999.0 -9999.0 -9999.0 -9999.0 -9999.0
3.858809451428177 3.707381627155657 3.479452055357959 3.21212891957118 3.0454442413955864 2.9848164843423093 2.9059446880867563 2.70794986413036 2.3985006286702513 2.13578340426916 2.0168848383000877 1.9826071970104924 1.9967699581916343 2.0582882416292723 2.1275060424095433 2.1910876236490164 2.28365528856596 2.373913299155174 2.414287341536859 2.4132073661419704 2.52969339619743 2.634625899063249 2.612484547424372 2.6154428189849046 2.813492570594401 3.0572324283596957 3.384240209574074 3.637438387033423 3.7709460883088632 3.640718410603537 3.4294276512160287 3.2131729479982596 3.0302005055518952 3.0072101175378427 3.0203069750926974 2.904574904001964 2.682450786451454 2.439668259308647 2.2554000178599436 2.1286122259217923 2.0162484233569695 1.949979582350023 1.8740875479391836 1.6773589744175603 1.627929309734502 1.70343850051417 1.783151943520896 1.6922752710934912 1.5107661144667015 1.3547050121038688 1.2902730698115328 1.4194406117096012 1.4971519396875708 1.421624575440599 1.415530719960914 1.3048455597156783 1.2267602638091044 1.234581514652092 1.1363655211149295 1.0794835263778502 1.1024312063714132 0.9155455336001543 0.6887186552174396 0.005084148222218587 0.19959369389648252 0.3480242346176539 1.0313334589980196 1.423557419686101 1.298189333642401 1.1463865287982842 0.9561051427328717 0.7285734617910415 0.9096419902560313 1.2457586732536094 1.484022058657651 2.0571942387827247 2.1586099298058676 2.259508180266062 2.372507555950125 2.330115079663671 2.0342285250210312 1.8249389554188136 1.7774795818328852 1.80741518873378 1.85336851608036 2.008677356413923 1.8583075023392628 1.6357891503051993 1.536990532497992 1.1609478221726275 0.2351087626458363 0.1303279437773413 0.1743738451737798 0.1383836340077052 0.13757985959523739 0.2534914230054658 0.1703353518829669 0.1778128265077345 -9999.0 -9999.0 -9999.0 -9999.0 -9999.0 -9999.0 -9999.0 -9999.0 -9999.0 -9999.0 -9999.0 -9999.0 -9999.0 -9999.0 -9999.0 -9999.0 -9999.0 -9999.0 -9999.0 -9999.0 -9999.0 -9999.0 -9999.0 -9999.0 -9999.0 -9999.0 -9999.0 -9999.0 -9999.0 -9999.0 -9999.0 -9999.0 -9999.0 -9999.0 -9999.0 -9999.0 -9999.0 -9999.0 -9999.0 -9999.0 -9999.0 -9999.0 -9999.0 -9999.0 -9999.0 -9999.0 -9999.0 -9999.0 -9999.0 -9999.0 -9999.0 -9999.0
3.910811031508133 3.77016581240136 3.5947634906837225 3.3254742578527563 3.1048584432748916 2.997874448689468 2.844124310541137 2.4955363558689023 2.1648870052128344 2.0553495972049762 2.0034579848646508 1.9935255284460711 2.0180003848922836 2.08197021295054 2.136664022716263 2.170505522514024 2.20657327184733 2.3509792319051543 2.481214313110053 2.527022525872261 2.598140460355033 2.6638948669916744 2.6663743049021873 2.738938480703145 2.9347547094469943 3.1883903346399203 3.5407924849870933 3.8489714558720163 3.937958041211735 3.8630691465809592 3.6588161676812763 3.3715198457227067 3.069217332322791 3.007649187379432 2.9978122003004732 2.9034294265504523 2.6719204537362526 2.4333986393449485 2.26886196194048 2.1887810383595108 2.079126225140573 1.953630533645882 1.9191537194226311 1.8764422308432092 1.8468102977985643 1.8919166873900775 1.9179928695748656 1.8560784894445448 1.7101146712901079 1.5547920098077839 1.497166157266761 1.5518974463708348 1.603350069740243 1.6317228864761175 1.6278661331022566 1.5741268249996976 1.4813853917547275 1.4261413275559642 1.3811755486413986 1.151760694725128 1.0061843756685482 0.830284819372707 0.09660644986234118 -0.059857869109542605 -9999.0 -9999.0 0.2067042022931413 1.0812650494965261 1.3786547164269456 1.461969705851067 1.1371838353698924 0.7147506310215026 0.5914578084800055 0.9593005843651803 1.016130856529824 1.4025269528182374 1.9945822009447258 2.2493133922807105 2.536195477094162 2.4743777975443044 2.1130292672452162 1.8657511277718368 1.7719990172702391 1.8258040049600095 1.975481208166449 2.1147207903043483 1.9864205036127591 1.700197236116499 1.5895146594419316 0.4071405919943546 0.2747363925195351 0.21237989398134827 0.2030429268000728 0.2041314545093995 0.192526464149065 0.2473853184975216 0.2502375567536655 0.3077629273130315 0.3039844691877649 -9999.0 -9999.0 -9999.0 -9999.0 -9999.0 -9999.0 -9999.0 -9999.0 -9999.0 -9999.0 -9999.0 -9999.0 -9999.0 -9999.0 -9999.0 -9999.0 -9999.0 -9999.0 -9999.0 -9999.0 -9999.0 -9999.0 -9999.0 -9999.0 -9999.0 -9999.0 -9999.0 -9999.0 -9999.0 -9999.0 -9999.0 -9999.0 -9999.0 -9999.0 -9999.0 -9999.0 -9999.0 -9999.0 -9999.0 -9999.0 -9999.0 -9999.0 -9999.0 -9999.0 -9999.0 -9999.0 -9999.0 -9999.0 -9999.0 -9999.0 -9999.0
3.9226332676813382 3.761263230712724 3.581673267157043 3.375414762552873 3.1504303439194703 2.9582466686089424 2.8319629529389814 2.428349082851117 2.1534712502865303 2.062220270272929 2.0153722498453113 2.0066338318105186 2.0477180809729503 2.1407687032183493 2.2378506438311834 2.275618732086462 2.238163403893188 2.257100392906801 2.3875871833481574 2.51665934403469 2.5991386963451095 2.707908419308953 2.8290585631757814 2.9442659934904074 3.050872484906598 3.2975577548841137 3.6210021454188737 3.898429477925163 3.9786465505138815 3.967207031082982 3.8694505471073444 3.612630832258215 3.1935472416982975 2.9939773981263667 2.960843062856256 2.8103478000042252 2.555081439986202 2.3407927176970014 2.236261101487304 2.2190003685320407 2.1542452980516873 2.034565878274945 1.9492162430269044 1.9289150923996878 1.918740230039235 1.948608641928603 1.9425477032548961 1.9096043736441668 1.8460371372066608 1.7426959471873935 1.678674610470243 1.6932921871407653 1.7383022431860264 1.759200137899659 1.7440093691511536 1.7322506851994408 1.6997437544401128 1.6627165823442909 1.5140984596755744 1.2982535165696403 1.0136092850829619 0.3674836291137768 0.0092614913827445 -0.053331163705773406 -9999.0 -9999.0 -9999.0 0.2891459333723361 1.2088533284011884 1.484209197955202 1.4558029302979525 1.0856956607362422 0.6866839998977443 0.7924732451314234 0.8091972392450522 1.0703768245589436 1.8162065953798623 1.9939402043518324 2.3109916405293727 2.334449363284313 2.207550154982093 1.957209688369084 1.8869891367155118 1.9559251375984263 1.9875917020214826 2.134634599958428 2.1168717575262352 1.7204476945174187 1.5494038742730682 0.7474667018936052 0.33820768169254967 0.23399624310870337 0.105768474042678 0.2010722006997755 0.2257976555928879 0.2701816148914677 0.3102750978436976 0.3309214950664547 0.339199179226329 -9999.0 -9999.0 -9999.0 -9999.0 -9999.0 -9999.0 -9999.0 -9999.0 -9999.0 -9999.0 -9999.0 -9999.0 -9999.0 -9999.0 -9999.0 -9999.0 -9999.0 -9999.0 -9999.0 -9999.0 -9999.0 -9999.0 -9999.0 -9999.0 -9999.0 -9999.0 -9999.0 -9999.0 -9999.0 -9999.0 -9999.0 -9999.0 -9999.0 -9999.0 -9999.0 -9999.0 -9999.0 -9999.0 -9999.0 -9999.0 -9999.0 -9999.0 -9999.0 -9999.0 -9999.0 -9999.0 -9999.0 -9999.0 -9999.0 -9999.0 -9999.0
3.9275814271143816 3.758929961493561 3.5730939361816163 3.3905514085607114 3.113213461769835 2.9679720597384933 2.8843393098198735 2.429085914478837 2.2234504503789565 2.132470329762217 2.0584228800231887 2.029580575228519 2.0898183608222984 2.261260641948092 2.413982012928196 2.5150674579825067 2.4848606145505214 2.2899490647731384 2.264244769985496 2.4038348597332244 2.611117329688326 2.8127800997299643 2.93541379982263 2.984225760425872 3.082736400396269 3.348166494818675 3.643773012413329 3.8963629883683844 4.001028518177861 4.031049663022738 4.006624818058812 3.8988070925882403 3.532985159860125 3.169314329090398 2.973235062313208 2.691161510504052 2.458301596966747 2.30678022882322 2.2445785546846775 2.2486066385377006 2.2318942597066727 2.149521337936853 2.0511097411801122 1.9962646660540455 2.0108747035438372 2.082485152802101 2.0768819375699104 1.979644583821153 1.9359785005889283 1.8754799218044584 1.8062189932366823 1.7812929207974555 1.979003913033974 1.9713041702811405 1.826006061024019 1.8174297611413035 1.9296930848062048 1.8156506229330696 1.5697929860731221 1.1271407037142835 0.2692887205784277 -0.01217581147576001 0.014282750360110494 -0.055465604097405 -9999.0 -9999.0 -9999.0 -9999.0 0.1756906995449763 1.3273218868510976 1.3958017249184804 1.3486609796595983 1.052243577245026 1.0013856365740064 1.0435474383735142 1.089913779855709 1.5080248389095987 1.5226700342869188 1.4719346752234912 2.0573653753324708 2.3767415689488076 2.39719738088894 2.119908282379984 2.0596572512227014 2.038703228458425 2.1241927339740303 2.1856486045027532 1.9649979545519114 1.555771770713769 1.4221733878472202 0.4119292493779046 0.22385078205934572 0.09277717809680008 0.1548846720209286 0.3100752848272594 0.3680795285776483 0.4500572194777646 0.5134166842271879 0.5726990586603062 0.4695125040965497 -9999.0 -9999.0 -9999.0 -9999.0 -9999.0 -9999.0 -9999.0 -9999.0 -9999.0 -9999.0 -9999.0 -9999.0 -9999.0 -9999.0 -9999.0 -9999.0 -9999.0 -9999.0 -9999.0 -9999.0 -9999.0 -9999.0 -9999.0 -9999.0 -9999.0 -9999.0 -9999.0 -9999.0 -9999.0 -9999.0 -9999.0 -9999.0 -9999.0 -9999.0 -9999.0 -9999.0 -9999.0 -9999.0 -9999.0 -9999.0 -9999.0 -9999.0 -9999.0 -9999.0 -9999.0 -9999.0 -9999.0 -9999.0 -9999.0 -9999.0
3.94658184431523 3.773831346849259 3.566600827639181 3.356838599795215 3.088981776794728 2.97448770433786 2.867430846863085 2.479435727090802 2.3373937021054054 2.2764596222548397 2.1871876296924264 2.130000144776027 2.229874334068549 2.434019115504983 2.630301878494725 2.776253472910173 2.811838180979414 2.603332536380345 2.322655225188117 2.4016583423037643 2.6652699548813144 2.8879290646347417 2.946860175134328 3.000339691733543 3.133235956139835 3.371624669674293 3.6376118876777 3.878702867685903 4.020886638812318 4.121800847583929 4.1535126053295714 4.046453794383535 3.801818020946594 3.375720684858057 2.970938530463281 2.6696653460755084 2.533235196725074 2.421440436474728 2.3870785703439084 2.3815417037148023 2.3541900515792418 2.2790842309064834 2.175914458864931 2.106146259037947 2.1181585618574723 2.165803271944452 2.1832534946253492 2.132213950154257 2.0478920350612015 1.9473444245507097 1.8879625297930067 1.9006368109699792 2.180923324873133 2.006340142106054 1.8193894328086 1.7547094548124331 1.8478617791469443 1.8284919556154484 1.34375821637323 0.1501890179161589 -9999.0 -9999.0 -0.046849501461664805 -9999.0 -9999.0 -9999.0 -9999.0 -9999.0 -9999.0 0.2825275286064582 1.2882298403860732 1.410727461006256 1.417941070223116 1.119694112442036 1.1897830123952777 1.1701520727993817 1.0270434718315198 0.9106703945096448 0.9361477046000675 1.5030138355650324 2.398498991583411 2.427967496326623 2.308573747196427 2.1697323272595903 2.180277806212048 2.195058504750016 2.1936203074995233 2.086248595720566 1.6431328048850478 1.4136801159509993 0.5141636344445157 0.28751572068625797 0.22087931312150927 0.2177798300683656 0.3552678219240525 0.4442693570579123 0.4873720487590025 0.5496678074110597 0.65222164444413 0.542398621329159 0.29949904289194307 -9999.0 -9999.0 -9999.0 -9999.0 -9999.0 -9999.0 -9999.0 -9999.0 -9999.0 -9999.0 -9999.0 -9999.0 -9999.0 -9999.0 -9999.0 -9999.0 -9999.0 -9999.0 -9999.0 -9999.0 -9999.0 -9999.0 -9999.0 -9999.0 -9999.0 -9999.0 -9999.0 -9999.0 -9999.0 -9999.0 -9999.0 -9999.0 -9999.0 -9999.0 -9999.0 -9999.0 -9999.0 -9999.0 -9999.0 -9999.0 -9999.0 -9999.0 -9999.0 -9999.0 -9999.0 -9999.0 -9999.0 -9999.0 -9999.0
3.941325995602321 3.771263665773017 3.503869655822544 3.266760699516569 3.071481613655008 2.956040850229987 2.824231212487957 2.569614353759056 2.5032004260173566 2.5268624202446524 2.409391297582332 2.339949231659039 2.437699199829956 2.64399492365562 2.831558019373176 2.925416202246921 2.920465020972889 2.7884342836397606 2.531932202291317 2.540127505906864 2.813174004160946 2.9285930828745483 2.941079539980149 3.048270858686037 3.213546394802477 3.405527931765183 3.6304652929842773 3.8512980586770973 4.040379548550324 4.236172237669953 4.298615388288629 4.16909879665457 3.961474059128481 3.403606153820419 2.9450038405911 2.819430178392303 2.7528845179255037 2.699288734418727 2.6293167724000446 2.5813796184286693 2.529820039526768 2.436335376701614 2.3084004656359483 2.213118318101863 2.195642122597817 2.2261230025584906 2.251308704207103 2.2516311180989264 2.2198913345561815 2.0989563520540284 1.9635020884485963 1.9781491789086074 2.308442480146337 1.9704751583277333 1.8206800116591928 1.7240275013313144 1.6291249667144279 0.8168009796298583 0.4837439838471403 -0.05728378638629401 -9999.0 -9999.0 -9999.0 -9999.0 -9999.0 -0.04392508411719691 -9999.0 -9999.0 -9999.0 -9999.0 0.22009140801396798 1.2731226259253439 1.5851025820671039 1.5658938437494256 1.3581337656548222 1.241545662812095 1.0626477918027188 0.9146147955580273 0.8096064442989876 0.9885853808585108 2.044480578116811 2.2769585655725546 2.244059302408021 2.2048264073329498 2.207834028638021 2.215546596729936 2.1968947992586223 2.140214358059433 1.7977081975262708 1.4348526388709935 1.3171264939439817 0.5159262870013872 0.46106961162357124 0.401303229612346 0.3388147536959595 0.398904726355176 0.49576455873506947 0.5240281519720653 0.5301453013193131 0.4157682483365341 0.3876794300588076 -9999.0 -9999.0 -9999.0 -9999.0 -9999.0 -9999.0 -9999.0 -9999.0 -9999.0 -9999.0 -9999.0 -9999.0 -9999.0 -9999.0 -9999.0 -9999.0 -9999.0 -9999.0 -9999.0 -9999.0 -9999.0 -9999.0 -9999.0 -9999.0 -9999.0 -9999.0 -9999.0 -9999.0 -9999.0 -9999.0 -9999.0 -9999.0 -9999.0 -9999.0 -9999.0 -9999.0 -9999.0 -9999.0 -9999.0 -9999.0 -9999.0 -9999.0 -9999.0 -9999.0 -9999.0 -9999.0 -9999.0 -9999.0 -9999.0
3.9401046160496294 3.7259854280779763 3.4351360775091098 3.2740034348643188 3.117006176884262 2.9770937401374056 2.859966727084768 2.6747545211547563 2.6536361230626255 2.643772364830335 2.5642176265711005 2.5192260368706347 2.6390029803806248 2.815452254182213 2.92871007360117 2.932195383309836 2.9191168807880983 2.741850661536134 2.504889295738908 2.5389034977001996 2.8402596597136585 2.929832801382765 2.937926545368444 3.047794268721129 3.23774554788296 3.418330881017335 3.6293802541948943 3.842817766910174 4.068587983144374 4.344451410471195 4.414226067653489 4.267133439643815 4.093922664209971 3.373832659714758 2.968911590916235 2.915664322482533 2.909210880069796 2.880356319227872 2.814559359238385 2.764412657934122 2.716931595959589 2.62101346057417 2.4562992546892963 2.3225013319504852 2.275012670926388 2.2855160304915425 2.2988117113401985 2.304176373873708 2.297185968093072 2.2441608978871135 2.1178217946734423 2.085880167851441 1.994699195465634 1.9309382984673837 1.958439439313033 1.815535379156898 0.8284071257608381 0.4726251354338011 0.3251481511016451 0.2574144486485786 0.0226115433807456 -9999.0 -9999.0 -9999.0 -9999.0 0.0019518261415764904 0.095605618584572 0.0048267908774937 -0.025562756002248305 -0.0015273205165943077 0.06731652601961749 0.19430478927049488 1.4386468960857017 1.7044055225333 1.6571446172259419 1.3107860199663925 1.1826200361665493 1.4579380377262376 0.8462590974135922 0.831410124047212 1.2412456216401997 1.9465083519397732 2.0665966953537835 2.1155924217523716 2.169835637728961 2.1914416093304543 2.200762882056041 2.171165676225044 1.998378034050736 1.4918912500163926 1.3806632412101345 0.8066090224457767 0.5848153132156917 0.47365005240098584 0.3119179945208539 0.3324549119830581 0.46239087614783353 0.48080122450797785 0.3609043677750995 0.286360095873397 0.4021341083375304 0.3738001047443955 -9999.0 -9999.0 -9999.0 -9999.0 -9999.0 -9999.0 -9999.0 -9999.0 -9999.0 -9999.0 -9999.0 -9999.0 -9999.0 -9999.0 -9999.0 -9999.0 -9999.0 -9999.0 -9999.0 -9999.0 -9999.0 -9999.0 -9999.0 -9999.0 -9999.0 -9999.0 -9999.0 -9999.0 -9999.0 -9999.0 -9999.0 -9999.0 -9999.0 -9999.0 -9999.0 -9999.0 -9999.0 -9999.0 -9999.0 -9999.0 -9999.0 -9999.0 -9999.0 -9999.0 -9999.0 -9999.0 -9999.0 -9999.0
3.9430223756930283 3.7322233887468803 3.5024130376966522 3.3555289442490057 3.2020470497644036 3.048716917451858 2.928220281059977 2.779796792612321 2.6881873626739923 2.6679990541593224 2.6293604975058935 2.672911607956513 2.8040323667846905 2.9209313027500827 2.932517679912349 2.9183460152312453 2.787027567751261 2.526289149237919 2.3576414832371095 2.4347187501295893 2.7561414660649 2.9247783134228045 2.957010132871127 3.0259837779047523 3.2075744693327612 3.4090642729488163 3.64546042863368 3.855855925239969 4.092913314760192 4.335875325751932 4.392924122185356 4.279801951536088 4.097231992310862 3.4898257481531205 3.066250748876993 2.9777826438676303 2.991773109690576 2.929375259370485 2.892074944873871 2.876767399618491 2.8655388541298183 2.810217943194173 2.6586877094276775 2.4828806021792276 2.396480336460073 2.346707193572299 2.3107539121843126 2.309945824530162 2.3154971581281063 2.321674171601367 2.280881532633844 2.253888113101735 2.053425781860799 1.9840878722676802 2.1819658567013973 2.1249096687164 0.6709877565262901 0.4672923479190699 0.3641206265686255 0.3318112671717951 0.3378605312407327 0.09379962059747929 -0.06512967577108911 -9999.0 -0.036548747437592004 0.6209852148612129 1.0131949611659208 0.5421486427080975 0.134404259564883 0.05956405622360908 0.03875327960580009 -0.01870830078285491 0.0830333695505491 1.3213671176417845 1.5007870432122792 1.3772167521651337 1.2237555950143923 1.6328605346506915 2.027080888525607 0.9190857974777447 0.8796172313908792 1.5585171949135028 1.9207337974760879 2.0111565723111666 2.139251598066772 2.206396486804092 2.203770599365876 2.1872510190427614 2.1335475059886386 1.8236936284573235 1.4946020462263585 1.4360373965667885 0.5865153124104687 0.4755627510731784 0.3967291103178522 0.37652205578616577 0.42137575541109157 0.40620262829997467 0.3361532860981874 0.3592376726354878 0.49167110804010067 0.5173789184667033 -9999.0 -9999.0 -9999.0 -9999.0 -9999.0 -9999.0 -9999.0 -9999.0 -9999.0 -9999.0 -9999.0 -9999.0 -9999.0 -9999.0 -9999.0 -9999.0 -9999.0 -9999.0 -9999.0 -9999.0 -9999.0 -9999.0 -9999.0 -9999.0 -9999.0 -9999.0 -9999.0 -9999.0 -9999.0 -9999.0 -9999.0 -9999.0 -9999.0 -9999.0 -9999.0 -9999.0 -9999.0 -9999.0 -9999.0 -9999.0 -9999.0 -9999.0 -9999.0 -9999.0 -9999.0 -9999.0 -9999.0 -9999.0
3.9432640052430865 3.8729656895729483 3.692007892099629 3.528821394279405 3.344226248588238 3.1105263501018254 2.9765214468364083 2.886106551830557 2.7738064098553723 2.725726854199664 2.742095384658273 2.8276668437632573 2.921257231384866 2.9394135772358525 2.859505469333062 2.6558594150963906 2.4424890300416147 2.3497647541660522 2.375221741893685 2.537117862097403 2.7532610487612312 2.8875181127055183 2.956588511325736 3.04297991680573 3.2156239010864445 3.4027712374636714 3.6586795703359694 3.870211352553726 4.0882937008619145 4.259043029577948 4.288254703598475 4.20164473335282 4.003222174111191 3.6822914350736453 3.3205322113937408 3.178266936517725 3.1425238996690483 3.0309396660702026 2.9397420762135265 3.064882592552039 3.0070404255786403 2.923873148968913 2.8849178932375197 2.736541064771615 2.592678236646646 2.448647296406862 2.3391086406544734 2.318703369008113 2.360645786953065 2.421648931811266 2.459384076820102 2.465305305513263 2.427911224848958 2.3344704243461463 2.377608360417846 1.4469062763618306 0.7333734943949497 0.5241241058316237 0.4214377230435647 0.2880728925820857 0.22335343234565802 0.1710283743792188 0.1730949478853702 0.2918548738542341 0.44208411452987545 0.4182414593979915 0.5581454037410223 0.6819007949311435 0.393091133511633 0.13274136165681918 0.008986716896364197 -0.05742990000898571 -0.03569209495487521 0.1867457504314668 1.140989183384723 1.2783786003475675 1.438455889030353 1.8469178047552715 1.6571625738871787 1.4007219323301467 0.80840532741888 0.877719008136916 1.883208697332828 2.0177764612861893 2.04577247254144 2.183232165248793 2.205977708566054 2.144548666933116 2.1056133133986252 2.005961153572106 1.6102720704323221 1.502780474244344 0.7884883636343563 0.5295027468473508 0.5243309905188862 0.4563020595312343 0.44544483155630515 0.4851072161358189 0.48708665819817826 0.5261587963045615 0.565254408999605 0.6185167365491959 0.23988128741589448 -9999.0 -9999.0 -9999.0 -9999.0 -9999.0 -9999.0 -9999.0 -9999.0 -9999.0 -9999.0 -9999.0 -9999.0 -9999.0 -9999.0 -9999.0 -9999.0 -9999.0 -9999.0 -9999.0 -9999.0 -9999.0 -9999.0 -9999.0 -9999.0 -9999.0 -9999.0 -9999.0 -9999.0 -9999.0 -9999.0 -9999.0 -9999.0 -9999.0 -9999.0 -9999.0 -9999.0 -9999.0 -9999.0 -9999.0 -9999.0 -9999.0 -9999.0 -9999.0 -9999.0 -9999.0 -9999.0 -9999.0
3.9843008886508726 3.929836167449022 3.8619269845860003 3.713444040511046 3.4704403498073266 3.1785957476519697 3.0247432773268423 2.937849696015493 2.8733257123656104 2.8343656528720627 2.8666921524238256 2.929933399920379 2.9512919515535803 2.8333498744603154 2.462179784091442 2.4124442208324024 2.400785397506569 2.4057683119118636 2.54165917022855 2.6831936507597556 2.7937047325128948 2.8881112668705806 2.9212212509331033 3.0728119420249063 3.300756057025989 3.4316675560560586 3.639303709265179 3.87496293505531 4.045174447136701 4.190058074692398 4.197731726090965 4.130109518896885 3.9543527072861697 3.8355458312180533 3.5703098530412554 3.3849519580633625 3.3584667212410952 3.3106447988145815 3.285302203580831 3.373259923763272 3.2303427021301396 2.9632239047320335 2.930000517790685 2.923775033137283 2.8060197455398854 2.6067316312029662 2.4312767186797797 2.385019581145364 2.450524984272109 2.5256391795701343 2.594627862195655 2.6269870886976308 2.549079778228768 2.4870115017604673 2.3756094509456562 1.0286117335297256 0.7649695261245668 0.6086056101203703 0.4008171059360508 0.266218190573546 0.1576591657242511 0.13011395335253229 0.1626215199774134 0.5213759531894038 0.7310323939202252 0.3341651498435115 0.2761531155372199 0.4991304853188309 0.5823979207410259 0.372008892050698 0.066681460126441 0.0024709658744287988 0.05140236584076109 0.1006998837580404 0.21930645767815088 1.0039432252475398 1.4333328708557966 1.593112043602168 1.546775145280462 1.4944146068959652 1.004358023041451 0.8670386894538749 1.2966623437597133 1.9093359300668715 2.0431090475806104 2.2117848023519153 2.2060825006282356 2.1035226364944353 2.01295639816064 1.9799232247219207 1.749390654594413 1.6093098632766907 1.548453062573067 0.8252182520030757 0.6907592968433482 0.5296437616324219 0.4755164593690527 0.5097442808454078 0.5266948604639483 0.5382148874074362 0.6171990385658754 0.7349469038935461 0.6398414776862753 -9999.0 -9999.0 -9999.0 -9999.0 -9999.0 -9999.0 -9999.0 -9999.0 -9999.0 -9999.0 -9999.0 -9999.0 -9999.0 -9999.0 -9999.0 -9999.0 -9999.0 -9999.0 -9999.0 -9999.0 -9999.0 -9999.0 -9999.0 -9999.0 -9999.0 -9999.0 -9999.0 -9999.0 -9999.0 -9999.0 -9999.0 -9999.0 -9999.0 -9999.0 -9999.0 -9999.0 -9999.0 -9999.0 -9999.0 -9999.0 -9999.0 -9999.0 -9999.0 -9999.0 -9999.0 -9999.0 -9999.0
4.201831685577662 3.955726858360038 3.9222708604221084 3.8006012461485232 3.576655249714952 3.337832744669967 3.143487136902839 3.0438450585560615 2.951088659674991 2.926402466944025 2.9550101175599983 2.988451366639596 2.953477579234984 2.5348945800515534 2.388773507609606 2.5554795480044734 2.7224630673591363 2.7642047904007927 2.7909487028708 2.8051678401550904 2.859765544829793 2.9197897827834822 2.9456507173443733 3.129886310866168 3.4088165717255623 3.5440778490210683 3.649856624706754 3.8415181077242346 4.005148055948397 4.151027260217042 4.190446946882069 4.152610766245681 4.002248185518236 3.9155854273307353 3.736358886110875 3.558364837153337 3.532300606733833 3.538285995993034 3.576048590274874 3.6662001086800093 3.5088213600407854 3.1781075448788023 3.0184725681725104 3.0441293432789367 2.938374329096783 2.7416493695262982 2.5837911244314182 2.52290045923605 2.5640501787090964 2.630580538561079 2.6808845017912066 2.715604836397447 2.6516213707501284 2.4800372993444486 1.4650895525834364 0.8238720818914624 0.7763770249190234 0.7233207996692017 0.5071636308988829 0.287152799604512 0.19246468854533288 0.1476539733134685 0.11430735813923909 0.10637562477792009 0.2180825684724445 0.4295980544353812 0.47022229734726945 0.4564545461215808 0.6149984200367653 0.611418142836682 0.061755997858887995 0.1114100896948608 0.15625533418133009 0.1252084226167426 0.10505252731940729 0.24865582024993071 1.2478574990835456 1.5405580457544055 1.5274706844422545 1.458645797508588 0.9461307426164689 0.9806356116145629 1.0622051931565129 1.5201832608068462 2.17402165083069 2.28411219537574 2.2708589042407525 2.0939445023293484 1.9902635295350517 1.9395294096680271 1.828998268036494 1.7519007978400563 1.7783295139047834 1.5497148122831412 0.8525433104468592 0.6943514796796382 0.5276379986576138 0.43026486907903666 0.3284791853565542 0.4170958655084857 0.7231503708272513 0.7182443019278968 0.6860562812564428 0.527518677286867 -9999.0 -9999.0 -9999.0 -9999.0 -9999.0 -9999.0 -9999.0 -9999.0 -9999.0 -9999.0 -9999.0 -9999.0 -9999.0 -9999.0 -9999.0 -9999.0 -9999.0 -9999.0 -9999.0 -9999.0 -9999.0 -9999.0 -9999.0 -9999.0 -9999.0 -9999.0 -9999.0 -9999.0 -9999.0 -9999.0 -9999.0 -9999.0 -9999.0 -9999.0 -9999.0 -9999.0 -9999.0 -9999.0 -9999.0 -9999.0 -9999.0 -9999.0 -9999.0 -9999.0 -9999.0 -9999.0
4.638630437785543 4.122477272393028 3.9325306458567533 3.836795489353594 3.699921963389852 3.5766260855911383 3.498867688774169 3.368766766989607 3.2256273194636544 3.1294579691051863 3.124832187225078 3.1079777518217173 2.999159216413165 2.621498379045889 2.577952212087285 2.812254969369223 2.8974588384917093 2.9045028725402298 2.887849653184897 2.87227863836804 2.890952530240888 2.953627223209661 3.0145015639708412 3.2978106311392215 3.6139105447699253 3.766100141915081 3.7484241087135275 3.81975035118721 4.012290425680779 4.160079735187592 4.270340888831128 4.310825644200115 4.187024700517806 3.9655133184847062 3.820115208663469 3.7007402034681993 3.719278736734323 3.7485108364217963 3.8736469922722514 3.9179758832404152 3.8120973686235375 3.538706736924467 3.3601147653394015 3.3416065079257136 3.128650827656249 2.840131529285958 2.726363979961924 2.7073601932800386 2.747892667832532 2.7538689682457163 2.772206118279882 2.8037152607290623 2.7471440826964924 2.466714163691622 1.0002275445406632 0.8092036776374532 0.7916729139626724 0.7448176909663364 0.6373401057878485 0.43264459307320485 0.2290748199776939 0.1490417000951354 0.1327900116153171 0.0986872869522615 0.05728480598069968 0.2190097124958048 0.404694832377257 0.5007816600214725 0.6899999904632568 -0.043909331609053706 -9999.0 -9999.0 0.2047204323224069 0.17411990901545418 0.12154199733820709 0.0926040323119697 0.21458704873215578 1.509221626072337 1.4929431452565767 1.3073028646341966 0.9675660350860589 1.1182901597032375 1.102659193889023 1.1154828699709043 1.6669304596518744 2.2217623458045876 2.2243364712609437 2.101309852379053 2.042761849208237 2.0016306307241347 1.966728315936497 1.8719580190161016 1.8410415201877008 1.839944361414682 0.9725924265989543 0.8689917207385565 0.5916983944231486 0.46107867773189776 0.3281968771467012 0.3207621198716898 0.5049994121927814 0.6878773047415725 0.6939286478708917 0.5382282269715803 -9999.0 -9999.0 -9999.0 -9999.0 -9999.0 -9999.0 -9999.0 -9999.0 -9999.0 -9999.0 -9999.0 -9999.0 -9999.0 -9999.0 -9999.0 -9999.0 -9999.0 -9999.0 -9999.0 -9999.0 -9999.0 -9999.0 -9999.0 -9999.0 -9999.0 -9999.0 -9999.0 -9999.0 -9999.0 -9999.0 -9999.0 -9999.0 -9999.0 -9999.0 -9999.0 -9999.0 -9999.0 -9999.0 -9999.0 -9999.0 -9999.0 -9999.0 -9999.0 -9999.0 -9999.0 -9999.0
4.92901483820428 4.614761636572556 4.0695046374025425 3.9061321405265303 3.839857108632077 3.8511276426892853 3.818153381335907 3.639599906768674 3.476396979788329 3.3641928281101077 3.3137370095623306 3.239980312879216 3.1152456510937117 2.8751232322783946 2.78479533508519 2.922045788887313 2.9413080772554756 2.978455892716412 2.9444321910008844 2.911690496021924 2.938600398277281 3.061142221257642 3.299440531618545 3.598239039520776 3.843401435493404 3.930290871448792 3.855320915689309 3.9035682498640623 4.084137459343121 4.245376641770874 4.44113185488474 4.542735620629066 4.461058186710341 4.179457312517941 3.9077144619590234 3.846830372070337 3.89731709015602 3.930819185449447 3.9764404934733943 3.9868185568917958 3.929605537093164 3.819925748979525 3.677492948914783 3.654581175768753 3.497116016600165 3.0393028364374852 2.9194376102597945 2.9498337275269813 2.9491897664364055 2.946980912166799 2.954648842455445 2.943677984946964 2.8578739149387107 2.55654563630499 0.9452693075070551 0.8343316910023613 0.8053220584115397 0.7292885803044504 0.6035739428813622 0.4705956050445687 0.3120161054417271 0.2064594997205801 0.1598979018298975 0.1422468045797119 0.1256663971835208 0.18504860426355657 0.1645023278419848 0.1694056323738283 0.49930226379337467 0.1730244629152992 -0.0684071495171398 0.45035777468530885 0.5740618710068299 0.5794629881755515 0.5851436097546532 0.1001591225598436 0.020982402175292098 0.21750151084360347 1.1832289836981638 1.011410575463249 0.935887323490139 1.2503491550134855 1.2148799075641856 1.1418541844007364 1.2878424294429052 1.7343615115768347 2.0107145236273967 2.113160060094485 2.1153080759238865 2.0980887626110913 2.058010260223119 1.9811823005732931 1.8560508551258703 1.8139397368291559 1.6364861039931349 0.9498824017937622 0.6142213681407336 0.49394379145034034 0.411173403737593 0.350361714227105 0.4174236344731741 0.6277965816064861 0.7122913322883546 0.5289243924654283 0.1686727361626737 -9999.0 -9999.0 -9999.0 -9999.0 -9999.0 -9999.0 -9999.0 -9999.0 -9999.0 -9999.0 -9999.0 -9999.0 -9999.0 -9999.0 -9999.0 -9999.0 -9999.0 -9999.0 -9999.0 -9999.0 -9999.0 -9999.0 -9999.0 -9999.0 -9999.0 -9999.0 -9999.0 -9999.0 -9999.0 -9999.0 -9999.0 -9999.0 -9999.0 -9999.0 -9999.0 -9999.0 -9999.0 -9999.0 -9999.0 -9999.0 -9999.0 -9999.0 -9999.0 -9999.0 -9999.0
4.906423536181185 4.938177895422843 4.609077857706579 4.037724985527315 3.9309645002897358 3.9517370051867906 3.91146710065661 3.7537672890399256 3.597070994929448 3.5070223980371344 3.4495958586309743 3.384161391515751 3.275385475028106 3.0962455832712923 2.997106084937738 3.000473433952994 3.0174529011884244 3.064831799095916 3.094487877434268 3.1549809091292365 3.3178373401510983 3.4684889172986666 3.6746118294493937 3.921499344440416 4.086256367610124 4.121036011916057 3.998610595229518 3.9664644614864746 4.129131673004341 4.372572484322313 4.553508475090628 4.610286417627059 4.600420534561604 4.402789097350322 4.0454175320691945 3.9947207611467577 4.061254184498245 4.119439029556253 4.143071382104533 4.20872278047746 4.21019097786286 4.009504319337854 3.9462154573456014 4.002090348307716 3.9033390359751303 3.461233037125701 3.2228930772809368 3.155929082152992 3.1272911662758873 3.1234619736963816 3.1454788469100947 3.067074248960104 2.9108033121930164 2.3769215326554454 1.0871151396475764 0.8757471659700169 0.787469022172645 0.6661001336384138 0.5388710700582946 0.43067963998278397 0.3506747213918795 0.27523098927555617 0.20176999481717978 0.1826042784378895 0.24949739117408237 0.5892823635265572 0.7916765752006705 0.7440912315246038 0.6784133114773838 0.6306234984417352 0.7735914575619518 0.7370427334729719 0.6100652240091173 0.5901838702393074 0.6144019838659505 0.49117519470605214 0.0024252415748399897 -9999.0 0.283036392071571 0.8791183474021274 1.1045782660002932 1.3483352404243474 1.2390422596428736 1.0649256500871789 1.1277456791502571 1.5490951357062241 1.8880981337165823 2.125915300405011 2.1827090628865222 2.1264081151955003 2.1258244323970463 2.33191548091467 2.2026076386847415 1.8210646745361114 1.6931931474442898 1.017003134259532 0.8956180219374348 0.5335836014818527 0.4275571901532422 0.3832541348784839 0.3978169927148358 0.4293665389517122 0.7094486599672665 0.7809392544701979 0.38527140638066837 -9999.0 -9999.0 -9999.0 -9999.0 -9999.0 -9999.0 -9999.0 -9999.0 -9999.0 -9999.0 -9999.0 -9999.0 -9999.0 -9999.0 -9999.0 -9999.0 -9999.0 -9999.0 -9999.0 -9999.0 -9999.0 -9999.0 -9999.0 -9999.0 -9999.0 -9999.0 -9999.0 -9999.0 -9999.0 -9999.0 -9999.0 -9999.0 -9999.0 -9999.0 -9999.0 -9999.0 -9999.0 -9999.0 -9999.0 -9999.0 -9999.0 -9999.0 -9999.0 -9999.0 -9999.0
4.683703616298192 4.891839847046547 4.9360541726957585 4.697411818394852 4.313232845166906 4.120894955306059 3.9522264802948404 3.8133717574301955 3.657937178935953 3.574342074532741 3.551953337745657 3.535568316050465 3.527337929988414 3.501654415590751 3.355726430643981 3.189731362926481 3.1404377338805394 3.2095062908092893 3.369383848065002 3.6310582593791922 3.7935514845055978 3.804783217740796 3.898305891153021 4.095268104567127 4.158039771385667 4.15620764257548 3.9868591739573334 4.000390162281629 4.27166353775967 4.539740955646528 4.637088369537641 4.65939521791133 4.658656879885408 4.589331807709212 4.334496998505636 4.205788506135757 4.2249203070754575 4.259243608820336 4.316084161591636 4.397888382157344 4.434886688797496 4.249932013877488 4.095278707467761 4.087611007533157 4.054070238186205 3.758865852292185 3.481879925447464 3.349412757537853 3.274528360492357 3.2701036351763473 3.248992157088573 3.1069707553251074 2.8080461809923682 1.7869909958494676 1.3142150843825895 0.9032089472000888 0.7279846714556235 0.627894893809879 0.5812706616696326 0.5138364098913488 0.4972978025022648 0.9131889772625088 0.9138968624700643 0.908961536304655 0.9012290774837834 0.8945566629990784 0.8586474842051193 0.8114738476886476 0.7867415742725643 0.8780032321065747 0.9387789508191788 0.7784113979753471 0.6460607300726349 0.5961407779479913 0.5830744360625879 0.4483679840925883 0.08154231694921768 -9999.0 -9999.0 0.3595588261485603 1.320171501024643 1.4212995159112582 1.0985320381491008 0.9976734752970602 1.1956644099354656 1.2839473072345975 1.926472113085943 2.1391976414032596 2.2327202421800014 2.083601599005832 2.1195842455862905 2.3599428269457072 2.268696042771021 1.8036919495014447 1.681942306154874 1.5728547008777016 0.9205182565110444 0.6999246087143676 0.5704433930820227 0.5305282293379694 0.4610503836849909 0.44745175969692513 0.5306302550062643 0.7032322294975819 0.6110105831664805 0.3252948609475828 -9999.0 -9999.0 -9999.0 -9999.0 -9999.0 -9999.0 -9999.0 -9999.0 -9999.0 -9999.0 -9999.0 -9999.0 -9999.0 -9999.0 -9999.0 -9999.0 -9999.0 -9999.0 -9999.0 -9999.0 -9999.0 -9999.0 -9999.0 -9999.0 -9999.0 -9999.0 -9999.0 -9999.0 -9999.0 -9999.0 -9999.0 -9999.0 -9999.0 -9999.0 -9999.0 -9999.0 -9999.0 -9999.0 -9999.0 -9999.0 -9999.0 -9999.0 -9999.0 -9999.0
4.741464195664772 4.767001015229762 4.901681169986774 4.933647476603709 4.832525868524005 4.39608733786967 4.064607591070818 3.91180649329376 3.7507381523642502 3.628552119478542 3.6367759409843003 3.690257046658089 3.735395028156923 3.795852486240904 3.700782354568397 3.4196296192285667 3.3115757137838946 3.3862212781477212 3.5708152778190514 3.752731549254974 3.8438798659212194 3.8510961616847053 3.900375052076431 3.998269507804062 4.0137940147582 3.9996368931646153 4.020631751123542 4.215508955729516 4.546707018598344 4.76213062576389 4.772836204037456 4.712378216578136 4.692863112105957 4.645535442017155 4.470066332424451 4.43506378756137 4.412762057166286 4.402931793576695 4.434188710498717 4.487236879694681 4.4809975123243415 4.356707259617968 4.186826437130446 4.104258730975956 4.061948790108488 3.9397563260937143 3.7667106889096016 3.576656606829808 3.4060620595208495 3.32695446391356 3.265477224507029 2.948908241272863 2.182597646394217 1.7379029503629164 1.396141107586337 1.2117008715658006 1.123841504447023 1.0574766721460134 0.8428801743576957 0.8185753178269599 0.9419988619264081 0.9465880444987971 0.9305748759772818 0.9300045874089495 0.9300036560929106 0.9305215335060233 0.9103571057742674 0.8242565925144345 0.8053666967416926 0.9002517775515473 0.9251049864423051 0.8198600457957779 0.7396773216134453 0.689131226476146 0.5659363249757121 0.3524034303458985 0.11044520963630769 -0.026192599516596804 -0.018465760198008004 0.08559340970405499 0.562787255842391 1.3155200875926207 1.0556667667530846 1.2146378859030194 1.3177869114524206 1.1815227044796532 1.94247629312752 2.1529434686748488 2.286322257145657 2.307761775109983 2.154137611044932 2.157756907263307 1.8458198375525738 1.7643709762134498 1.6570949658014564 1.6227535066216954 1.5605134609963032 0.7108381930100516 0.6225537420250467 0.5605944247669399 0.5022907146405005 0.49457858018658635 0.5225693174620631 0.5912523503242502 0.6773937644410308 0.5994161514839038 0.0424876237337381 -9999.0 -9999.0 -9999.0 -9999.0 -9999.0 -9999.0 -9999.0 -9999.0 -9999.0 -9999.0 -9999.0 -9999.0 -9999.0 -9999.0 -9999.0 -9999.0 -9999.0 -9999.0 -9999.0 -9999.0 -9999.0 -9999.0 -9999.0 -9999.0 -9999.0 -9999.0 -9999.0 -9999.0 -9999.0 -9999.0 -9999.0 -9999.0 -9999.0 -9999.0 -9999.0 -9999.0 -9999.0 -9999.0 -9999.0 -9999.0 -9999.0 -9999.0 -9999.0
4.794491274762523 4.753584915815113 4.766077568650276 4.8863894901434675 4.933779309713094 4.838804763629501 4.3749269300080895 4.074692403896161 3.912754975018427 3.782989246981308 3.812584529798426 3.8274691831577643 3.832670105602998 3.877572918588323 3.878719767962017 3.623541037110879 3.472424384200504 3.570339071236976 3.6859794365749448 3.7469956927578907 3.8303638056630143 3.8563088856671963 3.892017425020103 3.929979406484621 4.002912731544679 4.19115970050002 4.4080717831659255 4.60059216146615 4.798504537838071 4.914780624259115 4.913030184423976 4.797764695137722 4.69377709281277 4.6204528091093024 4.520202102172107 4.53113747426727 4.5564875145755614 4.562744632706295 4.566531546092982 4.545114833437089 4.507877187351009 4.4318688788496035 4.30955504215266 4.211358917512337 4.136997214315159 4.04376264516713 3.939595914509551 3.8285584431706092 3.560713980969481 3.316158863750822 3.009303641139275 2.5072707124810822 2.136256855609086 1.860011769423132 1.5720226164780593 1.3517459041729085 1.218942512850631 1.1002765286673815 0.9958060033483827 0.865788298974558 0.9018079776367831 0.9338597047871169 0.9306107562604644 0.9305988650921293 0.9341120005429244 0.9370234458445346 0.9296236073929891 0.8711104688620628 0.8396669929891176 0.8839864186812008 0.9014686216302108 0.8362105385452403 0.7710390491566397 0.7461230776401322 0.6273694049293457 0.3550227592619444 0.110534176111632 0.00503692713202239 0.005689512831791199 0.10016244405476529 0.1403806515520382 0.64401379097646 1.117539280572257 1.3160846224763534 1.294612603541877 1.1611737960923516 1.4476242282608944 2.014053967276956 2.477190160692792 2.346082962615868 2.2323858159875787 2.0536787653834683 1.822232625200663 1.7810060260601888 1.6975625969673958 1.657787207539088 1.6127519786818425 0.7973283867651659 0.6474365963816731 0.5547317391626465 0.5415808318315274 0.5842092657866098 0.5236959316064549 0.5039202919044794 0.6976903805159391 0.6894151903034853 0.4675483424769859 -9999.0 -9999.0 -9999.0 -9999.0 -9999.0 -9999.0 -9999.0 -9999.0 -9999.0 -9999.0 -9999.0 -9999.0 -9999.0 -9999.0 -9999.0 -9999.0 -9999.0 -9999.0 -9999.0 -9999.0 -9999.0 -9999.0 -9999.0 -9999.0 -9999.0 -9999.0 -9999.0 -9999.0 -9999.0 -9999.0 -9999.0 -9999.0 -9999.0 -9999.0 -9999.0 -9999.0 -9999.0 -9999.0 -9999.0 -9999.0 -9999.0 -9999.0 -9999.0
4.844280517323569 4.670791671954774 4.587511513490147 4.587178195407835 4.746628887651157 4.918816210099759 4.850040151516606 4.511546710311816 4.242305575937059 4.068433154112922 3.952325493870188 3.854373410569942 3.8371867375989352 3.860967068233224 3.876316401588041 3.732877749329133 3.589339292382957 3.725292315104666 3.7900021122702108 3.809932155454317 3.852640436864437 3.889675648085784 3.924833944310016 4.007397047924367 4.229784658632962 4.5760145336031846 4.780052481621236 4.823948277569415 4.84552778331156 4.9386903670392766 5.0241462052320145 5.133477547794096 4.859927658664779 4.678039182588327 4.617058651854049 4.637956233066684 4.681501942352931 4.710321991826048 4.70491760888414 4.663068769292965 4.6003304621090075 4.524435897832169 4.462814747249946 4.424392020664792 4.369963638423633 4.261962333759899 4.161393921436645 4.068992109868102 3.7811765803539523 3.1434309207377127 2.8358008887773622 2.5047666542602123 2.246917256126694 1.9465647839930431 1.7355160588414136 1.4730031291437269 1.2742327423976265 1.1369156468256438 1.0424448410692428 0.9722477490125023 0.9263979852336302 0.9322802545546331 0.9374828751806172 0.9566001931816455 0.969421358456247 0.9535837113776531 0.9304790974904775 0.913178039262724 0.8963211744812267 0.9100676344561198 0.9124859043469371 0.8583297475250529 0.7516126104240644 0.6570395172164349 0.5821443055383768 0.46837238218393146 0.2245499470872911 0.030721514309833595 -0.003811999756086301 0.0925512998582336 0.1575514752023946 0.1462847884300157 0.8247061159965892 1.3974222725495073 1.3871359472493203 1.4598170637055345 1.5932859703114524 2.0309114522753817 2.449087798707241 2.3138221161723114 2.2114152750143203 1.9473656331780498 1.8148394899090383 1.7807748537669479 1.7579668700190247 1.7042562668396097 1.6364869934008992 1.5200029907045727 0.743668536544771 0.6930041670503788 0.9114528330804652 0.9607817390234459 0.646595813897715 0.48270419495222 0.5230303306973696 0.4658806586949708 0.3764262448579696 0.26508070978417897 -9999.0 -9999.0 -9999.0 -9999.0 -9999.0 -9999.0 -9999.0 -9999.0 -9999.0 -9999.0 -9999.0 -9999.0 -9999.0 -9999.0 -9999.0 -9999.0 -9999.0 -9999.0 -9999.0 -9999.0 -9999.0 -9999.0 -9999.0 -9999.0 -9999.0 -9999.0 -9999.0 -9999.0 -9999.0 -9999.0 -9999.0 -9999.0 -9999.0 -9999.0 -9999.0 -9999.0 -9999.0 -9999.0 -9999.0 -9999.0 -9999.0 -9999.0
4.905887419602671 4.650611541785931 4.545926826758014 4.410001232064849 4.300012606789212 4.6864864375267965 4.907231089886379 4.8710225917904895 4.623128534778247 4.425046519997742 4.264086125257977 3.9753499746983336 3.858477328669766 3.851974560496989 3.8505873748083963 3.737349917701786 3.655770369940006 3.774696335018053 3.8675263162214595 3.9014698224764617 3.921002768523753 3.934382957956616 4.001862029505638 4.126700179282198 4.358643564234554 4.685417058229416 4.866928884698518 4.8708587877625975 4.8355248487762434 4.916018204554825 5.3679103964768045 5.539736243975836 5.182765192942374 4.874320939374858 4.773453578988674 4.780593015714773 4.82801884195517 4.872954126458131 4.865500480959955 4.80860229975795 4.759582068902621 4.741734783388305 4.702598758864517 4.6820722897534415 4.651016367088421 4.505585529859277 4.371301778311927 4.2952633758992205 4.006781615785962 2.9862043467296746 2.6630825028903025 2.41528940360481 2.2725926850775244 2.059145502042875 1.8370314808860864 1.543570350330709 1.3194196995660556 1.1717566900582348 1.1005119081749524 1.0723321074073577 1.0882388262096399 1.0895665136782593 1.0974100700180331 1.1204207777817778 1.0867783391577865 1.0032972821467732 0.9383986149768981 0.9276297090474563 0.9395808297166945 0.9465800819208088 0.9343303235969336 0.8566247568206569 0.6513531930699759 0.5842691431444569 0.5907904807408042 0.5917243392821363 0.4352246908410468 0.19512023579489268 0.08324805957607359 0.15139921551366758 0.2190213929570789 0.1498538401096374 0.1755234392667569 1.1092245115302508 1.4788018749934349 1.5169288203277513 1.421798447999187 2.023649925819611 2.279218866602398 2.269647739690925 2.079270648376833 1.879590438745379 1.8460329720729542 1.8278575344847592 1.7827043062123735 1.7394134676446251 1.718973780399825 1.6807691266284224 0.8567258644438391 0.7496005744577154 0.8666493100124109 0.8958104447623181 0.6417522236022626 0.3998588562322727 0.4185955120559118 0.40302830832536807 0.36300223919150937 0.3570172112272534 0.08390066080381489 -9999.0 -9999.0 -9999.0 -9999.0 -9999.0 -9999.0 -9999.0 -9999.0 -9999.0 -9999.0 -9999.0 -9999.0 -9999.0 -9999.0 -9999.0 -9999.0 -9999.0 -9999.0 -9999.0 -9999.0 -9999.0 -9999.0 -9999.0 -9999.0 -9999.0 -9999.0 -9999.0 -9999.0 -9999.0 -9999.0 -9999.0 -9999.0 -9999.0 -9999.0 -9999.0 -9999.0 -9999.0 -9999.0 -9999.0 -9999.0 -9999.0
4.93925030000646 4.7363728281132715 4.610619869595066 4.407256982635425 4.2650391167293975 4.37449944624973 4.768483672030879 4.907933423598193 4.892430776764206 4.682525722055401 4.414356941509898 4.1457818659420145 3.931777111330559 3.882568842916867 3.846342754851559 3.7329881362763113 3.6998528775816983 3.799648028362181 3.888341755647489 3.9223959080419823 3.93413106113838 3.9746699286284444 4.074675268727928 4.195712808148614 4.413225245676337 4.690292617377354 4.898742909492385 4.922199156743803 4.878866458754154 4.972827595678429 5.685512808272195 5.701391732383086 5.394811006942512 5.0710561978314415 4.91747275594591 4.90290074985127 4.947844706398481 5.011670306097599 4.998323788302956 4.9460767168109285 4.919083334224954 4.926011105678864 4.918914260315859 4.895612226570545 4.831031853843217 4.640120959939165 4.390910496903207 4.276319833982344 3.894434141422593 2.9582986765888553 2.605724649565359 2.3409137443771386 2.2354382119596043 2.07056150298549 1.8539235798523674 1.5454084236845123 1.3558311324400683 1.2352658752706591 1.2008414210347629 1.2747799836164808 1.2783941549475941 1.2632455196435077 1.3054791753562294 1.3703970065469149 1.2601298281433986 1.102744471665146 0.9981768705212815 0.9746538765715 0.9727519995187845 0.9593779243100022 0.9147393041324732 0.7399060629084449 0.606834679672587 0.5867967599868464 0.6829160212847796 0.7801180477597269 0.6998192083745267 0.47526590042426814 0.3003609963896041 0.3035720449969675 0.337339833600256 0.33290202938587 0.7711070740848842 0.8154316039067262 0.9333930070758762 1.0991730702060958 1.0641159912688944 1.1098662205851622 1.9859637985858953 2.0453688728937864 2.126284591208829 1.9925423743220672 1.9050683735803808 1.8631584011854776 1.8100762875343308 1.7440646755569829 1.7680388896705648 1.7915564240136739 1.4593499874150815 0.8254632205379979 0.8164703741530459 0.6982335534537922 0.47889154267867845 0.3799712222852328 0.4037924121138714 0.4791575761864712 0.4404869156198214 0.4108640017867088 0.3638181485175391 -9999.0 -9999.0 -9999.0 -9999.0 -9999.0 -9999.0 -9999.0 -9999.0 -9999.0 -9999.0 -9999.0 -9999.0 -9999.0 -9999.0 -9999.0 -9999.0 -9999.0 -9999.0 -9999.0 -9999.0 -9999.0 -9999.0 -9999.0 -9999.0 -9999.0 -9999.0 -9999.0 -9999.0 -9999.0 -9999.0 -9999.0 -9999.0 -9999.0 -9999.0 -9999.0 -9999.0 -9999.0 -9999.0 -9999.0 -9999.0 -9999.0
4.968818443517527 4.835675211971857 4.680029103522369 4.503227030408752 4.307128828193226 4.31719048388421 4.571409235892684 4.819869304037283 4.9156461076794935 4.900486156417272 4.658267119757508 4.295809729391436 4.010680312640837 3.928918598875731 3.906335373689433 3.8157056853652223 3.7872724952180223 3.8414032879578683 3.886625842994768 3.9377906314116875 3.9975801662004 4.061718777315622 4.160867761171101 4.287018768018838 4.471690915254268 4.702103191140858 4.929155300828829 4.959820411876455 4.956006983261457 5.26815729150601 5.852958359642293 5.930846440081904 5.684235989126797 5.341995791611562 5.116964272077745 5.063758446818643 5.136277071580431 5.200014877930093 5.178657189917762 5.1525671113218765 5.041447659384425 5.006668680802548 5.012814680362578 4.951357396778221 4.902997076798615 4.549129678132258 4.319030134294212 4.1002622321359645 3.666430749621885 3.1519290243939193 2.8563243347480882 2.46694114491206 2.2228145798907684 1.989115271431311 1.7540000382794567 1.6314170431979147 1.4432425578701162 1.333233565896613 1.3817477916939322 1.5354802760896944 1.4955539138274883 1.359883117661294 1.3915827025208796 1.4537726380887044 1.3715258770696361 1.1613364818106187 1.024793255055624 1.0042853579229216 0.9875720844621438 0.9380543454052219 0.7990072705866711 0.718860408545984 0.6528054956755758 0.6818642165182665 0.8061208138028557 0.86639753598693 0.8244117949658438 0.6563509941805259 0.4024689287186138 0.3895516584295853 0.4929728232910608 0.6410420361457017 0.857086069682798 0.7115343383163744 0.5279521221063783 0.560181757473011 0.9428650698129137 1.0429782443256408 1.3954766085116581 1.907467903598276 2.097470576200859 2.174519719773469 1.930436752845569 1.8538884042521324 1.8553180260292559 1.793041876115048 1.6908054660175784 1.6520865546267303 1.5773981602340816 1.478901669211999 0.8738871096253027 0.5882647705697095 0.52083729623676 0.45729627210805196 0.3936055615603442 0.529718355203894 0.5439264096994545 0.3953774734065113 0.367512818381342 0.2308901321380949 -9999.0 -9999.0 -9999.0 -9999.0 -9999.0 -9999.0 -9999.0 -9999.0 -9999.0 -9999.0 -9999.0 -9999.0 -9999.0 -9999.0 -9999.0 -9999.0 -9999.0 -9999.0 -9999.0 -9999.0 -9999.0 -9999.0 -9999.0 -9999.0 -9999.0 -9999.0 -9999.0 -9999.0 -9999.0 -9999.0 -9999.0 -9999.0 -9999.0 -9999.0 -9999.0 -9999.0 -9999.0 -9999.0 -9999.0 -9999.0
5.0559425531251 4.926264091530366 4.752455934257561 4.560178010155562 4.379911333592441 4.362550155844433 4.476512521518062 4.680706003726565 4.845562951121024 4.91496819137484 4.900907019403331 4.612900059618408 4.174588364730713 3.938244148175134 3.931797533426922 3.9809381585783155 3.9156165394687856 3.897520658667216 3.9557415416894206 4.1296102776771235 4.227262935073552 4.274384531514431 4.360022476465853 4.48018291034256 4.6206120606610614 4.7250837941729 4.8539092357608205 4.921522829996619 4.971768868914829 5.500344257508679 5.851534578929856 5.938172593677857 5.934552473229859 5.6128061337859405 5.360198540661743 5.290857658513923 5.358466608004376 5.400066671434728 5.353533620051108 5.260870830372128 5.143977752128762 5.077709754939108 5.147153445770096 5.061009339960682 4.759893519713091 4.539435109235138 4.3146276392338345 3.9419776358307304 3.514249508155794 3.111697940763191 2.9481912178483123 2.6693335376841443 2.2276098148279773 1.9300275426272189 1.780621008046739 1.7270778004502243 1.572222195481103 1.4338015530743704 1.5317542767144672 1.7085846093184234 1.7051039639630856 1.529135865797231 1.478050560659563 1.4733394464412684 1.3712838684534328 1.135440194692495 1.0082192129937808 0.9826619613933285 0.9710965609902786 0.8817135628564108 0.7941218191713546 0.7869975185166551 0.8374992468886548 0.8521223437490362 0.887218015514798 0.8825622013610099 0.8127688924423293 0.6111860056869369 0.3649196708809219 0.3770877326462539 0.5636027200416769 0.7131601555939147 0.9117469219969447 0.9525015143805924 0.5750806542641616 0.5254870416575235 0.6585044592871796 1.0578868903726468 1.1772242066242657 1.6260215732831271 1.9761220593848197 2.2042643027188986 2.1636369615279802 1.9500084275300937 2.0230491622477076 2.107424368262264 1.891281767545699 1.6535341173854712 1.6273427672310958 1.6017914840562202 0.8658541481327451 0.4903524498864688 0.5695300452799197 0.5446633519806747 0.3733377034264337 0.3283060027976109 0.550455831036446 0.3559982693038666 0.2640724107685933 0.2251094146208097 -0.0680221007777623 -9999.0 -9999.0 -9999.0 -9999.0 -9999.0 -9999.0 -9999.0 -9999.0 -9999.0 -9999.0 -9999.0 -9999.0 -9999.0 -9999.0 -9999.0 -9999.0 -9999.0 -9999.0 -9999.0 -9999.0 -9999.0 -9999.0 -9999.0 -9999.0 -9999.0 -9999.0 -9999.0 -9999.0 -9999.0 -9999.0 -9999.0 -9999.0 -9999.0 -9999.0 -9999.0 -9999.0 -9999.0 -9999.0 -9999.0
5.136988005761912 4.983518998513337 4.845761333878668 4.628007605957527 4.467245396740636 4.429393011941601 4.500816368040376 4.668814682285887 4.766691822021682 4.83498907993336 4.906382450983472 4.895996146007734 4.51632993130707 3.953209764933304 3.9548442691674865 4.0177618047370425 3.938356578597776 3.9493776861551084 4.120574998605323 4.298604581961158 4.358285959636732 4.3938558418413365 4.553290476102339 4.72579191204531 4.713257719938209 4.715291653578113 4.768917029003516 4.835574214899978 4.932727697765419 5.47204133993418 5.764082174232552 5.931405293910833 5.95253939166126 5.7594408692802945 5.557012277713685 5.546075095091002 5.613863007381616 5.603532131121787 5.530000127388607 5.422313745362235 5.273033983257184 5.184161922704832 5.314731386773109 5.3241199700907895 4.6973255995801075 4.640771246875837 4.471745157257849 3.902083712485295 3.3037921902096 2.994780572244022 2.9364886057822006 2.6932051332860625 2.30410003874131 2.0082233891455745 1.880344256523628 1.7924837061883636 1.6112186475201429 1.4733302660274763 1.5890675750897159 1.819240658493512 1.8545730970329304 1.7566649573489475 1.661334000569983 1.5573830381404068 1.391231789009333 1.1062028885702304 1.0017067097124892 0.9736975300322648 0.9380412848364041 0.8203868362647051 0.8356087933530003 0.9254567763466872 0.9407621415617224 0.9293096718203444 0.9114150926882807 0.8820511763503012 0.7368515693376181 0.47838218437892116 0.2561319820266166 0.2790809164503133 0.5483074963083587 0.9151416423752503 1.1071743555817297 1.055289255968861 0.7933945205650523 0.6144993887800236 0.4174921737678538 0.497023799444344 0.8896079701512916 0.9684432004791681 1.6952904386742604 2.0062005600288573 2.238526372287171 2.219938552624013 2.371659436724569 2.992164530008011 3.1236392546052203 2.1319698933978986 1.775592346615368 1.660628675615427 0.8886063021799984 0.51080120576912 0.5494088235442174 0.5545129244285318 0.44214301612319656 0.2496906693759845 0.3044298344219935 0.3701574373007357 0.258146814603826 0.2978329089572539 0.43562403687907375 -9999.0 -9999.0 -9999.0 -9999.0 -9999.0 -9999.0 -9999.0 -9999.0 -9999.0 -9999.0 -9999.0 -9999.0 -9999.0 -9999.0 -9999.0 -9999.0 -9999.0 -9999.0 -9999.0 -9999.0 -9999.0 -9999.0 -9999.0 -9999.0 -9999.0 -9999.0 -9999.0 -9999.0 -9999.0 -9999.0 -9999.0 -9999.0 -9999.0 -9999.0 -9999.0 -9999.0 -9999.0 -9999.0 -9999.0
5.150119959397302 4.998231833692 4.893704402639337 4.741923859101034 4.56363078466209 4.53135993909952 4.628379874564743 4.7724999560860955 4.759682253939178 4.6864009896924275 4.616302522954193 4.879372823893599 4.891361905108396 4.252660364883112 3.975242662680412 3.9979604395423576 3.9744004221251132 4.027996431352647 4.111578129241082 4.216569303608676 4.263254995669742 4.367101008847209 4.567421379248836 4.741425904381615 4.703459197011638 4.66881744030951 4.725661594090218 4.812874933658768 4.90809776057879 5.213973236727354 5.534035707967836 5.826311313381609 5.938539827372684 5.906806363824602 5.798956388519705 5.82562337555491 5.8243666404284955 5.763208928213383 5.681982213370171 5.639019701763409 5.520924476684364 5.439671265165792 5.608290090257828 5.554539417606083 4.990361689788527 4.6989632537094685 4.33244721025741 3.8922633970578104 3.319101906397743 2.9935624938043217 2.9078480677076626 2.7130689090913465 2.4230595225396843 2.1503450453775224 1.993010671208274 1.890847581338812 1.6718753285935268 1.5208158395930442 1.6137292553115636 1.8683697299623567 1.9157985481081727 1.8977469407385728 1.8557891402295208 1.7399582779846727 1.4905300449532706 1.208678004008157 1.0930120435273651 1.0083724206279416 0.9147189796683719 0.8731151355762501 0.9252357402640392 0.9571753013596613 0.9540832877387411 0.9338181780920058 0.9272837549873265 0.8847965205444739 0.7470870518050412 0.49604453045532354 0.2751436929954045 0.2746372592385275 0.5071038325062336 0.9776807063901913 1.4165914249503597 1.208858989452657 0.9484539968732628 0.6736169943209189 0.4154464955201656 0.445923760005892 0.6787771844028387 0.8734279776898877 1.3171669632234768 1.592153926660005 2.0619228706095547 2.2431376460856978 2.201042727006887 3.060228064409224 3.990682388314737 3.807864620531302 2.8984379214754767 2.0363807363238084 1.0767476930801272 0.9002124477733124 0.6103813306255192 0.20999688774818048 0.2159834213096044 0.2244442214779092 0.26335900758144937 0.3477295345118074 0.29271142217968127 0.2649318723284489 0.4869903682274684 0.3851248128795597 -9999.0 -9999.0 -9999.0 -9999.0 -9999.0 -9999.0 -9999.0 -9999.0 -9999.0 -9999.0 -9999.0 -9999.0 -9999.0 -9999.0 -9999.0 -9999.0 -9999.0 -9999.0 -9999.0 -9999.0 -9999.0 -9999.0 -9999.0 -9999.0 -9999.0 -9999.0 -9999.0 -9999.0 -9999.0 -9999.0 -9999.0 -9999.0 -9999.0 -9999.0 -9999.0 -9999.0 -9999.0 -9999.0
5.148440817118318 5.019961977290194 4.933040892417974 4.85675529631948 4.6605350558814855 4.61436879204885 4.8007097624903325 4.873967398177552 4.755397696335825 4.5034920667201845 4.311578193683629 4.471137504357856 4.8637336856028615 4.90570008318508 4.583993529635061 4.184384784184381 4.049681117523706 4.050255526777033 4.080868653315618 4.096232136304113 4.104290786443852 4.197930337152547 4.363096309399272 4.520063588979431 4.5517623467626525 4.599812571281753 4.705507784385728 4.851399267564106 4.929638762931641 5.147776554561503 5.324186817559285 5.6480516038891375 5.898398078026698 5.907323903702516 5.750623705282835 5.88960497515568 5.9277010693141055 5.897208617443518 5.809253981685896 5.744918112237383 5.723620624959354 5.770314854898594 5.959903845365757 5.815285301194569 5.240397366520951 4.719514855065048 4.197219231890029 3.846717835864399 3.3347218470817688 3.015037108198122 2.8920780957920806 2.7750066892288494 2.5582578499507362 2.2756869291317363 2.0851185605563516 1.9706867012773828 1.7569035747700679 1.59607194712859 1.67835020565991 1.9102777948041179 1.935937792621629 1.9297851904204204 1.9024354733511075 1.8293810410680487 1.656293857874377 1.4390548911928815 1.3767057152577902 1.2073862109504 0.9654492531976977 0.9492868566624302 0.9885176646174767 1.0074981882135405 0.9728532325832004 0.9307257229633621 0.927881749096664 0.8952658144725063 0.7996599781273594 0.603160197717731 0.3870961842050216 0.3349606104253638 0.5565944779540795 0.9148828015063957 1.3384206391544315 1.2583385087929428 0.9986179982554337 0.721027068689666 0.5345859997110332 0.547456096449989 0.38690109643693527 0.3750848732161517 0.9269839938429421 0.9679000112114009 1.0754720603484584 2.0445403454045694 2.1092791163386724 2.064156064102542 3.819979168749632 6.808712575500067 5.296724403966678 3.478086793854971 1.646337911701309 0.9711436363611021 0.7895884066026981 -9999.0 -9999.0 -9999.0 0.2673577871438172 0.2756795450702944 0.2397003947157349 0.17911197918051988 0.30677023014431937 0.451579462698312 0.1975707726531501 -9999.0 -9999.0 -9999.0 -9999.0 -9999.0 -9999.0 -9999.0 -9999.0 -9999.0 -9999.0 -9999.0 -9999.0 -9999.0 -9999.0 -9999.0 -9999.0 -9999.0 -9999.0 -9999.0 -9999.0 -9999.0 -9999.0 -9999.0 -9999.0 -9999.0 -9999.0 -9999.0 -9999.0 -9999.0 -9999.0 -9999.0 -9999.0 -9999.0 -9999.0 -9999.0 -9999.0 -9999.0
5.187853960075406 5.076195304209212 4.996537042894346 4.9550349008774015 4.870551651390929 4.7558743869498725 4.90770846824764 4.916940268172581 4.722697285020832 4.478684822075316 4.322224897543295 4.332076696002326 4.553004361576762 4.8707461642430765 4.920156972080763 4.589002585936904 4.155130518021251 4.095471782808379 4.10576609765262 4.115166382380065 4.164470088181282 4.269878667939304 4.3652271353310335 4.453079475925625 4.527061953551212 4.625763372590983 4.760019332684854 4.896512556397536 5.083021595615339 5.28479117625458 5.4351525599279285 5.561570087732738 5.786402629840528 5.837188067297309 5.662584687014435 5.83324039088165 5.962735893658101 5.987215163552344 5.927693124709905 5.855074872240928 5.843917357889402 6.003032525191038 6.1337154218584935 5.923711240503228 5.353305735728802 4.621534086266037 4.046941558635865 3.8029443838890624 3.3742816994833853 3.072744758839385 2.900563403953758 2.7989853293376785 2.5857671254546744 2.3235747757192136 2.1205449019095903 1.9711915837831404 1.7510110858311132 1.6618947636756969 1.788443347546531 1.933782621395071 1.9392512019771349 1.9317247577345757 1.913748153151217 1.8338387558572455 1.7740987131387063 1.6601547566323622 1.4824744373018282 1.3368892809422168 1.1021395657257707 1.0635258647975976 1.0980999707211156 1.0895756245243728 1.000733536005728 0.9292156111309873 0.9216707675767768 0.8814664734895641 0.830184433637736 0.7325695579106386 0.5914478572100188 0.5713195040107337 0.748537106275277 0.9387351209625698 1.201370130172261 1.1796576605725055 1.0441692115860408 0.8098658141314841 0.6735491755237617 0.6366573507896702 0.37311366482279 0.30505611351539197 0.3720814904828656 0.7864112378659045 0.9724877022507172 1.2675510506271916 1.9655733821099368 1.95195164341596 2.1158501044118836 4.370402150427572 5.427435436895353 3.593034337575208 1.7179123322096028 1.0762245153135515 0.8001739748671917 0.3254734299872416 -9999.0 -9999.0 0.37540140680558387 0.3328116132319743 0.2657499474819128 0.2749253902612307 0.286920638562017 0.3447861331407255 0.3721435391520569 -9999.0 -9999.0 -9999.0 -9999.0 -9999.0 -9999.0 -9999.0 -9999.0 -9999.0 -9999.0 -9999.0 -9999.0 -9999.0 -9999.0 -9999.0 -9999.0 -9999.0 -9999.0 -9999.0 -9999.0 -9999.0 -9999.0 -9999.0 -9999.0 -9999.0 -9999.0 -9999.0 -9999.0 -9999.0 -9999.0 -9999.0 -9999.0 -9999.0 -9999.0 -9999.0 -9999.0 -9999.0
5.238943476824137 5.141121860163408 5.0740366904141805 5.054302334556296 5.047374727672803 4.995296001447312 4.959153913711163 4.938238994676097 4.7619825071899315 4.5576215062011505 4.383590425146264 4.319063511818059 4.27614694416283 4.477764109505325 4.8401111129731875 4.910003998626239 4.6629146363609815 4.433853270627711 4.284223415481659 4.284832295703206 4.414992769117935 4.52761296772477 4.552874269573276 4.5776143339213995 4.647699013149129 4.754224109302427 4.895457226157155 5.097940566519833 5.347988078855732 5.51555171880208 5.5396218467556455 5.547700095552453 5.614834077073338 5.8143213980312884 5.886466031810821 5.957909370823448 6.078764014009118 6.104292910302977 6.0317209920303485 5.9697813110465745 5.991645996916977 6.253753103139376 6.333481385685078 5.937435866985316 5.296634063797196 4.418028263629037 3.9447459252215062 3.750938191978842 3.521217642136198 3.196894372387731 2.9276810973054244 2.795604419346337 2.540830820446616 2.2729811049562283 2.080623822652888 1.920472124857364 1.7250146383693306 1.7114415164837744 1.898223236796325 1.9395886038425163 1.938367097966106 1.9312086591845568 1.8929241619435844 1.8166435280429964 1.7950660102870775 1.7513451889106835 1.5884163313138204 1.3389638080698352 1.167378360659791 1.14351853781761 1.1672370161507768 1.1651508583751897 1.0376085626065936 0.9267637064904168 0.8900504010158488 0.8272396541556044 0.8215634530193163 0.8117568653832132 0.772017149473452 0.7996275966533406 0.8791647223016024 0.9435921660256661 1.0565576644741659 1.0648537383108916 0.9884066547133139 0.9082114397007506 0.7844283482488097 0.6251975088887158 0.39337753778970647 0.3005010634618454 0.27229625476463537 0.34537329816505247 0.7839078178406902 0.9972189290939661 1.772689386948667 1.964071921414112 1.9965316088246408 2.148669961253086 2.5835639459462043 2.057210581925712 1.7291010080014648 1.3332586601858347 0.19290395439548047 0.151117687225712 0.3413840257911243 0.5934107962285442 0.5606252439353101 0.46662839130545225 0.3164942301577234 0.2830858382908912 0.30279935004573827 0.3117917536841297 0.3444314622045548 0.296633156903735 -9999.0 -9999.0 -9999.0 -9999.0 -9999.0 -9999.0 -9999.0 -9999.0 -9999.0 -9999.0 -9999.0 -9999.0 -9999.0 -9999.0 -9999.0 -9999.0 -9999.0 -9999.0 -9999.0 -9999.0 -9999.0 -9999.0 -9999.0 -9999.0 -9999.0 -9999.0 -9999.0 -9999.0 -9999.0 -9999.0 -9999.0 -9999.0 -9999.0 -9999.0 -9999.0 -9999.0
5.246809941869001 5.190021575582064 5.131654494179646 5.09154939112154 5.072813670691661 5.049402906588668 5.044165838034956 5.036116746130773 4.932319792736444 4.7186353184734955 4.523140814453544 4.334641774108469 4.200195418584128 4.227752526909363 4.559271339438345 4.850778159250572 4.9209873425518165 4.853817488684696 4.614939254905925 4.522201665758054 4.570933733596175 4.592443166991032 4.608374387333736 4.652659499641196 4.76326983404467 4.903384975140196 5.033633020629394 5.270412160479301 5.4497470768691745 5.5541241427351995 5.5520728475770245 5.542684400694735 5.56638984699972 5.721657314464543 5.929177748112846 6.031747710027336 6.182967029515835 6.225574983453374 6.18710302826751 6.166752411958992 6.268749807995533 6.506345452449199 6.55709339067247 5.967495395204608 4.954146692646162 4.110926787742224 3.8599248605447545 3.7985959657558523 3.6538375432500456 3.407417657490784 3.014459866108818 2.8157731685498057 2.5560018675983804 2.243008624309095 2.052122337273286 1.908439877398307 1.7634717881796442 1.779951583083243 1.9307420234061736 1.9405371938638136 1.9355682386195963 1.9030130516135368 1.8125456989372155 1.7195843390107408 1.6892782164984634 1.6652998616032595 1.5600839286948154 1.3791201102880783 1.2142385330267689 1.1598400304772487 1.1570422952830102 1.1272191431156922 1.0584370666856369 0.9430837438426531 0.8029564472494328 0.7584506837601654 0.7952199384127667 0.8207003702667326 0.8300028927700955 0.8683110112069632 0.9114963718959317 0.9304184359156256 0.9397411831264852 0.8748537206034537 0.8169753399885749 0.8871451667782755 0.9424937297828444 0.5508809407531836 0.4029270335538983 0.3205025765104947 0.2511011210760908 0.21157298005716058 0.37243199470519517 0.7678698499151988 1.1600666215716673 1.8218436168936523 1.8892303026642367 1.862410702405642 2.1107359918687503 2.052408737451651 1.7956207608425871 1.5686605937531037 0.0632532668145181 0.6190807725989065 0.7414583747319952 0.66017526105755 0.5748023411393746 0.5050779530218048 0.4252448201818429 0.3884291696328344 0.3677981069176735 0.41217219227994867 0.3810192826708413 0.3834070257487912 0.11167365186506839 -9999.0 -9999.0 -9999.0 -9999.0 -9999.0 -9999.0 -9999.0 -9999.0 -9999.0 -9999.0 -9999.0 -9999.0 -9999.0 -9999.0 -9999.0 -9999.0 -9999.0 -9999.0 -9999.0 -9999.0 -9999.0 -9999.0 -9999.0 -9999.0 -9999.0 -9999.0 -9999.0 -9999.0 -9999.0 -9999.0 -9999.0 -9999.0 -9999.0 -9999.0 -9999.0
5.220264014581046 5.204237325317672 5.149349093646154 5.087302370619592 5.035628989057543 5.033751799062927 5.053194644148576 5.0954665549839575 5.057739430340972 4.920638134176317 4.711160778000589 4.5058229551814835 4.328375248535594 4.329335385673595 4.463919729033485 4.679517050357713 4.872676209302559 4.9280121103564145 4.8913170206066 4.724525421035058 4.67535089371206 4.663642820226717 4.675059115380361 4.747928273846669 4.897585305166344 5.02671697438527 5.155886725929778 5.270130527587127 5.412984337241626 5.50299655889376 5.531669989289712 5.536521564463458 5.563006349162025 5.689331725145112 5.893181728736651 6.06490883417044 6.2463083280801515 6.297481596125472 6.356919444479449 6.444989908017777 6.524511755886017 6.547581903639199 6.45444524060844 5.489573747593587 4.337609886230514 3.8636445690304053 3.781028295328773 3.806140108640449 3.76909217642836 3.5077878249875987 3.1432210770399123 2.874460336520196 2.6949228253543094 2.412587423507863 2.1265447700188234 1.938742698897588 1.8069936198616487 1.8115570533057896 1.9229995213863644 1.9388561013659837 1.9369868990802657 1.866435262534263 1.7146971315565904 1.5739949374244948 1.4951232000598083 1.5019039450351515 1.4754786352738294 1.3867841514511376 1.2377815570265183 1.1487844603979456 1.090712857461993 1.051408122574184 1.0315299969508949 0.972802015967666 0.8436682375098474 0.7932268211624178 0.794371918802917 0.7986008959133457 0.8311333580224947 0.8783828877416782 0.9190234718810713 0.9262059966195155 0.8628036434213364 0.7198610648748034 0.7090600176746489 0.8702957385986472 1.0585096528728264 1.1106251661604263 0.4156676262282834 0.3401216508016683 0.2565487850641347 0.23042193269922967 0.318064724490232 0.5990933236462843 0.6834803101288234 1.1771113059159308 1.6825708522408644 1.8337568063667964 1.9047630564363047 2.0388179269753604 1.9210719722892868 1.7932522563552444 1.329116785425126 0.7171443496955854 0.6938646025897897 0.652322489195134 0.5943809429657523 0.5848614101252585 0.6235634445984404 0.4586074620281834 0.35086976561848837 0.2801213410156369 0.37590066619288337 0.4120831291300527 0.4235011508952974 -9999.0 -9999.0 -9999.0 -9999.0 -9999.0 -9999.0 -9999.0 -9999.0 -9999.0 -9999.0 -9999.0 -9999.0 -9999.0 -9999.0 -9999.0 -9999.0 -9999.0 -9999.0 -9999.0 -9999.0 -9999.0 -9999.0 -9999.0 -9999.0 -9999.0 -9999.0 -9999.0 -9999.0 -9999.0 -9999.0 -9999.0 -9999.0 -9999.0 -9999.0 -9999.0
5.210448936301091 5.212243024281564 5.1376624178522246 5.017764799823844 5.013264383097099 5.038226244933247 5.134676744680662 5.227596952686321 5.164548472450337 4.9995541433492034 4.871773187670478 4.699576165784567 4.563695122631007 4.505319518419209 4.5643885919686635 4.679654170526092 4.7818529559322025 4.898022068453779 4.9468146205606836 4.929031019375254 4.829894421344134 4.781387294165885 4.8205051733560795 4.910963436167375 5.07552834929405 5.24765093129528 5.288528880826605 5.300354150583713 5.367137235309199 5.461917924946421 5.51699150268767 5.534992583059765 5.5671114391974115 5.672492282619076 5.8528534042793385 6.160946619509959 6.3644288151089 6.44905899345478 6.58216028667789 6.7205117474560385 6.673585299303965 6.497271182411119 6.042882657339328 4.917912165210698 4.107390923757817 3.8010939646149913 3.764032722008476 3.779508386497957 3.7529909004644995 3.5157750143707647 3.1521482189324 2.8760506556380836 2.8165257319028205 2.6944830761087997 2.378151968201884 2.035284425183066 1.89052804597892 1.8470216872138758 1.9153402130767092 1.9541677612519621 1.97293421754882 1.9229193000715128 1.7364680951648215 1.5280687861316815 1.4297481652595472 1.3755857298016205 1.3482366026365062 1.2758858763394139 1.1736174183265127 1.0825020627132014 1.0090909343148298 0.974220411633308 0.9708530390578562 0.9373899187715113 0.8932535340672567 0.8255718874374989 0.7929550226437903 0.7707946290036258 0.7889827735124333 0.8557006690851328 0.9211604300579119 0.9285907991147244 0.8572056516127879 0.677908598579607 0.6552069956991258 0.8099389095875309 1.0272969779656276 1.104418056427773 0.6459026756730808 0.37210111691338377 0.309136953219953 0.3050139609601024 0.364126491058948 0.5370168589633879 0.4300055182683537 0.7947980436552249 1.4258675898079887 1.8144551014811636 1.8907663904561063 1.9439881140952957 2.029502289375107 1.8761987589807279 1.7007455108242275 0.858609453226892 0.7035851319081623 0.6520362903869481 0.656520545939073 0.9268271596636632 0.937381338015667 0.4429452611045766 0.22979070541796548 0.1493703255982031 0.2292944448783401 0.3262654976737852 0.4054642248199007 0.353529551979552 -9999.0 -9999.0 -9999.0 -9999.0 -9999.0 -9999.0 -9999.0 -9999.0 -9999.0 -9999.0 -9999.0 -9999.0 -9999.0 -9999.0 -9999.0 -9999.0 -9999.0 -9999.0 -9999.0 -9999.0 -9999.0 -9999.0 -9999.0 -9999.0 -9999.0 -9999.0 -9999.0 -9999.0 -9999.0 -9999.0 -9999.0 -9999.0 -9999.0 -9999.0
5.32011983727476 5.304801376454318 5.17053918709715 5.027007359510804 5.054934799216568 5.181194690302972 5.3394704733836855 5.389550012876401 5.271362273963744 5.041565547028971 4.945890980988267 4.869535262241294 4.825456921696852 4.811277402040772 4.812008365623633 4.809614211720545 4.827668358860575 4.885779536708954 4.9752886031441355 5.072062171681394 5.115177503205513 5.253205055614948 5.2595358077174925 5.2302154311947255 5.342368973679676 5.458514082615907 5.479180337894734 5.429777103700112 5.423016652700296 5.467231459890153 5.513661332146553 5.536319769770536 5.589894342964678 5.7321106618751445 5.983171763904658 6.462836346530814 6.650069770167148 6.710783943881031 6.82125220287609 6.958123362075645 6.942129844778638 6.428860799888891 5.930776301289204 5.067191394839761 4.439241806334145 3.946365155915489 3.861139940916977 3.8129902186033555 3.769066916133894 3.662570644507678 3.2791036992687044 2.882637305869881 2.845312302278993 2.8609266992797777 2.757326325568409 2.321362625615908 2.000363303973444 1.9198465248895624 1.9429401238154667 1.970848338000834 1.9947001266479492 1.9649971405470554 1.8824289723624819 1.6991809056136546 1.5317432901414267 1.3943490682373156 1.279175558096282 1.1876132797444472 1.1121440943474463 1.031088410517236 0.9538066783198174 0.905008222681378 0.911098698507832 0.9318418266836936 0.9253432137157529 0.8526395706121797 0.778099731793465 0.7336186439158727 0.7279084621132341 0.8098060949139712 0.9247564185972403 0.9483182376643333 0.9204135715169024 0.7701537138321537 0.6980364310047864 0.7468218177463384 0.9014754699074929 1.0219817699912246 1.0515079425655025 0.4730355996641558 0.3931522667646239 0.356795398645702 0.3628535225539622 0.5075359553121706 0.4389307503360806 0.486577609497813 1.2946323159057207 1.6981261179668972 1.861713031525815 1.8795578967439648 1.9690028223003806 2.0295671177259575 1.8375063677497687 1.7423186050128718 0.856687360783642 0.7446289394278105 0.9626064597410064 1.0362350693931863 1.037238633838207 0.5189898102711243 0.3128767767639055 0.1559684030071623 0.1747287786775382 0.226078654584782 0.3289935876614739 0.3885471854924318 0.2705310483149593 -9999.0 -9999.0 -9999.0 -9999.0 -9999.0 -9999.0 -9999.0 -9999.0 -9999.0 -9999.0 -9999.0 -9999.0 -9999.0 -9999.0 -9999.0 -9999.0 -9999.0 -9999.0 -9999.0 -9999.0 -9999.0 -9999.0 -9999.0 -9999.0 -9999.0 -9999.0 -9999.0 -9999.0 -9999.0 -9999.0 -9999.0 -9999.0 -9999.0
5.524027330554858 5.469076072212402 5.368947771434029 5.252435875954583 5.343598673810125 5.493458368511736 5.605939491330205 5.564747892539426 5.378307816275074 5.106707352875281 4.987664827136966 4.967848877174097 4.961297536654158 4.975646338611801 4.978799578180832 4.967145052319319 4.9599133769759245 4.9753821996371155 5.099042611641967 5.205865281648716 5.4592799435751385 5.792350112543952 5.838091560608536 5.63881503996053 5.559018915549064 5.581463531306993 5.582619685975719 5.543427132370233 5.514340757679774 5.51665455426329 5.541977977378692 5.575943680582644 5.6808811402445345 5.9442359268914675 6.450871510162093 6.789952750458443 6.8734534624128 6.896940648604495 6.9714399132799905 7.05144409456959 7.018056290395802 6.481523880706673 5.833018173645576 5.258790209925038 4.848635983009227 4.1959928815100485 4.051324166552562 3.9475285616721743 3.918988391867804 3.8727089339154577 3.6142410797945543 3.0611253449397196 2.909138457072506 2.924140420723949 2.9126580158744617 2.6277805407077524 2.2656915949854644 2.040678343827137 1.9642810527382084 1.9591204794488497 1.980702709232084 1.9758049108833757 1.9357196198730124 1.887911408208184 1.7516192064610123 1.5861140025957408 1.3795917769388004 1.2224190831599049 1.134121299431683 1.0480213361275288 0.9509350407193022 0.8752758831839604 0.8795627779123154 0.9205811881964867 0.9304188981638792 0.8957945095219704 0.812215015589629 0.7171529365837157 0.6847696483946897 0.756972684260965 0.9492431391642473 1.0638115698547674 1.0400436362547703 0.9016596341082825 0.7752084560386094 0.7832819154029398 0.850785544938468 0.9545069738037295 1.0327828879364533 1.053923741904921 0.45644445058471667 0.35657376624216397 0.3278233753219702 0.3932524479716425 0.480897442885782 0.4083208448846704 0.4127986816313123 1.2782605697491216 1.8067958379733924 1.8596787254621816 1.9648276140124497 2.1472490893169467 2.072250530533066 1.9438192616249925 1.7245498363239349 0.968938064808978 0.9887015778313579 0.9784167755116864 0.866636827916534 0.6044796525732987 0.3712844977095174 0.22671805684173357 0.20352348550781418 0.2126683881068257 0.2806739568579022 0.4154252286097842 0.4082661821245923 0.0442635756897411 -9999.0 -9999.0 -9999.0 -9999.0 -9999.0 -9999.0 -9999.0 -9999.0 -9999.0 -9999.0 -9999.0 -9999.0 -9999.0 -9999.0 -9999.0 -9999.0 -9999.0 -9999.0 -9999.0 -9999.0 -9999.0 -9999.0 -9999.0 -9999.0 -9999.0 -9999.0 -9999.0 -9999.0 -9999.0 -9999.0 -9999.0 -9999.0
5.899664456925472 5.838292067443969 5.7908063892822454 5.72911227064051 5.772476401652543 5.8475898116488665 5.853156713163733 5.750949343775379 5.554065627786268 5.256476412710913 5.07248460447514 5.046573384386735 5.085639493743127 5.157535877823 5.182416232980817 5.171007992467736 5.164222243197097 5.17590231258285 5.2606960127848845 5.430089521066087 5.652361321739306 5.88277931722785 5.9330610259479215 5.903875124833454 5.824405404874749 5.773750437287052 5.720664257151972 5.670151978434879 5.629854807372038 5.62695616885638 5.6517531133600105 5.7045468912855535 5.8727985711445045 6.359402786791166 6.865355231653683 7.098352024217746 7.028630829100741 7.008275715593571 7.045006658015298 7.053682512555277 6.989056542507581 6.395238773851776 5.757996194700901 5.432740302824281 5.072211214900319 4.413681354951309 4.191782842966398 4.105933195580989 3.986069027060936 3.926538110050839 3.7729503797453536 3.316427922682236 3.0028466276545003 2.9377975491965604 2.9240107499814973 2.6993835924411274 2.4180794594904444 2.186941307124954 2.0271635047968024 1.9715510205484053 1.9814487056559373 1.99714099042475 1.9735750205092477 1.9446665130886258 1.922677392360799 1.8164906443031759 1.6164870458171035 1.4066950955992161 1.272278633976736 1.1552573942353228 1.0333106229492954 0.925261973330836 0.8856256590144711 0.8979144405861943 0.928390674458619 0.9254209788472576 0.8897001566851497 0.7988368455566341 0.6678817128861994 0.7162658077831219 1.0881696279503594 1.2904750003323513 1.2199140435084188 1.0477295965828037 0.9139711100254744 0.8549492030721115 0.8885388842087039 0.9375711765493364 0.9889224633093785 1.0332118675272508 0.9862354322873634 0.3694043669076114 0.28844297008368247 0.3136346678147554 0.48325849000577953 0.317582291696779 -9999.0 0.006846526161879987 1.0629310991221472 1.8905065854183711 2.1776816783987467 2.1771221560318175 2.1479398477901053 2.0509011057532 1.8196806978641775 0.9906579661743486 0.8931172629854165 0.8792874624713525 0.7811665430479968 0.5988330177591195 0.4838684906328477 0.4125827919451981 0.26765311480218157 0.24242320810162288 0.272390400995717 0.3879378065125488 0.45346422319625496 0.4550208007307655 -9999.0 -9999.0 -9999.0 -9999.0 -9999.0 -9999.0 -9999.0 -9999.0 -9999.0 -9999.0 -9999.0 -9999.0 -9999.0 -9999.0 -9999.0 -9999.0 -9999.0 -9999.0 -9999.0 -9999.0 -9999.0 -9999.0 -9999.0 -9999.0 -9999.0 -9999.0 -9999.0 -9999.0 -9999.0 -9999.0 -9999.0 -9999.0
6.111705950478857 6.046295414616187 6.02024303804633 6.003196980738529 5.995849708364544 5.99561062319 5.977445179594145 5.916851973061306 5.721338126853553 5.441106378546042 5.1974757328550645 5.135436950148926 5.2028617231106065 5.306121276940468 5.373639675934374 5.353181388385821 5.36187026024358 5.404088786607944 5.477902465712644 5.584486080901445 5.707904560994216 5.808333130495228 5.914672036912613 5.939059847723071 5.937822181304222 5.930355764946788 5.882738230145076 5.835526237318264 5.809587963151445 5.841929650396783 5.893389478439712 5.936698503483987 6.149613292803089 6.573943081886542 7.137586121760354 7.3038489509803375 7.21555442198182 7.111911297613162 7.058832663545623 7.023782920543544 6.954852170637688 6.397324179297044 5.791631335594453 5.509377006691742 5.134145805507401 4.690245450092457 4.403121132507122 4.24677423475582 4.089137449882056 3.945636914942304 3.778544358208053 3.4655161689162406 3.1779916687088874 3.0009806816493243 2.9109611670630264 2.6846592562740317 2.4504470314939812 2.253908751532798 2.09032947299452 2.0213906454758708 2.035225507056513 2.105958797549773 2.091166362543238 2.0269740930321802 1.976864172145768 1.9315728497297766 1.7955898297068307 1.5985462635960344 1.4543678451163788 1.3170004673714428 1.1744873306267023 1.0229922314051263 0.9021468231123093 0.8853217787575514 0.9240007646800308 0.9312481086791022 0.9412057031593135 0.9499903293319831 0.8600160981185381 1.004815478775475 1.5444538584883902 1.4447837961986834 1.2719378749476213 1.0874677887590283 0.9835015558759699 0.9299658385283645 0.9246916187463408 0.93021678560063 0.9369361139475023 0.9277389360963324 0.9153426661334119 0.8890702818905853 0.2921377849792088 0.2944601623421818 0.36705719501935197 0.268189642122302 0.0191096339225134 -0.0498230317037691 0.3999949151624846 1.7963691131780024 2.293655043777317 2.259690731263041 2.1985708823573273 2.1884823915715024 1.831756534010333 1.5420395630720987 0.8658664439987387 0.8347891172852693 0.7926633844022777 0.6504629626452847 0.6236467309247742 0.5754547957041476 0.46800716821126437 0.3710162409544507 0.2586636549295439 0.2806923130311244 0.4022922120990955 0.4786244682597262 0.458578560004632 -9999.0 -9999.0 -9999.0 -9999.0 -9999.0 -9999.0 -9999.0 -9999.0 -9999.0 -9999.0 -9999.0 -9999.0 -9999.0 -9999.0 -9999.0 -9999.0 -9999.0 -9999.0 -9999.0 -9999.0 -9999.0 -9999.0 -9999.0 -9999.0 -9999.0 -9999.0 -9999.0 -9999.0 -9999.0 -9999.0 -9999.0
6.232540457896876 6.082564846810253 6.040538041283792 6.042031658173161 6.07114953238409 6.099243043841824 6.093156277159853 6.038284988735828 5.884255947819867 5.606433349635593 5.356837164410072 5.26162785244424 5.312883152853864 5.396037310843102 5.429130687821512 5.4608622974682355 5.524576081551448 5.611483544551306 5.683719718784385 5.744701851469914 5.7739381217992225 5.782327714201249 5.8079935201369235 5.917979169532413 5.9505222681880205 5.988266046945802 6.06580751565702 6.073715809098351 6.10848224144976 6.2281496290640455 6.3823963946465785 6.333694027175673 6.366668864106885 6.615697905771392 7.108894186662128 7.287129607730003 7.26130939116177 7.159582690956892 7.057033838696911 6.9497035950121715 6.930696507422329 6.559569525406022 5.937905188856356 5.53593962393748 5.0307661526749 4.802673871321918 4.52426187947166 4.291952288691187 4.085735400540622 3.934561351640451 3.712123976525801 3.4792656068652925 3.2624403992347606 3.068202950893469 2.873343706231718 2.6319532063761946 2.4397232671883615 2.267237762947145 2.125606316097842 2.0718457414412907 2.114858742243703 2.2263284513131243 2.179451668461756 2.073609600970165 2.014495050788185 1.9531981051769216 1.865664073215669 1.6657931562959583 1.5924867701335137 1.5040017378265116 1.3504509779811704 1.1559628744916264 0.9592786314106989 0.8978105851319875 0.9420699376706183 1.0095673601438795 1.1178848711268352 1.2421065959569153 1.3964355361479701 1.8556040706021688 1.7391525523534224 1.205490522897793 1.0162800652968371 0.948320011781538 0.9273646043846429 0.9204810381671267 0.9106465051995363 0.8840172210054524 0.8739096225275071 0.8684192031177655 0.8728144656276209 0.8861091712064655 0.6122526506068007 0.3128973651663777 0.3250628457526494 0.3267033052962701 0.21465051245104688 0.07107097258900599 0.2207108559986521 0.47448517720407485 1.922893464545015 2.295803720718491 2.435072833011658 2.4244284659678663 2.0516215124743185 1.6612736293072676 0.924171278673342 0.8801999850663775 0.9589716461044464 0.9323321590605769 0.8591849390650859 0.7786487183354205 0.6607466333911973 0.5346398453858121 0.3149854070046152 0.27805297819106717 0.4033980317596408 0.4338399161074717 0.5041488215954033 0.37993671808611457 -9999.0 -9999.0 -9999.0 -9999.0 -9999.0 -9999.0 -9999.0 -9999.0 -9999.0 -9999.0 -9999.0 -9999.0 -9999.0 -9999.0 -9999.0 -9999.0 -9999.0 -9999.0 -9999.0 -9999.0 -9999.0 -9999.0 -9999.0 -9999.0 -9999.0 -9999.0 -9999.0 -9999.0 -9999.0 -9999.0
6.361016250158765 6.14288370545568 6.064649568839223 6.096121214258433 6.158295041694981 6.209352053963576 6.221428815472706 6.208523284945726 6.106460443159004 5.869780438160677 5.6402544981885185 5.583119038743183 5.5504030952523875 5.494029200263041 5.500699891053256 5.543156524622396 5.649150482281842 5.757048999969311 5.873949009947191 5.969078452919044 5.932547341231472 5.79945418431358 5.731028345518894 5.815956970120064 6.012239262571192 6.3533896583218015 6.369879355677396 6.154798750509906 6.151267245525396 6.396758564425009 6.605833856133675 6.5756898303704405 6.47820015212208 6.689423228312144 7.073074968244954 7.242838181354999 7.234360684563661 7.119904375111607 6.993040006816987 6.932194927197862 6.841683249111593 6.5221428535703785 6.101781886881723 5.565295929381567 4.998939565506015 4.8391269097470895 4.467381485718432 4.20145707764499 4.010054949921438 3.8744728503225616 3.6178364512924204 3.4039474648293924 3.211543667017496 3.0319076138280003 2.8385449987956437 2.623834468073522 2.458398732668497 2.2906013741679634 2.1536065185153586 2.116612338895079 2.151565611964696 2.2159550050050547 2.1782810543090037 2.069007666816412 2.011882385514195 1.9606821778119998 1.8785303347323943 1.6936169384044657 1.6393648306539519 1.6364653118642862 1.5270033730168218 1.2947214507404226 1.0659757326168708 0.9855184926063243 1.0786330753435878 1.1882189292915308 1.3469774979018951 1.5325791159680249 1.778207116917401 1.890196967279181 1.1537175526605101 0.8056149487587236 0.7970588329506361 0.8135148520925088 0.8483370712594229 0.8649545141781985 0.8500234065453469 0.8229820684863991 0.812905079021675 0.8229847932275272 0.8357380507414511 0.857256534395876 0.8725907219808477 0.3609028846986226 0.3290659293584271 0.3805913195436144 0.579148066203856 0.319939653818206 0.199723795105945 0.2625610391838137 1.2550906985737322 1.9509200375679592 2.3291745492066727 2.4023930099631796 2.2379665923085104 1.919021978878224 1.51017521839448 0.9748572478152668 0.9618666955377615 0.9047077655967963 0.8825573388448604 0.8355123548844943 0.7106522787167882 0.6568141639661744 0.5369640211269269 0.4337802780077366 0.43623757260116464 0.3895794255159988 0.414987210915503 0.5131077531021162 0.3351219514840147 -9999.0 -9999.0 -9999.0 -9999.0 -9999.0 -9999.0 -9999.0 -9999.0 -9999.0 -9999.0 -9999.0 -9999.0 -9999.0 -9999.0 -9999.0 -9999.0 -9999.0 -9999.0 -9999.0 -9999.0 -9999.0 -9999.0 -9999.0 -9999.0 -9999.0 -9999.0 -9999.0 -9999.0 -9999.0
6.554093495233381 6.342258097784191 6.263142918679211 6.305178540044498 6.368704003055121 6.413434320479775 6.418868514403996 6.4119159992773 6.3613412135683545 6.221199775205479 6.060515575071301 5.955738834910461 5.859760412790248 5.723481274508674 5.6318913088422455 5.6689982451776935 5.767909290123138 5.877111215125825 6.022618188138464 6.129428510629484 6.155195615928293 5.970209437197812 5.83335132023533 6.106525484669482 6.635905344095247 6.907067037079024 6.827384865679603 6.252289923641088 6.108046978204943 6.286012043207606 6.5976909262435965 6.656236829695868 6.709328947293326 6.952760530115068 7.171853916577435 7.246605152847195 7.199197936275573 7.047082699836147 6.938233437012255 6.847180201890749 6.677648328948146 6.428117793965279 6.171059993807856 5.787459781267689 5.062335057347057 4.826538545415383 4.414858128285738 4.116982158630583 3.9373051443757494 3.778273466140217 3.5327261943258437 3.304988342597683 3.127980549904321 2.98413831272737 2.863787556214289 2.721645079507304 2.5519197552962027 2.3485403416812782 2.1871968940667643 2.145988684212272 2.1705057128990677 2.1769953638395765 2.1477118387148413 2.061179481320203 1.9946171832888042 1.943972762425717 1.9077905755823235 1.7951531485671959 1.728838663191262 1.7083346944550142 1.6472604092381828 1.4199620993791642 1.1948662621197792 1.1801079700475692 1.3164451111648188 1.4051446949231927 1.549620656938823 1.7424569891436412 1.878863605115639 1.6478683670424379 1.0191572951580155 0.8528689041577835 0.8098796165821764 0.8143995201648133 0.8269711295424906 0.8401774395987149 0.8383353316027209 0.8107460075887036 0.7975839545305319 0.8005234060216708 0.8174388832365107 0.8304897123755377 0.8537950562245658 0.8672629431107604 0.390001968436757 0.39332660655116397 0.4621278908364042 0.3650870575327465 0.3033295321016813 0.1312495804443607 0.12308502293044668 0.62154446675952 1.8923197747153608 2.1636396774548126 2.233143372172509 2.003612810818313 1.6665115852647212 1.0635781171321448 0.893086573664494 0.8115656682936543 0.8270965790798708 0.9007451547545358 0.8601085948889187 0.8342147660911932 0.615570563008456 0.5094958421635876 0.5987322045895078 0.5135197310315087 0.3757700178487148 0.4746957870637534 0.5087738735833158 0.17340458826810629 -9999.0 -9999.0 -9999.0 -9999.0 -9999.0 -9999.0 -9999.0 -9999.0 -9999.0 -9999.0 -9999.0 -9999.0 -9999.0 -9999.0 -9999.0 -9999.0 -9999.0 -9999.0 -9999.0 -9999.0 -9999.0 -9999.0 -9999.0 -9999.0 -9999.0 -9999.0 -9999.0 -9999.0
6.7616444382537235 6.618450194363846 6.582938943485913 6.636580260015494 6.672900086678188 6.675214309288453 6.679235079923836 6.682198011726613 6.664113998856965 6.585523599792018 6.399363248616775 6.17034529066432 5.975095854696064 5.889851976055612 5.83351763064354 5.865682060522955 5.926232211673173 6.038788091881719 6.177297275858354 6.280461360940164 6.328285072383213 6.265838728907935 6.410667142026698 6.801196710065804 6.9548975107084265 6.942064011487355 6.927525147830925 6.803545942146545 6.1341932379599164 6.220268457186602 6.552465337950653 6.76335269235624 6.964506333818596 7.14939352953909 7.273762359581633 7.288502621269447 7.161771159502393 6.987330886750254 6.839619068031581 6.684155331541231 6.540051239861878 6.354357884249403 6.170673029576773 5.874560992762016 5.145580954513318 4.770810270284105 4.437803848710368 4.085110565375916 3.8837902924291376 3.675421282758157 3.4318030430693085 3.224674430362398 3.054113086789648 2.948371926636102 2.9314084663680524 2.892981281429487 2.7451952320866417 2.5160442931599913 2.2899674590523094 2.212494326502117 2.1887168792423615 2.174332949272362 2.138087520157436 2.0645857248786146 1.987585815443168 1.9432473658695268 1.9291221692887652 1.8893710888454944 1.833858723578752 1.7993354603293912 1.735122457229237 1.5479065390199367 1.3142707446661388 1.342547834179521 1.4665108544191863 1.5898389800058574 1.734835047977722 1.89341706988904 1.8920550942853724 1.4151699809717277 1.1259939398918348 1.007146320403419 0.9068555321961433 0.83420171155363 0.825312365677886 0.8332588687834486 0.8357318213580225 0.8133070292688809 0.7846192054103653 0.7855803186773302 0.8117137523793585 0.82557613550662 0.8372032481917235 0.8758246500198543 0.8899876926541923 0.43494853491879054 0.45890414857870193 0.8186899993185086 0.3147275703817017 0.11262747378332469 0.10379666060491119 0.25315289914644257 0.9680371328188841 1.834298889119884 2.0378956335541534 1.7197118306502854 1.5063822309520492 1.2864435027793995 0.912468000410863 0.8261767790611096 0.8256252016357624 0.8197852606104654 0.8363006537520128 0.845780245530162 0.7025846311817412 0.5612769348361952 0.5829510961178705 0.4387504887932889 0.3316785464373462 0.45408682758467694 0.5152638728559344 0.5126582292189481 0.1924011869249247 -9999.0 -9999.0 -9999.0 -9999.0 -9999.0 -9999.0 -9999.0 -9999.0 -9999.0 -9999.0 -9999.0 -9999.0 -9999.0 -9999.0 -9999.0 -9999.0 -9999.0 -9999.0 -9999.0 -9999.0 -9999.0 -9999.0 -9999.0 -9999.0 -9999.0 -9999.0 -9999.0
6.910851761486885 6.820145709645169 6.80575572726776 6.848276195501864 6.853793524694531 6.846594778936921 6.87012127298799 6.9128960958775405 6.942945442157908 6.880955878611902 6.671712663082072 6.404884317980435 6.167261626642449 6.048457916485981 6.048606751656343 6.155949625591262 6.323947423107542 6.386884221279789 6.374552350810186 6.426655863708519 6.495756599416373 6.542195002141272 6.664000052475406 6.8561663302990645 6.927884784814207 6.926602888777742 6.962714948212563 7.0467372929782055 6.745318633144715 6.503555029832719 6.752562235329917 6.963693859396896 7.153637735706554 7.219594753565168 7.252314121387345 7.246305041725727 7.058172161718124 6.8831196910881385 6.6783047530923065 6.539280058219464 6.385540756241277 6.231571241161749 6.0594096148700585 5.70165498555579 5.086254379947559 4.710430706054382 4.418292518419685 4.110626457785042 3.8616660203180024 3.5806267408743055 3.327996876822287 3.1778015598490104 3.015144635024225 2.949796693731285 2.946361320276983 2.953013487258575 2.919695683477426 2.716776961018717 2.49261066457428 2.3462269223209233 2.24745565914722 2.1822882440730873 2.134700821697581 2.0790306920541783 2.019410215724401 1.9697584456489177 1.9419234960563905 1.9293209052153149 1.888841785015472 1.8374618426861684 1.8104799499508484 1.652223830011526 1.4198860072123047 1.435730196247385 1.591023293325132 1.7350069346037162 1.865148070918919 1.9241822972297928 1.8408636791272852 1.5243387214357678 1.2675887352680444 1.1183522599355111 0.9637002400047379 0.8309171915486775 0.798190579937428 0.8156920883226753 0.8318729610948694 0.8103271042971265 0.7676429477623039 0.7714785802955744 0.8144555718727979 0.8284781811516968 0.8425806043385764 0.9149617965294821 0.9465565830541627 0.9156714169587383 0.850327694450649 0.9972643568029884 0.2227947524358434 0.1856935284627323 0.2634322619915809 0.4129033160025834 0.5856477079005933 1.6509978257575273 1.732498812872699 1.5931584932649814 1.5156487958629365 1.3873327589582676 0.984590446517319 0.9059462189462615 0.8650415115456866 0.8068172866703232 0.8245133071250437 0.8660089938506863 0.7662148154266071 0.7588886578438343 0.5755183800235824 0.40781274489512137 0.3515067395845951 0.3750241066720324 0.46024434267386777 0.5447932278055647 0.5576711346127494 0.3041462647136732 -9999.0 -9999.0 -9999.0 -9999.0 -9999.0 -9999.0 -9999.0 -9999.0 -9999.0 -9999.0 -9999.0 -9999.0 -9999.0 -9999.0 -9999.0 -9999.0 -9999.0 -9999.0 -9999.0 -9999.0 -9999.0 -9999.0 -9999.0 -9999.0 -9999.0 -9999.0
6.954932109916772 6.929517134381083 6.907647323634801 6.8898930968094385 6.885626413697643 6.9006772558317815 6.934622760621792 6.980549935475784 7.055987740137894 7.032900295923711 6.871454272038866 6.629162844824376 6.386282992772335 6.3182129532925515 6.404297829331109 6.537744600090596 6.583346619809381 6.572634142608409 6.512868079204748 6.505710779649741 6.562660611187914 6.660149408407667 6.773641246900454 6.871375915043786 6.92823147005216 7.171208896676685 7.346898413152335 7.423395336958143 7.300379750613121 6.985261915104882 7.047526365346484 7.242077419939752 7.236363573671724 7.206364246142335 7.111393308677647 7.021082773621258 6.92659333617171 6.742375744597336 6.508861989630986 6.324198880357936 6.190641813283069 6.053927174991115 5.827358279221511 5.4179836963908325 4.977856058525741 4.607703477429901 4.285731021983565 4.052182485934437 3.8357331741410023 3.5034324801885397 3.297202775281887 3.2023947493120763 3.054578994521958 2.9764626138099026 2.9878304881529227 3.028432444459266 2.947162013340303 2.8406634093310603 2.69396875852811 2.4939210165647725 2.3218527709791505 2.1943348590962732 2.1458033197284565 2.1112536269502375 2.0624922838334716 2.02751551989785 2.010196200862573 1.9668171314519365 1.9249819152686496 1.8402188060530016 1.7914138383340075 1.6499048171838024 1.5208086916805488 1.5540344682311222 1.7064050226824363 1.8395857332441719 1.9269175259979436 1.9228711405697407 1.7830612812660411 1.54435659824364 1.3066752391087944 1.1329986444198623 0.9512022293397366 0.7861686558396528 0.7247425487500665 0.7482532347478479 0.8044891808301748 0.7814232272598984 0.7517362849771987 0.7632912185190224 0.8218161047429182 0.8418889077592688 0.8760292623611796 0.9281444953649303 0.9405653827078388 0.9002825968505046 0.8042064885525328 0.7449892333232513 0.2842954272971856 0.2686326448784353 0.37113208970854417 0.6286686719069048 0.6131846738684603 0.7751010275790324 1.5798038917071697 1.5499915491978173 1.5382102222048337 1.6618571401517217 1.3557337572544124 0.9525662226574034 0.9420256405270324 0.9562799214823796 0.996816900924552 0.9328573795329926 0.8679311749836791 0.7958162563261792 0.7318622022837402 0.5326203582682321 0.4528668572232341 0.3387108174716748 0.3415217222315667 0.4896161676155592 0.6067778205146701 0.5777772984077452 0.3220424055679118 -9999.0 -9999.0 -9999.0 -9999.0 -9999.0 -9999.0 -9999.0 -9999.0 -9999.0 -9999.0 -9999.0 -9999.0 -9999.0 -9999.0 -9999.0 -9999.0 -9999.0 -9999.0 -9999.0 -9999.0 -9999.0 -9999.0 -9999.0 -9999.0 -9999.0
7.103933566373923 7.090409095086866 7.073145299013401 6.991971062317712 6.939248108831788 6.9543462787228485 6.996034970484116 7.048348129264859 7.1630708385318185 7.163705041473968 6.953409059297308 6.858315910327313 6.655054363489682 6.60773082324305 6.755355195946224 6.8731898889172465 6.9071921227169515 6.842217819570477 6.6996216645731685 6.6188228942536185 6.699024801049231 6.813408779806434 6.90053114181967 7.014775554858826 7.290798020936271 7.59497796377272 7.808565855416969 7.8405059274105575 7.709336598139081 7.551464357137915 7.604063119353844 7.547894884964482 7.325982607159675 7.067436711256505 6.949225186113621 6.949978041434503 6.903536341850805 6.616443022401217 6.302421276060625 6.109316234450913 5.997208686305992 5.83030966101375 5.466554400497882 5.124647559398484 4.867574574425893 4.430645189859474 4.098380444700625 3.930040250211459 3.7275336141452993 3.452747389960937 3.320900487061017 3.25702776761525 3.130250802776792 2.988726533615564 2.9729585873268767 2.9848637618295206 2.915904890011793 2.895358237533561 2.8436478815750985 2.6806052311143236 2.394629407863691 2.2267180485191624 2.1767191389881924 2.156070541107003 2.1352839533139965 2.123838906302491 2.069605047081953 1.9880713763938405 1.9357815499573958 1.865173593374804 1.73539117040793 1.6548163311147752 1.6140731621019955 1.713671763039464 1.8372764960357624 1.9226565723426527 1.9261109317650384 1.8796415459232128 1.734069124284877 1.521236024243066 1.2780767063578002 1.1226517344846532 0.9515894495215484 0.7403615390989868 0.6262889213666132 0.6508866123274073 0.7302969096727119 0.7520213729855001 0.7559955439112467 0.7917422925605473 0.8480043940643971 0.8825308489761836 0.9139661539682464 0.9369155048093882 0.9576491905744657 0.8945671018039691 0.7641018069878953 0.7025647937009993 0.6035928740592105 0.3537059819882698 0.3703183273126623 0.45712349005322556 0.3382014507006923 0.4226771641861526 1.4223464134490973 1.5889477601176807 1.5383502926611314 1.7033895539334147 1.6948914981212562 1.071163320887644 0.9495682049322534 1.059012500463986 1.062683720946444 0.9439873217664618 0.860322354445554 0.7405669805051791 0.7124536313276466 0.7756728612521657 0.5741355963430639 0.3666730624896307 0.2820413421959947 0.3824585127434198 0.6052395848684664 0.6499020795785757 0.5737140122221214 0.37360274259473747 -9999.0 -9999.0 -9999.0 -9999.0 -9999.0 -9999.0 -9999.0 -9999.0 -9999.0 -9999.0 -9999.0 -9999.0 -9999.0 -9999.0 -9999.0 -9999.0 -9999.0 -9999.0 -9999.0 -9999.0 -9999.0 -9999.0 -9999.0 -9999.0
7.306339650883314 7.306795297823635 7.300912188661066 7.22336414713955 7.107857969895076 7.070126565375517 7.084426878468541 7.143004235747746 7.361256642058088 7.515329995116261 7.273674570482732 7.109981396903349 6.9654796028645585 6.918326194209616 6.909380363693787 6.9068558791533805 6.942881384738657 7.015673545091413 6.952148898277073 6.891252269646744 6.928926345279116 7.021504473851829 7.180537401749678 7.414817444310717 7.722909273243474 8.022244326196967 8.078751336852601 8.039535882406813 8.01666343967177 7.937611075069585 7.881366075469194 7.705931251067097 7.221796923403562 6.919473341561663 6.914388095980316 6.93789469161532 6.867995886243013 6.569391125960506 6.216701953604945 6.005817262768625 5.88543304280222 5.574332202961788 5.203700862815298 4.982408761740947 4.75076179060963 4.294167396989073 3.9808126237476356 3.901000754838915 3.671618361457133 3.438619377734634 3.3379119618803545 3.282680445340331 3.174169433774352 3.003411319988685 2.9459561940047467 2.9299672715230427 2.954540193888549 3.003523859099425 2.947673494889612 2.825898258510416 2.538002120818698 2.3122321570121867 2.2413381926610163 2.230443931948178 2.249170685515083 2.204709287364985 2.1137258107738837 1.984346781865195 1.9410190453512228 1.916773673114448 1.8008556626408727 1.7289125883894485 1.784109640079188 1.867816089989328 1.9264561219880727 1.9277061959420516 1.8977154808554744 1.8150567505133688 1.677996362693444 1.5103528830515984 1.2998421203710875 1.1166321035774613 0.9365309764178595 0.750737241109966 0.5694816637039184 0.6053131885560237 0.7011789887865068 0.750989440734319 0.7906457198214933 0.849578707453922 0.90290302740251 0.9273168147069242 0.9395496456501118 1.0050189194499874 1.061726566183478 0.9639189211327059 0.7233351554224585 0.5861748248551322 0.5420285442005539 0.3071526334880732 0.23282415847875038 0.3193533158286629 0.235571456427484 0.6227343249885238 1.362788045095733 1.6460727469736134 1.6366079314937783 1.6461795217982034 1.7280848229825447 1.191044916540199 0.8566649335983376 0.9978228888992509 0.9729662631469609 0.867590281538065 0.839067952923773 0.7608294440070289 0.783134223934427 0.8690986487060299 0.7723574814148229 0.5781996357917547 0.4377326120930613 0.46580582045872704 0.5260199997324588 0.6275649921841329 0.7362406696755812 0.6967048635008097 0.4113549996603414 -9999.0 -9999.0 -9999.0 -9999.0 -9999.0 -9999.0 -9999.0 -9999.0 -9999.0 -9999.0 -9999.0 -9999.0 -9999.0 -9999.0 -9999.0 -9999.0 -9999.0 -9999.0 -9999.0 -9999.0 -9999.0 -9999.0 -9999.0
7.56985108261312 7.535341938888122 7.462854068172695 7.376138978179115 7.286670942222868 7.224888531559553 7.200638289131331 7.271270246424102 7.565647033232077 7.801877901876333 7.673638517843317 7.4255113769800385 7.180498815932028 6.995609092485161 6.913736097712809 6.843335484004932 6.944359221888708 7.228389185972723 7.342449930858415 7.258968025892406 7.326017725641714 7.548060708440086 7.61383120974725 7.782907615392785 8.04171109034988 8.197960245198896 8.183390317752266 8.120740411215312 8.06783689091279 7.969744002904546 7.8019696629019055 7.360242150640821 6.950632946337757 6.856820289783514 6.856478437217929 6.856579465017236 6.703322668788937 6.433059011276869 6.162975149638999 5.934853220109082 5.6515164802351725 5.343103479599243 5.139275485416542 4.952098061336765 4.681966264641686 4.302029697876281 4.001783418929006 3.918678880059112 3.7024191909800823 3.465231081745114 3.349935344529073 3.277419670064957 3.173809520559455 3.082787553863105 3.03603526807889 3.0617558451634683 3.080899035828355 3.053568043554907 2.9894503471000626 2.9152432111045226 2.68906183632939 2.478784500551724 2.373379559063015 2.365697961779824 2.3198223117100905 2.2227549871243744 2.1081697638604346 2.0290857949344683 1.968820580310125 1.9442484157606883 1.91945777369199 1.9131559088440515 1.918118024770956 1.9296171131756303 1.9303554515131 1.8951011161971079 1.812067672319517 1.710582821123788 1.5841218668088202 1.4410844422525704 1.2544635224752416 1.1111468298585645 0.9805303858020151 0.9104718493161723 0.6886451031039376 0.6902269324924406 0.7538837907171694 0.8131091423148584 0.8723764415871982 0.9230736316828625 0.9436304068401142 0.963941418977698 1.0203789576113473 1.0974936911155193 1.1166722921739731 0.9929653743295714 0.6495936653410856 0.508570595781416 0.462282659234634 0.4050557608592687 0.21047176391764671 0.3464825848525533 0.5134357097592472 0.9895992730518863 1.2814636206639953 1.5281130569788612 1.5671739645892329 1.5795335466315206 1.6716804574634843 1.559320410168919 1.0502501082855575 1.056217177439948 0.9543335675501126 0.810017470353307 0.8082061869363273 0.796636340550068 0.8126625373229601 0.9134049597796905 0.8613476263344568 0.664142070239369 0.6046295727955326 0.516689566932236 0.48160441137329874 0.5099321486297494 0.78630579037938 0.7969934453293996 0.7750779019038616 0.1914315540599219 -9999.0 -9999.0 -9999.0 -9999.0 -9999.0 -9999.0 -9999.0 -9999.0 -9999.0 -9999.0 -9999.0 -9999.0 -9999.0 -9999.0 -9999.0 -9999.0 -9999.0 -9999.0 -9999.0 -9999.0 -9999.0 -9999.0
7.906370410837647 7.782916314533738 7.648159172368706 7.566674450703651 7.551006468500348 7.516416765962871 7.393952419139595 7.408783935017898 7.5934577097060005 7.9422143849867695 7.929655178524231 7.712224945950795 7.426643451432391 7.137608385201705 6.996961007178933 6.895557565733084 7.120878159258941 7.395148528695626 7.513592574121682 7.531634985944879 7.696614628742106 7.849939207629665 7.948381334765807 8.104014770860871 8.223795473016212 8.22450076035812 8.189432648205907 8.121598708770156 7.992043638714426 7.795676686144183 7.41662958946868 7.013297189072456 6.8558941008669425 6.808617650738725 6.828218028162949 6.798107839363137 6.531560370243833 6.240635028952976 6.000278850688995 5.745945178568418 5.32222734908432 5.167181254523594 5.097466446333048 4.906472416520202 4.634638090215534 4.28145774245333 4.001202485385367 3.9250254354843253 3.710801465146276 3.5051391301065307 3.361715808894041 3.260067933535144 3.1662575718846453 3.1286290176052653 3.1401114662728826 3.198521081618603 3.1618105506095033 3.090043120539736 2.9996185636310346 2.931533453945161 2.7785882018651127 2.6193335994778884 2.533043486389511 2.4747256859492137 2.370010940555326 2.1876337703289495 2.116842200202412 2.07190128794824 2.0131234417628363 1.9750603552795913 1.957204075309199 1.93981878023599 1.9303251894406908 1.9303644209213264 1.913557841128567 1.7993515901714887 1.6852147170512788 1.6004076692586053 1.475770652991488 1.3319519829344124 1.2595453239041914 1.188918200422177 1.1016166673693597 1.0263568373921017 0.8807444841179313 0.8415816559950089 0.8700969366983629 0.9209889026878346 0.9507781329948037 0.9996322762516867 1.0447209365009915 1.0805098241498776 1.1220913750983075 1.1522797150951924 1.134901917132883 0.9434277761344565 0.6576993310391277 0.5908938198983751 0.596029435557216 0.6633055644793826 0.3892116423462011 0.2276492718237237 0.4027183598784515 0.4938075332687078 0.247211108062247 0.09169661738833979 1.1084651456825316 1.5429360659070572 1.7184821446052179 1.6883581300285708 1.225194698957098 0.9777737388656151 0.8808304469546413 0.7842269211769808 0.8268910557140305 0.8796834424038609 0.8486430966315199 0.8743946457008809 0.8694213889398967 0.7248811391805907 0.639492395570965 0.5624232374499518 0.48201736161751013 0.4587780697339517 0.8032937705191507 0.8493794882917611 0.8914893416133007 0.8002267374991197 -9999.0 -9999.0 -9999.0 -9999.0 -9999.0 -9999.0 -9999.0 -9999.0 -9999.0 -9999.0 -9999.0 -9999.0 -9999.0 -9999.0 -9999.0 -9999.0 -9999.0 -9999.0 -9999.0 -9999.0 -9999.0 -9999.0
7.988958296291491 7.9373103380472205 7.837266931293815 7.795969646158593 7.842141675814686 7.870319311378485 7.775637719325443 7.551937499510199 7.643713665927662 7.938840794785007 8.00335605183861 7.932042649201286 7.675920502810108 7.350282893772885 7.258128480219551 7.373517750644688 7.460688750646894 7.57435545559871 7.626549687470028 7.689274815612245 7.804878605106493 7.917812145298249 8.130152123980025 8.336290038586453 8.274238748133541 8.20190478882944 8.09933219451944 7.975225738311954 7.809188621869639 7.488769266491509 7.133098918836475 6.931452909519107 6.816675049976309 6.77473073634245 6.800071509600384 6.790937822816712 6.413807119240758 6.071715547018838 5.863729930928341 5.549281122605324 5.175378862932709 5.0762595002990425 4.957388896531837 4.782245537579215 4.560533614967796 4.2160812545549184 3.9631350119381934 3.914942404398729 3.712425672294977 3.550651702099918 3.3793929739169783 3.2312958608770463 3.1362923655374053 3.1267299394510184 3.1588052524386994 3.1973185065761287 3.173638823659183 3.1030764629111482 3.012357283101957 2.939819642625454 2.853547723485864 2.7364897386362528 2.673467543879649 2.61094334529993 2.4437803187742713 2.214937655633045 2.1234293856494584 2.0905813338773203 2.042242977202468 2.0040095380450618 1.9737823420619993 1.9476477785807311 1.9319239716164944 1.9305073874811736 1.8457784426126531 1.7420407504170503 1.68597257022123 1.5933687473990314 1.4655941890523356 1.3673167287170975 1.345133098803736 1.329505922239514 1.2616644969299842 1.1880067643188241 0.9818134080631646 0.9146883610260506 0.9515780037408101 1.001853559011117 1.058183675377883 1.115643016100069 1.161260907457892 1.1949578659415407 1.213169388648092 1.222663052332201 1.1943124605872288 0.9990439798765649 0.692776370886421 0.7144676972731427 0.8875777391527957 0.8664495970748269 0.8211020638994322 0.19294088175365598 0.13811208157206678 0.1465302061218323 -0.015002997673318606 -9999.0 0.3930764126307248 1.0047660404462244 1.8836391558211119 1.8327779040266918 1.1935146509239616 0.8019866180531905 0.5688690153718647 0.6540036902053845 0.8741105484152965 0.9694504315933274 0.9153702689394361 0.8752059629074909 0.8664528348125928 0.7710322830307013 0.6331343400324458 0.5672697653517054 0.48825633246134686 0.4564755481628054 0.48208148173464643 0.6860727573936074 0.7743546846568696 0.6835714847133403 0.2855134938673613 -9999.0 -9999.0 -9999.0 -9999.0 -9999.0 -9999.0 -9999.0 -9999.0 -9999.0 -9999.0 -9999.0 -9999.0 -9999.0 -9999.0 -9999.0 -9999.0 -9999.0 -9999.0 -9999.0 -9999.0 -9999.0
7.94814579753805 7.943792120545163 7.94839437947385 7.962875949068435 7.991388160129125 8.013923318643458 7.983984284570836 7.925120195127695 7.888209059199088 7.975774548931822 8.068335205277688 8.039963113824921 7.86618121919347 7.575610345525146 7.521729908249066 7.644688194507468 7.711954766380163 7.737378009855183 7.834574551985721 7.84554973529406 7.896517967526913 8.034317486187522 8.343174790138862 8.572327508955471 8.405119636371957 8.075522013230806 7.936405848773756 7.783083037187598 7.495066293689138 7.206712078686113 6.999113924390823 6.8710959933300995 6.716788589933113 6.6141630846394985 6.598320198660849 6.583599296770856 6.139849961086814 5.889063536174913 5.692941829751422 5.412904117278762 5.12031080617305 4.980379284966713 4.8422521902539835 4.718250743337051 4.536928814339274 4.2085745015026355 3.96663472492007 3.9222183710790417 3.817016041074792 3.639951397261202 3.42578021372934 3.199189079360088 3.088226192980564 3.0869689271177587 3.132750538936052 3.1565244463774236 3.142957038560849 3.119276226819784 3.0455612713458002 2.9746797654052104 2.9185905078255323 2.8529866560868347 2.800830541157789 2.737254648450624 2.564629455365146 2.2660096344909815 2.114809933426109 2.068983988234732 2.0542835737125813 2.0306435786631245 2.000767073450206 1.9727320975049067 1.9505887490022948 1.945396881441216 1.8750594005693328 1.7902559594824234 1.770990552581887 1.7219941429564602 1.588683579341404 1.5101858162727 1.5111801606024426 1.478874063141274 1.4040685558085946 1.3130636005730312 1.1847409594214717 1.0584455232287493 1.0957223716750195 1.1505246151745203 1.2123272238701734 1.2590347958062404 1.2862391898735683 1.28738779108262 1.2512027715184648 1.2360441875455843 1.1945669593137815 1.0474032858785995 0.7766101894928048 0.8235085962673161 0.9305932632901845 0.8943514403604931 0.8047969048824073 0.683108761137744 0.1570291720515448 0.1466133142719605 0.12260196506945858 0.0736557262383114 0.4518756239034987 0.925829686008949 1.8687187832650822 1.9165896692852016 1.387448738158064 0.8766343931939278 0.6491323033068117 0.8025235538837994 1.0841784210266392 1.0500724636831094 0.9628522165735482 0.8598512037452013 0.8430961733740372 0.8023736841059248 0.706100928231945 0.6473971053884648 0.5612418338153566 0.47460177485176486 0.43952764702123476 0.439398232514203 0.5994461782801603 0.5809285644534949 0.5008846251224317 0.3559550982641399 -9999.0 -9999.0 -9999.0 -9999.0 -9999.0 -9999.0 -9999.0 -9999.0 -9999.0 -9999.0 -9999.0 -9999.0 -9999.0 -9999.0 -9999.0 -9999.0 -9999.0 -9999.0 -9999.0 -9999.0
7.9253250885009745 7.970222243685031 8.038917398325816 8.104466546208462 8.156042843321188 8.159954296254172 8.09381462746521 8.057183809732726 8.092504447561707 8.163012703651066 8.140320943272757 8.083064509362401 7.958423882685455 7.794250919232102 7.66912993777773 7.742614125051731 7.807923315706712 8.093822664869176 8.359986854290153 8.308080577198641 8.335660490488186 8.428240472421242 8.706332149210965 8.810742632352495 8.46265276908764 7.930136670925966 7.748813956043556 7.454557048120204 7.151857090896359 7.011267651394883 6.898336244269183 6.654214949163116 6.481301110393981 6.249518386463836 5.995337982018487 5.899719722961004 5.783772420057461 5.661042877900896 5.532670977622134 5.327363374135362 5.08182869608497 4.940600782169318 4.79763478400398 4.671798484273647 4.534994800671889 4.2458957625233635 4.015813661057537 3.938642945683003 3.925760261837659 3.795795303238426 3.516312397349825 3.2033653469328547 3.0517817917519054 3.0568473727871277 3.1025368026809517 3.1311650132429842 3.163876365622061 3.1684237670559128 3.1071289129967985 3.0446339692411812 2.989471405615958 2.936392450296236 2.8971632035759294 2.834323384711793 2.6895046748371394 2.37610661576106 2.142672720150104 2.0786981691360573 2.0708168202778645 2.0599526640645283 2.0431730824699263 2.0306206862764107 2.0135814467591606 1.9854809035881666 1.9511264653168408 1.896213577437765 1.8576902490450486 1.8151574939551487 1.7491693944362063 1.7033234530272339 1.6727572339150691 1.6182747273291735 1.5337786980267643 1.445153799053406 1.3547939945922467 1.3243777251791238 1.3113320973880735 1.3479731871539888 1.4080393461861143 1.4238516269010217 1.4085760121518247 1.3470511369038316 1.261403596184447 1.1754290326548527 1.0823559321601992 0.9641334654522644 0.8807728707936493 0.8951104724867407 0.926731674878372 0.9266778005083185 0.9948376197937301 1.1249747334295626 0.9383095571859486 0.2361301294553394 0.18368600353873538 0.1996435323570212 0.5461578773666957 0.7313115926822671 1.2469543027642538 2.067888341251519 1.8237918066075207 1.1891258217405223 0.8573218640596487 0.755135000205063 0.9268711072313283 0.9707339835766391 0.9403786250129023 0.8714839574200139 0.8347617957798166 0.7743920463436509 0.7629222375576761 0.8270844824446844 0.7101043277779062 0.5800856068303044 0.49085903359703537 0.4108195805531389 0.44898051104912434 0.5609454365429776 0.6776634840011497 0.6075241900320723 0.4267813535668988 -9999.0 -9999.0 -9999.0 -9999.0 -9999.0 -9999.0 -9999.0 -9999.0 -9999.0 -9999.0 -9999.0 -9999.0 -9999.0 -9999.0 -9999.0 -9999.0 -9999.0 -9999.0 -9999.0
8.030251767629364 8.072704349325928 8.140002797242916 8.233122869612627 8.321688326492737 8.343333912365752 8.246771407420429 8.144124119097246 8.185003209348869 8.259717447936657 8.314367901471607 8.201280648438598 8.05179039509937 7.960048923529007 7.880461948020431 7.8755520297102075 8.041216588142388 8.412193858995268 8.52718785527264 8.5762644776144 8.71872621508998 8.83039175003324 8.861291617590739 8.760105448521534 8.230905282166267 7.831233395609727 7.537650050436188 7.255492359072878 7.039058216779896 6.961691924300044 6.679207395712139 6.354334308273221 6.102308554251579 5.875315958520563 5.741010934514228 5.579298369174547 5.477549200798337 5.465059911378557 5.400396677111859 5.201495030196016 4.987017914302217 4.864909199524991 4.694765681490454 4.573703783566121 4.4674686984985765 4.3336221539366795 4.145721221444729 4.049541204412027 3.976180871823947 3.864185002958458 3.625568649827842 3.33707408245765 3.147167340792213 3.1164994742136476 3.1175917781465396 3.198354181168316 3.2297300333110597 3.16603533656507 3.115113279231146 3.067921450328885 3.041433651575175 3.011564907976891 2.9662531974800324 2.928045164251666 2.8297394518195484 2.5604230280569036 2.294378437802759 2.1798207576220863 2.1357921432741844 2.114871338318273 2.1114517754703406 2.1301880639746087 2.135965450680665 2.1193837271775826 2.062705767393761 1.982594616824673 1.9294807828633984 1.8898987094320698 1.8478702865887335 1.8311588259221103 1.8042328220969484 1.7480299164134616 1.6837985638594457 1.6313276793481444 1.6279807212712225 1.6510833162227507 1.6210217965021996 1.6072514127753947 1.6059763652566572 1.562957189969998 1.474683569877927 1.3849294294223475 1.2088018798904752 1.048954998769709 0.9679902996917584 0.8782151925294148 0.8907172136408739 0.9442324902679875 0.9799096398075415 1.0520981530531663 1.1205855706547005 1.076162699095 0.9291237633950675 0.2982022297784124 0.1627846401432349 0.151962924101571 0.5773951396281136 0.6585460806805252 0.7578929433777857 1.6193208578294034 1.746924449977189 1.3025239879685997 0.8233318616296803 0.21179880264712708 0.2163343905092205 0.4552996328299303 0.8255576213206599 0.9407869956372295 0.8916383084487316 0.7863426246008649 0.8142549104751897 0.8147056986316277 0.7110429057238583 0.6184964874156855 0.5783611180480996 0.5483812903940657 0.4961868333280907 0.5206719712266348 0.6775112269959955 0.6933767279648555 0.6001322040846517 0.392174412628014 -9999.0 -9999.0 -9999.0 -9999.0 -9999.0 -9999.0 -9999.0 -9999.0 -9999.0 -9999.0 -9999.0 -9999.0 -9999.0 -9999.0 -9999.0 -9999.0 -9999.0 -9999.0
8.312488838046571 8.238279631450352 8.29174567532053 8.431230347743469 8.54965825545209 8.571077569913712 8.458898790298985 8.288907449590548 8.231361067975655 8.285249832007459 8.394994674882835 8.40032803169008 8.31774238872665 8.25672457439044 8.227741953545804 8.27405222765548 8.396805782688316 8.522950399641095 8.652440267157061 8.813616990285396 8.88242177484919 8.86830801432016 8.691512767279029 8.33304827450319 7.989889094284644 7.69533366506874 7.367541767171455 7.145839078616187 7.027951814191255 6.875028995608678 6.395632902116334 6.044197466239158 5.858717967356984 5.769754787886064 5.6227803083954075 5.4012231141780305 5.259851878251113 5.220444288680231 5.137774165720273 4.955257337463862 4.7966425542802265 4.625470897830562 4.503398941977791 4.395073186700821 4.3270770750734275 4.253827869535172 4.1552066701518475 4.036842634336891 3.51553439009625 3.746861268920617 3.6911369251466444 3.5181534987783976 3.338811739859129 3.2499409847464302 3.249544018557373 3.3451265898103797 3.2338561468274962 3.0890802631607346 3.0433079863587102 3.026664327791547 3.037106873307785 3.044552134839152 3.0568597180140284 2.9717065894637003 2.92756954980582 2.6976489249267797 2.426197373021444 2.2918290103028363 2.2313012306379094 2.2109840231776725 2.231461158045772 2.2840195836280883 2.3285921819114 2.341521448341596 2.319800434914031 2.204892010804565 2.018996640496218 1.931366409131601 1.9244404326741416 1.9205422004803916 1.904796220848152 1.8729526522097344 1.8367942890859803 1.8269173460458514 1.8627034850510975 1.908689081330716 1.8924189010225398 1.790458070247996 1.7423381999504919 1.6462355513923572 1.4952045891597183 1.225167973917829 0.9304128592020144 0.5421141619350351 0.4130349558224063 0.3655445084007798 0.572501278452423 1.0336079310320279 1.0876942219055625 1.0956033971266816 1.1145987049989643 0.9288071077791265 0.548661440946077 0.3437510985793454 0.1477245001548311 0.1026897365718415 0.2115055962146013 0.3371623626349164 0.5375431463489593 0.9280288971809121 1.3270079930073058 1.5887941388496511 0.996863662254329 0.20522846293113267 0.18524990974729327 0.2497708116846541 0.6931508950535168 0.8824144931293829 0.9234020792838429 1.1037885021304017 1.0660387248725594 0.7177364058436919 0.6621478584712845 0.6331896993453463 0.6149404018095423 0.6136861385840309 0.597316724451121 0.5207753628489842 0.5143631020607264 0.6214103914930935 0.699878755123259 0.7037369396821729 0.3635440037128015 -9999.0 -9999.0 -9999.0 -9999.0 -9999.0 -9999.0 -9999.0 -9999.0 -9999.0 -9999.0 -9999.0 -9999.0 -9999.0 -9999.0 -9999.0 -9999.0 -9999.0
8.526011645089351 8.407673321411366 8.470259001576755 8.661945482301675 8.784183819587835 8.762226343839622 8.643363757720985 8.486406031987002 8.339857649305987 8.34983007636714 8.480918682794762 8.630279867178745 8.698513040704412 8.716884698597584 8.706215391012247 8.74512169367124 8.802837679414347 8.867081871634749 8.9072869665582 8.88692102940344 8.721251901808627 8.432127904275708 8.147954682351331 7.9664002091474515 7.837691081062402 7.438284526300555 7.106362855328391 7.000880096921387 6.923071480597288 6.514387533676059 6.034603791773923 5.865952657575059 5.763643024674053 5.678564875848509 5.510024826464845 5.22358777906806 5.037919852211572 4.939506408857303 4.878469287248278 4.7666459235838765 4.6069656734003 4.479933813213453 4.35147026852984 4.2327204087913115 4.110323097750186 3.6301045386953303 3.467361705507098 3.4096121978779363 3.3815627096070187 3.464071485231125 3.744015820053186 3.6704104760188145 3.5277250613649724 3.426940906614476 3.4520538663230083 3.4449505541565055 3.263078626414614 3.063991195939297 2.990002098975961 2.9603880093147987 2.9863843320159984 3.035442601362872 3.057819755082179 2.989481836126454 2.9227762531091894 2.705166593032291 2.4701572844147113 2.3758352425109384 2.328857879968604 2.3336365885750663 2.381546803463111 2.468967873093844 2.550569907299396 2.609503925976721 2.6345349908552946 2.4173537232257925 2.071169970882098 1.943824210519199 1.9460073982831616 1.9825104498927624 1.9923939874555197 1.9635990409207256 1.9454231987747888 1.9537140938505597 1.9978975222749227 1.996994274448584 1.9424452888612918 1.7914374720669404 1.714381627717323 1.5162734400611375 1.1615584508116816 0.9392134036908084 0.6908026718309934 0.6012526888524823 0.5311645337047854 0.5051535465752877 0.5973904560166279 0.9722008255140271 1.192149302679647 1.1997703199396255 1.2275181286898735 1.1325332140012923 0.6889943066647752 0.498567854477386 0.2603994322970151 0.12882327356612638 0.1551354747998586 0.3461419691512977 0.6767924095292503 0.9062868335394008 1.0657318432934866 1.6269987883413843 1.609169099791539 0.7484811454215561 0.2420492557123724 0.3199658831315786 0.730368619300988 0.9019669006977631 1.3668754518336599 1.5000234028038941 1.604920329059768 1.199648066121159 0.713565691543653 0.7759022910716162 0.6708714570402485 0.5922806729759591 0.5107868872869754 0.46009983217037326 0.3853223774797887 0.4450202837788472 0.6811133554013273 0.7846124566722559 0.7723320813792474 0.365923837417375 -9999.0 -9999.0 -9999.0 -9999.0 -9999.0 -9999.0 -9999.0 -9999.0 -9999.0 -9999.0 -9999.0 -9999.0 -9999.0 -9999.0 -9999.0 -9999.0
8.69700156368907 8.553905212238563 8.648809779513847 8.821795474326851 8.851933494950627 8.852464877520461 8.806288802112993 8.706506296796828 8.659911602774875 8.686765166425781 8.846872813411446 8.920922535176075 8.9654050891571 9.028878719527139 8.979402095498784 8.907207209364767 8.924118415594815 9.010122556075924 8.962047221310645 8.663554509562436 8.162520722008125 7.938856741579109 7.645657028960283 7.510953394384626 7.367728858815461 7.048006584704304 6.87169005771203 6.767274361284239 6.508642632582444 6.072781455081171 5.931545836562391 5.86169882306211 5.691187269026909 5.550275281656303 5.350870652326319 5.099710024837875 4.931069295625616 4.865340429904941 4.7748300425438455 4.620749570394543 4.354402091429389 4.2287172466323355 3.9589950101685365 4.020063740217637 4.011976524418981 3.60760111192892 3.5096140468124104 3.4776670980746833 3.402683675103671 3.4539849233769924 3.778915520305603 3.783366801695617 3.6929737749073874 3.614210232684325 3.605883114890405 3.557638023916437 3.340191245794584 3.080013288869859 2.9405038389712677 2.904160774285862 2.928857532444497 2.971657153506428 2.986201799853169 2.9470278132305094 2.889941219934112 2.6872373898046873 2.5242738087339274 2.4497425937437924 2.439383467448985 2.465712306154519 2.533903476704226 2.6382991152066606 2.7089078273807883 2.7421963060002135 2.8276007205009206 2.686164644280881 2.129098878842665 1.9931755986936108 2.0441217710576463 2.128261330331825 2.1653792897299016 2.1109819690635505 2.0374638666033484 2.045184848781912 2.146208463711191 2.0835941461873966 1.4720748246532296 1.3866397650921256 1.4875839411375564 1.4796301137173355 1.199719648601222 1.0681300638263584 0.8848839228140977 0.7749177025089256 0.6277619122777849 0.5570759428561396 0.5770578006534786 0.7677608664862425 1.2512925905711716 1.2902670079042369 1.3612892811672348 1.3194309879049315 0.9783284838437987 0.8266599321568688 0.9929475574918807 1.1587495596814446 0.4871688092863031 0.5138587674249766 0.6632954561839313 0.8690755004247996 0.948057512990105 1.1887567009619078 1.6742742940490298 1.4110625371604966 1.0307249595114152 1.1312004260774478 1.153115536050935 1.1920625611129592 1.3665875151695885 1.4304492917874378 1.6664313344705985 1.6093493955646623 1.5701590716036447 1.5160833783953034 0.77164699759444 0.645538208909108 0.4446233766469964 0.3874569160786047 0.4110562242591387 0.45963795281584036 0.531996893041446 0.7644138108112788 0.8923144663218203 0.7974390571672125 0.4685755243754937 -9999.0 -9999.0 -9999.0 -9999.0 -9999.0 -9999.0 -9999.0 -9999.0 -9999.0 -9999.0 -9999.0 -9999.0 -9999.0 -9999.0 -9999.0
8.844041696797131 8.755840872839398 8.83484079557578 8.839195366614625 8.85075225206021 8.87488970533668 8.952005628760768 8.893970537359529 8.876792128879645 8.924251189629802 9.024025108899323 9.11446171296972 9.175624269227177 9.16980431715056 9.059587932170611 8.914883849025136 8.91880726397892 9.032985514033264 8.969045385104558 8.29983189479579 7.9074244411466985 7.595516246681621 7.2370597132522025 7.171178294913254 7.112642868823939 6.864093084914919 6.723015880606581 6.55920105437196 6.322679561140191 6.05597203237556 5.943998122249227 5.899319308479933 5.723436469022138 5.513111741583374 5.241526737071043 4.994501951438497 4.887859947423181 4.795750519343713 4.516893246461082 4.274217647306154 4.194597315606037 4.166792623129421 3.9418188180651232 3.944369192410575 4.0219790834910025 3.8903780615726933 3.641262941564264 3.536647035756541 3.435362534096897 3.4397748285972725 3.7715592860199947 3.864362538820069 3.826446476186024 3.7831948380893383 3.7514148922366863 3.688018336548109 3.4960545997677808 3.178749068639561 2.9724564839296135 2.9069656639228847 2.917458337910922 2.9333552249779324 2.941379515569109 2.9355589605734327 2.9235002178822316 2.7773022434806673 2.6417792064441104 2.587434801413829 2.581231526546016 2.6068610730027904 2.67384639706958 2.745869855808727 2.736784173147548 2.7452582918329025 2.90911221062451 2.8810041734214167 2.384722792847236 2.170800173965445 2.1944970679760964 2.264308517291159 2.3046559902743815 2.3085777906609293 2.2871711640421846 2.20883810396415 2.161707312722875 1.9168065149239903 1.527364421952681 1.4373005134621735 1.506694929221168 1.525652724798815 1.3287302898298718 1.1636821474480603 1.002533783741449 0.8518419536687449 0.7262754372423013 0.6290634574394227 0.6473370162686984 0.7271900885799132 0.8582474903539317 1.0568551747172998 1.2057610647605634 1.2240065902975403 1.0137577096604216 0.9351903067449006 0.9847057402607313 0.9607424430229401 0.5417210740018585 0.5065126697813651 0.5603460563277474 0.6503173573042391 0.7671643392220606 0.9462525878102332 1.3098048018775375 1.7760893436918963 1.505244300016101 1.2392436403270999 1.140298261565115 1.1600359546789767 1.389524043221463 1.3662407945332495 1.4710816109403375 1.6136833256858982 1.6239065734192117 1.580973794405929 1.5049242340544169 1.4602268954067668 1.3768834000471948 0.5315867465639474 0.6225852105950469 0.5294130115150781 0.4701902193525916 0.6038334464389237 0.8143066198244755 0.8525961128521131 0.7794369146256392 0.5982658984402425 -9999.0 -9999.0 -9999.0 -9999.0 -9999.0 -9999.0 -9999.0 -9999.0 -9999.0 -9999.0 -9999.0 -9999.0 -9999.0 -9999.0
8.941625993905962 8.924426368473156 8.914367292112857 8.87300009575502 8.868423459989248 9.027245092815432 9.236100415168572 9.122290758512618 8.944053410340121 9.086609087844568 9.277007382555375 9.270119687535646 9.269513952930954 9.255818448335548 9.14812541057783 8.935247919905823 8.789791339037684 8.640869524522788 8.458633322798033 7.963988189708292 7.784095012623787 7.475309107268553 7.199859998593924 7.153309741850031 7.02293581073029 6.799774309332261 6.616319999537855 6.441583569950472 6.266820242367082 6.13388637501765 5.972242062498873 5.849469350265399 5.563399661443916 4.945777898288826 4.966783287634634 4.904919466131055 4.703008873172152 4.3691597389287375 4.325694586094656 4.211382507652547 4.131081777469045 4.159591540172836 3.9904568310759783 3.945143835552256 3.992533212635561 3.908365808784245 3.760610255456796 3.599842115132691 3.4840525514382312 3.4758222661043683 3.669630041156033 3.9199629729831584 3.91253810426359 3.8811623638481723 3.846424976039377 3.790741813640569 3.674080469065939 3.4467856815178135 3.1683240462192543 3.0258011890064083 2.9290233525543146 2.920442841608281 2.9316660298149 2.958175526384602 2.966150002967249 2.9034572660615683 2.820001997029657 2.77822268172002 2.740331749109014 2.734744976570066 2.785364237712075 2.7908617207778246 2.691756942480338 2.7041916427043584 2.922860223471991 2.899489961750589 2.5298005639535974 2.3188285586525224 2.294699828807818 2.3424096677163164 2.4198706676461046 2.420575222837773 2.41370366158451 2.239351874927744 1.9679971032641068 1.9137658248240075 1.9087508477166295 1.5324006548065152 1.5041389008836898 1.4911185745856983 1.327145129969231 1.1722611561364311 1.06174919274473 0.9037854136650925 0.8382280678740097 0.7667711331525122 0.7470053020446916 0.7519888981488099 0.6987679390918502 0.6975625979196474 0.9917744984023276 1.0278532453530675 0.7593212427473686 0.5623311630203722 0.3286121839104007 0.42779198688909187 0.6015812061426806 0.564894520266713 0.5639164416657765 0.6215848617681681 0.6769951308543798 0.7902490463841019 0.9837447419143588 1.6046398807591908 1.9306942798504065 1.840440038986312 1.2097563645794283 1.2554277174642954 1.26812716868454 1.308594458627476 1.4034611202231206 1.4658590391275401 1.5865838258079932 1.5574634849428788 1.5065301827458988 1.5173706294722595 1.5072721895314383 1.434140433105682 1.3587292931658772 1.1347101501095738 0.5079397844183757 0.5599431456972592 0.7085509016931353 0.8011585412240365 0.8408286493274282 0.7283938354729884 0.4892799653199081 -9999.0 -9999.0 -9999.0 -9999.0 -9999.0 -9999.0 -9999.0 -9999.0 -9999.0 -9999.0 -9999.0 -9999.0 -9999.0
9.038167203692716 9.01764351658268 9.022365172360672 9.074431129359219 9.148590658738861 9.308620626050576 9.578020478781644 9.714570510326269 9.614856003295463 9.523155576009009 9.399408091383005 9.282041300821698 9.264402810216794 9.24139781777995 9.168814125259688 8.936074439872769 8.289483581680809 7.905898066319946 7.906803111149293 7.857460313888592 7.641713417273829 7.341922632263534 7.159382964018305 7.046282758435403 6.894659657343841 6.696758095053541 6.498421179687304 6.29609156685605 6.161592804536005 5.819476321991691 5.597874252898765 5.304436552151969 5.10697475868669 4.74744221610717 4.692651152539855 4.5457908423942435 4.355824686131404 4.291065789902956 4.26752095546576 4.263257085186021 4.209307754374819 4.116403061015445 3.952486900979785 3.9314669624613017 3.975217268795228 3.9347670645237405 3.8130675097873143 3.6678052664795193 3.5481068062623193 3.509335963111644 3.593739698464998 3.9300126780413156 3.9351000764919157 3.9266236841364632 3.8929549047955883 3.853403880117805 3.800583757509324 3.706304772594694 3.5364078140394963 3.303873988019841 3.0686276045677263 2.9360953132203207 2.991580880567837 3.1354889207070356 3.142222000914468 3.024566762024753 2.9579766582846974 2.9320879238865305 2.893416523316515 2.851787477218679 2.841922454401881 2.828108062513332 2.7471976294869367 2.934508662926164 2.9510679087328073 2.759541097368397 2.6016216288498772 2.444772500701469 2.4249590878354303 2.472690939839371 2.463253646477228 2.445921235399791 2.4564456985503487 2.4110755558556307 2.151039860733294 2.0209823842440295 2.025319751152697 1.937338171541083 1.585929753795392 1.4605006461860806 1.265603266307009 1.2224773778622935 1.1893435699013708 0.9890430117547844 0.9795337027523074 0.9663523963630902 0.8450538218594827 0.8054352173736814 0.8332313216794294 0.7917228777012957 0.4671846776928081 0.20448940734508247 0.2054042311220559 0.3068958978674315 0.2674341189486396 0.4069868041239651 0.5554218357015273 0.7091226516310773 0.6089315111999418 0.5968882739329968 0.6811241066677285 0.803116751178397 0.8921755931563737 1.0496072774144067 1.8962197364813342 1.9947113861098729 1.7722158543433904 1.340152661340501 1.1075428215374952 1.2205711321750403 1.3883071625938845 1.3967700155768918 1.45273935418689 1.52657621467628 1.5668464960371788 1.5392329232789124 1.5193774439131484 1.507782348448218 1.4590494108736205 1.4087959015279405 0.5892405469803508 0.5688950708711178 0.4300031025349937 0.5289920510302266 0.6903896753311192 0.7231001459209754 0.6628736650256604 0.514426614310195 -9999.0 -9999.0 -9999.0 -9999.0 -9999.0 -9999.0 -9999.0 -9999.0 -9999.0 -9999.0 -9999.0 -9999.0
9.104794917658769 9.129787601004104 9.22543634048634 9.41326893362517 9.442988234819436 9.491571016066976 9.763870895292445 9.80797773896848 9.71188812376023 9.47452285886012 9.264840432379064 9.169255224067967 9.121144109299811 9.109335243551223 9.037285411443984 8.656135785596781 7.917494331127677 7.730485155527341 7.671805659249097 7.569576698498205 7.342497010944289 7.12018656545869 6.973755595305729 6.895766940570241 6.7175558654325 6.468091206929105 6.213918165715996 5.992736374739966 5.844184337548139 5.69551951013581 5.488480165950286 5.2984790386233485 5.214739523604862 4.7491737298582555 4.600646578202818 4.48639395767819 4.362911118439765 4.295774226158422 4.243519032523296 4.30842020706001 4.474122102309895 4.117900211426402 3.9507652199956156 3.920958100561466 3.977968310438824 3.959638796933785 3.863897339757201 3.7325082456125505 3.635652122105573 3.577716769605839 3.598557630266902 3.9401051002363565 4.06447018016912 4.015572463227975 3.930106894755815 3.906513878209001 3.90229685480149 3.887678149566733 3.818421806224286 3.648412297502444 3.42695245030994 3.276823367363177 3.359444610705062 3.453161596006664 3.339638406208472 3.176924990251843 3.075323145151397 3.0072071873673454 2.938572020328818 2.883778242041968 2.8687778563739488 2.9111679936994825 3.0387971765312183 3.3711763837888458 2.665601554016414 2.6403831005494074 2.6593076181145046 2.5844417978231604 2.5909009914990486 2.531962201755296 2.4705024100610156 2.496367055816347 2.5046879279696572 2.5185780600522145 2.409447454492822 2.1891980616890723 2.185535906050677 2.2767257888207264 1.9485106532533971 1.73281750238235 1.538403757047159 1.5665970577486328 1.4745476370652941 1.246848587538576 1.222084343171011 1.2339312963912739 1.078149364747188 1.0496409964407947 1.0343467894637914 0.9107038343471594 0.3817137214672478 0.2839102239129134 0.6634802509373141 0.6333754860658938 0.5122054352869045 0.5421983436215025 0.5562104817587057 0.8389285869907257 0.8233045259224132 0.6804003821641764 0.7114961011939664 0.7555269984811352 0.8671663833046159 1.0208078479892129 1.2689747574877654 1.9141215482991258 1.8020513874488426 1.351675024090316 1.225753421443068 1.211658832024562 1.2392511591850943 1.323521974264485 1.391841478909547 1.4396945506692458 1.5161540740427675 1.5094018867488455 1.493712973687345 1.5381163736196577 1.5365399958529364 1.4204569804997516 1.3106575702196512 0.7786682527255853 0.26083242197370327 0.22586781055604388 0.335691277005418 0.6069602857109042 0.6754243351271287 0.6837035167667604 0.56138524224476 -9999.0 -9999.0 -9999.0 -9999.0 -9999.0 -9999.0 -9999.0 -9999.0 -9999.0 -9999.0 -9999.0
9.153338323430294 9.208144938161835 9.300695847731044 9.405368380569916 9.469085409892223 9.577097194763528 9.672183391544726 9.684902399215208 9.489978105553108 9.259005201194936 9.115326056752375 9.046136697244316 8.972073663726368 8.903036700587554 8.657495578013549 8.03723469819975 7.762063074486704 7.568022527989235 7.411890980006206 7.2313074752498245 7.071015835647666 6.951378763342433 6.775287545007597 6.404514649585959 6.333020383822493 6.229749091685097 6.129919200544183 5.991627429985356 5.873843820083852 5.780287608971054 5.5230875352905215 5.373989420513404 5.252370705206253 5.104143910351118 4.649167556380183 4.583088421664385 4.434247372428825 4.315430410690419 4.259534839480057 4.398914721192979 4.528961198573872 4.200790467507116 4.024394885413174 3.955479237530333 3.945202160487321 3.915457008707853 3.896941085734948 3.852468423233429 3.7818164456829497 3.7279599758068795 3.642638132501324 3.827181020358652 4.212693875913264 4.171182752097794 4.058602267640231 3.975399326672035 3.9326445389091007 3.9272845638196823 3.926610263267439 3.898411344145328 3.815827509698887 3.7687413706693786 3.6573326752856 3.546740587752576 3.356303112031411 3.171704185507293 3.117339117029895 3.046008095823009 2.924955744163308 2.681508649262361 2.7543399358218044 3.0643042746599476 3.060286875209496 2.7703530295091188 2.6702838614742612 2.665916471644855 2.725490091910533 2.7408532347999626 2.7132365431509333 2.5809255243616556 2.5379136940766815 2.590546724660206 2.572899978414277 2.59360840823475 2.5568816412281263 2.4163060637054588 2.451654482594225 2.462670620906241 2.3923499137331747 2.2459422286041533 2.1547733193979965 2.1310455766133423 2.096051313188662 2.133363802262166 2.17309549173405 2.131388355985452 2.053827606209494 1.8506084835570606 1.7262493996348247 1.695695585695362 1.6447822431513508 1.488674976171075 1.3970262758832794 1.237252247033015 1.2248958558948322 1.311102046203472 1.3073093198114103 1.3594950603339748 1.3905705371548502 1.0067317585254525 0.9729238664978761 1.050119499890923 1.152956689941004 1.2259734216296496 1.3434776907246828 1.5790389042948783 1.7728196396186995 1.5105338000758277 1.4394178291528412 1.3175656941724687 1.2739652518618265 1.3044712363010336 1.3778922115669376 1.400654998037931 1.4466885757546128 1.5218430083903132 1.5901244854333982 1.623814633290007 1.5475884489827656 1.398248914570688 1.3443927210630253 1.232336631404663 0.3347800294382861 0.2525414255153456 0.2740951615124268 0.334336181087255 0.5027228208186738 0.7300488911989349 0.7646837951066676 0.5215905445016602 -9999.0 -9999.0 -9999.0 -9999.0 -9999.0 -9999.0 -9999.0 -9999.0 -9999.0 -9999.0
9.30435239140078 9.35979434272326 9.422334997066406 9.49225107551397 9.575532203479217 9.63086834647119 9.62830527513379 9.547172108438367 9.337319713634457 9.107641710257425 8.99833088300564 8.951325310689327 8.833837496817317 8.563837708526473 8.114639091986527 7.843393593783433 7.6752180504534495 7.449958069216439 7.280317363401446 7.121100464689192 6.972565771541264 6.764835406676516 6.594285173769949 6.403217568767433 6.333401483081404 6.254009329176102 6.120456018087321 6.086797228111431 5.996402606315645 5.858188879699327 5.7080589749360975 5.4270471726063025 5.312124546320823 5.195515884322698 4.990299909562582 4.8783318080439955 4.768452577424489 4.36986980771838 4.321838448842957 4.464584507404995 4.572763063858898 4.379634088824483 4.0979847713928095 4.017505202328039 3.85248591040201 3.80873144101814 3.892859606212868 3.900649510856621 3.9312081747858714 3.885986071412624 3.76195813250721 3.853686019889281 4.331069253097293 4.314927468981586 4.217241235494683 4.133769288626312 4.024186259612332 3.956552248895773 3.9623638996798376 3.937762878833017 3.920646170228649 3.858347813626901 3.6725406568605936 3.2716753023515692 3.127442296992775 3.012361834372698 3.027045331656598 3.031930234444887 2.997772686018289 2.8649362181603713 3.0415509352544308 3.1701119666739452 3.0059742928445803 2.8268476855317743 2.7830483031155855 2.8009264687179827 2.865541937565572 2.980486905220125 2.8796020122033243 2.695375808886608 2.7027040101831266 2.736166515218254 2.67632433565368 2.6838459024737347 2.602635623582453 2.553716060257548 2.637855083802972 2.5825412873685454 2.5135912358524757 2.522588337596185 2.5005580677610784 2.4758465375447933 2.5148194978256853 2.597197185662259 2.4302630014277473 2.2340891583676523 2.1408444690505912 1.9554545104655363 1.8294042343888728 1.8075167371276724 1.766198058713971 1.6951828743459056 1.601325810283283 1.4808323395177212 1.5294345961140678 1.5664636086538557 1.4867712130769537 1.5163527940429875 1.5894997948296752 1.6813952564062191 1.57233073338852 1.6034593174289022 1.5706255666289168 1.5045124803314904 1.486551322354479 1.5364732338638356 1.714407338363945 1.6344065538686718 1.5982187323637456 1.539106761659245 1.4363936133095085 1.3006789961137188 1.3588215277117595 1.3788979358383748 1.4709416908492587 1.6770199047294942 1.8573064730506532 1.6615777995777201 1.3642897061762624 1.319803444508934 1.3951722334360326 1.3967247701688494 1.271366391404579 1.267797847176343 0.4630506246195289 0.3120529182697616 0.33037370910897057 0.6235295203480051 0.7521476951375039 0.6755315380412421 0.2138340066671422 -9999.0 -9999.0 -9999.0 -9999.0 -9999.0 -9999.0 -9999.0 -9999.0 -9999.0
9.574915739711855 9.69352441341057 9.801023556084203 9.823489058477564 9.798954256484988 9.729638753822536 9.630204157234084 9.456744339324686 9.241010411562666 9.039598365209432 8.96615609012442 8.81775513398937 8.621324804474952 8.408201234639566 8.047669912147946 7.787213429645272 7.576329814211224 7.396192031975015 7.315663055274613 7.193144516108423 7.05946250425243 6.798064705773402 6.649961296271568 6.525239425609369 6.394804921858735 6.30405657924813 6.145790233338096 6.092503077772559 6.07033775971883 5.948598991962272 5.8004034636311355 5.548240041617136 5.3917742997547595 5.254913164331271 5.112921191167575 5.001748132805064 4.901046365877466 4.592055503723686 4.4942430019296085 4.5243434338825645 4.592499714582856 4.554822429141213 4.154932589746987 4.052296752878637 3.855288065384207 3.806471472036883 3.878166415392576 3.909328002495341 3.9960106019852017 4.034265536655456 3.909534074169053 3.9089881264447643 4.420098180552934 4.422495569657256 4.360753886575108 4.287328247719244 4.131211466007369 3.976470677868574 3.904703497664908 3.8634517677000377 3.905875080525098 3.7349194633030898 3.4338558009867444 3.2770396867054443 3.1720475917383406 3.0040274415199972 3.0175142038835014 3.084779765546992 3.1144761680003348 3.1720869743296283 3.233518716840101 3.1410979673040567 3.011676113450361 2.920338398152373 2.915926529197961 2.98702626753722 3.084243321005042 3.0925620769258084 2.967488029797716 2.8940406904269866 2.874714108579414 2.867111083070973 2.8189694373085916 2.8086200954269565 2.718489358390541 2.780982793741744 2.8712332204606144 2.7266585820151605 2.665798397201961 2.639754765624426 2.6228756259172186 2.6353172540269787 2.71415025984513 2.628455251742536 2.4500049971716535 2.269367996419048 2.148703045740646 1.98357589912834 1.8885409660792363 1.8717845970671343 1.808636852531301 1.7380496492811863 1.6142827346841284 1.501173211698663 1.5561002798710455 1.5360061774022233 1.4690352671819988 1.5971011515494884 1.7750938285566316 1.8387520093240919 1.8826662724603123 1.706596819862381 1.66272868653617 1.6641470636594002 1.7181086286063065 1.7394312083225496 1.8053867028646606 1.814445748251988 1.6043113606287196 1.474919749487572 1.3892320208294588 1.416907967508128 1.4238878035174964 1.4088387942158496 1.5844046793144522 1.7173006960265262 1.742005122123869 1.434051366060176 1.3334616572888807 1.2808801568962267 1.3263756461193479 1.339331877303468 1.31408227270148 1.3346588589410608 1.224514459011894 0.3905507971339019 0.2915009418280829 0.26317078810395617 0.6001010832362599 0.7424231201126983 0.6913811581011546 -9999.0 -9999.0 -9999.0 -9999.0 -9999.0 -9999.0 -9999.0 -9999.0 -9999.0
9.94430212973048 10.002659027447644 10.054966699944991 10.03701702396667 9.97647001072864 9.876133373830104 9.722621948890989 9.521758430911628 9.296889876034092 9.091941853423611 8.944705033698096 8.61074284877517 8.559413585078486 8.655347802723412 8.22089845673141 7.6820188904753115 7.5916536640237435 7.557340059807297 7.539451014832166 7.490278951775553 7.265646505459268 6.907471950332901 6.731129693630522 6.642687025832504 6.5564062899420925 6.3904575541518245 6.23464822125285 6.160501104489987 6.197539417090805 6.053251605724141 5.88301818898372 5.6682345940637635 5.441872820974161 5.362689863553301 5.235696406755842 5.195026786735065 5.160562996227557 4.708259194211244 4.615855641991646 4.611422476351711 4.689447086508076 4.691597402991249 4.221056304890272 4.112828544123582 3.9360810097376544 3.8785506130217433 3.8946054265201093 3.950872748869488 4.053206919900869 4.126104101360801 4.05814264118462 4.011997146009271 4.342600266390214 4.467508809799092 4.40244753922164 4.324355604066946 4.17322688704473 3.9885707913230095 3.7171344297405393 3.6576698854514187 3.688742792216034 3.6605626115769945 3.5332524738526363 3.3756775482495747 3.31481241730151 3.151598600263196 3.117672887186033 3.2092361428494005 3.325776442911781 3.506271915039269 3.237277910359285 3.1474289053921716 3.1029167464546212 3.0949873111792994 3.0876722494439277 3.1410664717835557 3.1962228772015235 3.0362820554317933 3.074597540100435 3.140663236779271 3.0553965578557265 3.0337060970500236 3.08039954177345 3.1745092285637004 3.06131479985634 3.0422939366173165 2.994005401200051 2.8644443115525235 2.830439082553565 2.855242317948012 2.766990275269931 2.756336116944836 2.790229084903797 2.6167624973538692 2.4605481197587666 2.2719461492865616 2.15131684705159 2.099414142402996 2.075313244503201 2.0336037494165153 1.9002559289643144 1.8161892067841687 1.66456391588013 1.5745725764686416 1.6111151438142157 1.6027390770425873 1.6127491516710037 1.8348113856390296 2.016338987856272 1.9205373458744635 2.075990875677501 2.3566802556244446 1.8931723331297863 1.946606500406047 1.943555215450124 1.9083674831475796 1.914010472201608 1.9901546604462184 1.870756283061032 1.3348943967913351 1.2416497441564855 1.4121353388215356 1.4985339451571182 1.5402771972037306 1.6283732251210778 1.5705853768038105 1.1712324130823808 1.1530022339396147 1.3080151482540487 1.2668922624189252 1.2360066257652855 1.2595424832311637 1.3034769726830635 1.3308512163666204 1.3095901035231086 0.6569045410984742 0.45476419830082265 0.2816284270668647 0.3153833300302947 0.6393899528964742 0.8207083050638355 0.67853352440045 -9999.0 -9999.0 -9999.0 -9999.0 -9999.0 -9999.0 -9999.0 -9999.0
10.313778794467222 10.314177466485015 10.227989574303015 10.089331706281977 10.02476107987263 9.972730596436323 9.75770847943266 9.495466954988583 9.105968727552815 8.940906326314751 8.682286826820622 8.389256170878946 8.566643352181398 8.791232652080174 8.43622441911826 7.865470916789459 7.7677812312247845 7.6956335595281455 7.646580373384815 7.603983750133608 7.4815554749173785 7.205558713751348 6.854092930747364 6.723131573540726 6.7399706932547785 6.58578933140641 6.375297340532354 6.456307361169952 6.57222709061199 6.241952091814854 6.050896651426067 5.674501517436891 5.533148992614252 5.623042050724036 5.482898144544178 5.356705441346528 5.323925137027885 5.1300008830070105 4.680237938247554 4.718466512593471 4.950847313246395 4.97234422268974 4.512651844045617 4.307961306311135 4.204266813858355 4.0886725479026325 4.066943360295004 4.1220016632377146 4.242380802691349 4.310786633366844 4.281875929414898 4.275827958287591 4.321108326131707 4.3130906279514685 4.257461197357147 4.2140360615891 4.172000705575021 4.043869824083392 3.8926092085120483 3.743404382563244 3.728869893657377 3.733575477812333 3.5836362878973436 3.4650280104999385 3.435683109142081 3.415658347800448 3.345883826848023 3.425655283830841 3.887872653555071 3.7964016603166777 3.360484048802927 3.2606634134056165 3.297794273523984 3.369112313624765 3.2600785459703854 3.294014827805061 3.447440344601063 3.2797175190344876 3.2674705341379204 3.3819676804880237 3.2999958507164533 3.1847177653648213 3.318475818724225 3.446221827468144 3.2311777132616517 3.140401733684663 3.197807452632942 3.060860779834414 3.087817353139305 3.0356884364805707 2.8291307331941167 2.86466024738013 2.8952982185183123 2.6171979611643716 2.4872284730578653 2.265685488527503 2.236422566320407 2.299137418525511 2.280436313018504 2.2066623609978273 2.021580759228094 1.8977153068529424 1.7647379822618618 1.659156370615798 1.7186271890354312 1.7840297923668829 1.8746514943920682 2.263929503592312 2.2819933236521988 2.0473611318510048 2.1360599508839417 5.762859264021776 5.399879119099882 2.2992264656318215 2.1934809293840316 2.1878133776945874 2.116886930948034 2.0657510826749284 2.0049718975390634 1.4856334152995043 1.3009451553996787 1.5784921715907259 1.633007651312877 1.617614552789272 1.5581523065590621 1.303336442044755 1.043951080806071 0.9944049673153583 1.0160037990579567 1.2091777805418051 1.1694507495714672 1.106256801033046 1.1654426346850382 1.3260849532207262 1.3946844415151112 1.3996003294258272 0.5661472417233304 0.3540381514260828 0.2960563171095722 0.3084202233416981 0.7332329443765435 0.7008277199663056 0.5809559287928396 -9999.0 -9999.0 -9999.0 -9999.0 -9999.0 -9999.0 -9999.0
10.557834834522687 10.52981907339486 10.333509622767664 10.00722809027396 9.941382535206865 9.444842239594994 8.933623842247346 8.849000021394481 8.898081392796303 8.840306807711436 8.67437026107547 8.447372203512526 8.498571896194747 8.599692730708176 8.28982412612843 8.097259164334163 7.905146546902129 7.744783584446798 7.674448149440673 7.627476758195065 7.542674083595388 7.397052120752657 7.1573039546142585 6.900556024449396 6.875656667804832 6.825339521718324 6.547492951991038 6.536672462203214 6.497111413673691 6.35283449171447 6.21156284940948 5.9917005886296835 5.698841657366936 5.776357034037381 5.812765773975866 5.572899197139802 5.508317966814244 5.438056940464504 5.318239727851248 5.174760517525299 5.144188527628584 5.134452924727656 5.151810364850484 4.934739066332961 4.601448350664741 4.4745341113183335 4.480953222175584 4.586862381156893 4.552496620206376 4.5063220521902965 4.440780114316551 4.412823212856059 4.406763888881521 4.357120610700035 4.3368867224699645 4.310742202514449 4.2525518374751226 4.071487551712626 4.00795817699142 3.9342634381392956 3.842822606550189 3.8063223374565123 3.713825350873741 3.6220471984309777 3.5866774959279857 3.6673096334228132 3.658268785975293 4.137880917738646 4.047383633325525 3.8343086795612034 3.704668868770145 3.5192576145737777 3.5185651536199694 3.5889045941740503 3.528812425758597 3.5795862279864163 3.759839470538807 3.486954004703766 3.383499586730243 3.4805539853893523 3.4467983281417105 3.2569306380075687 3.3856568143110852 3.5521777356356603 3.32053729139091 3.205333135007117 3.346282992849736 3.38751473225985 3.2538607286858077 3.1080595796103445 2.9808884974463687 3.026717742523244 2.94040115553054 2.618408274971472 2.4948314622852608 2.416011612889778 2.5453639264359307 2.5525531159181885 2.479360527115605 2.3340388056139107 2.1448360729474047 2.019581426091016 2.019206350968113 1.948342897901129 1.9544717408701324 2.0670172796362345 2.355071597121839 3.0522981503241193 2.914307930187238 2.48154578827662 2.6038170348683995 3.347602674343758 3.444393160991372 2.5422711643017175 2.4671879496655413 2.402975458555364 2.291628080633189 2.15671261276846 2.032342281911696 1.9746924960446497 1.9242450681764052 1.7991928266985884 1.7190146905250114 1.593980305007764 1.4247512215107436 1.2245689700150155 1.0899930522377705 1.0163541252717136 0.8869925969543704 1.0140789079086265 1.123200374163747 1.04046842669114 1.036838481276452 1.148603364167494 1.4259418797862584 1.5155955981372375 0.7935949261897159 0.4239535608473446 0.4221782854022137 0.3798249379024405 0.4053754545223185 0.5692643938449538 0.6420611252947317 0.2919416285954078 -9999.0 -9999.0 -9999.0 -9999.0 -9999.0 -9999.0
10.710429043550556 10.54149364146878 10.041587165040697 9.567146666365579 9.450442619669008 9.25829038236149 8.987598916960335 8.943559825300333 8.952016085303926 8.855036043356698 8.672984272706747 8.441122230987785 8.431193833292825 8.481039461967015 8.286887929521455 8.152848254758382 7.982471487762892 7.877993270744158 7.7949999505958445 7.716375762006864 7.57511771928576 7.449626130770915 7.373046467780984 7.177912711545817 7.099124236023644 6.892891168633759 6.591983176334567 6.5171031268549955 6.317880049639298 6.192415049535094 6.124492128384555 6.119848247308903 5.821482989314083 5.769977112379577 5.85227825902676 5.548097505274327 5.4615024451355865 5.4173432787379125 5.430391168987012 5.432390534245745 5.341938449099137 5.302362543559939 5.381573067164258 5.236436991200614 4.646428057799599 4.496206389372097 4.536614735193279 4.641386348720453 4.591625070953887 4.54377954374533 4.497172820189636 4.484542169111855 4.513209152179983 4.484494169505362 4.467345562346485 4.348125779831993 4.227912708743008 4.025932604085509 4.038494724417571 4.207794448083398 4.053645123790069 3.812373316720616 3.79510058578289 3.804728345542601 3.788532728608608 3.8511431331939234 4.220979014628285 4.724262069592135 4.01413048794482 3.8745176373194323 3.8519817383038473 3.784880223242788 3.7881309500725338 3.9447930088442207 4.0339322452691775 4.011222754483219 3.9883194508254634 3.771047863263389 3.6339459358360795 3.7599512519326392 3.721014526047436 3.4691718241936607 3.5221226507761636 3.6317689678135023 3.521003623284976 3.322313657317885 3.3308938293346473 3.412490566703796 3.4313284949072327 3.265038088485348 3.175830727003993 3.1186621184995293 3.0363372270624143 2.8200868129069554 2.647368139969331 2.61001120615856 2.838188220985192 2.851857797475185 2.7957944338853076 2.687523704780594 2.5008675931806215 2.352797694814651 2.374725251077376 2.438897062498588 2.5182784558904516 2.6794002141245317 3.2263250895435496 3.399398054644166 3.221275915522232 2.935101075613702 2.8392107105200535 2.789407918349754 2.896951477441568 2.9708414367731466 2.5878183196205833 2.5068095342415124 2.4073360222369984 2.2025113219842427 2.0638417064228194 2.106904750271806 2.284861913314335 2.15570758017777 1.7602148630710868 1.4894875279400714 1.4366651914780348 1.3788271249433277 1.2717865109593427 1.2481622184835264 0.9060140944465924 0.8334232018574192 0.9348288069249879 1.0046820626147908 0.9957120107597783 1.0619170161406268 1.1288483920625152 1.3884218041136729 1.399670348784599 0.6717989882601987 0.5690616505134896 0.3345735349571075 0.1787971702225947 0.3856916199876232 0.550478204927038 0.3365362335674912 -9999.0 -9999.0 -9999.0 -9999.0 -9999.0 -9999.0
