ncols 150
nrows 121
xllcorner 288400
yllcorner 4893820
cellsize 50
NODATA_value -9999.0
0.3629368054933025 0.2503664559032107 0.1758293822984974 0.1451652638643919 0.1967666783059732 0.3009120400120132 0.0857495733183716 -9999.0 -9999.0 -9999.0 -9999.0 -9999.0 -9999.0 -9999.0 -9999.0 -9999.0 -9999.0 -9999.0 -9999.0 -9999.0 -9999.0 -9999.0 -9999.0 -9999.0 -9999.0 -9999.0 -9999.0 -9999.0 -9999.0 -9999.0 -9999.0 -9999.0 -9999.0 -9999.0 1.284150680990464 1.9252022259573665 1.9547305266383757 1.976474824895834 2.1770829182403197 2.341146017026817 2.190409423398699 2.0932241568039136 2.111157412215388 1.939392782595963 1.57702808605387 1.62254868645098 1.7228345300028611 1.5497774379480973 0.7496870377611127 0.9491235362357192 1.0189432007983008 0.7624931168744744 0.470450540322987 0.4131815773733918 0.682178162985638 1.037449013271187 0.1483153559044074 -9999.0 -9999.0 -9999.0 -9999.0 -9999.0 -9999.0 -9999.0 -9999.0 -9999.0 -9999.0 -9999.0 -9999.0 -9999.0 -9999.0 -9999.0 -9999.0 -9999.0 -9999.0 -9999.0 -9999.0 -9999.0 -9999.0 -9999.0 -9999.0 -9999.0 -9999.0 -9999.0 -9999.0 -9999.0 -9999.0 -9999.0 -9999.0 -9999.0 -9999.0 -9999.0 -9999.0 -9999.0 -9999.0 -9999.0 -9999.0 -9999.0 -9999.0 -9999.0 -9999.0 -9999.0 -9999.0 -9999.0 -9999.0 -9999.0 -9999.0 -9999.0 -9999.0 -9999.0 -9999.0 -9999.0 -9999.0 -9999.0 -9999.0 -9999.0 -9999.0 -9999.0 -9999.0 -9999.0 -9999.0 -9999.0 -9999.0 -9999.0 -9999.0 -9999.0 -9999.0 -9999.0 -9999.0 -9999.0 -9999.0 -9999.0 -9999.0 -9999.0 -9999.0 -9999.0 -9999.0 -9999.0 -9999.0 -9999.0 -9999.0 -9999.0 -9999.0 -9999.0 -9999.0 -9999.0 -9999.0 -9999.0 -9999.0 -9999.0
0.3707883015916917 0.2862633456679551 0.2080562481906305 0.1734816382856283 0.1908655197549331 0.247472439301375 0.1487743770761532 -9999.0 -9999.0 -9999.0 -9999.0 -9999.0 -9999.0 -9999.0 -9999.0 -9999.0 -9999.0 -9999.0 -9999.0 -9999.0 -9999.0 -9999.0 -9999.0 -9999.0 -9999.0 -9999.0 -9999.0 -9999.0 -9999.0 -9999.0 -9999.0 -9999.0 -9999.0 -9999.0 0.7174188486865491 1.9356739508067708 2.053513288497925 2.0031920857305656 2.199703722672641 2.2558278739440345 2.167881607463997 2.0980805613942564 2.1132204717463967 1.9210616314961584 1.759175568622783 1.7503816564069594 1.793060831134305 1.7298398516951723 0.9356335260533925 0.9242344612039416 0.9494012127911556 0.7366295733612059 0.3773250956991754 0.3785185462454493 0.5145133804488815 0.897476344689562 0.9064602330685768 -9999.0 -9999.0 -9999.0 -9999.0 -9999.0 -9999.0 -9999.0 -9999.0 -9999.0 -9999.0 -9999.0 -9999.0 -9999.0 -9999.0 -9999.0 -9999.0 -9999.0 -9999.0 -9999.0 -9999.0 -9999.0 -9999.0 -9999.0 -9999.0 -9999.0 -9999.0 -9999.0 -9999.0 -9999.0 -9999.0 -9999.0 -9999.0 -9999.0 -9999.0 -9999.0 -9999.0 -9999.0 -9999.0 -9999.0 -9999.0 -9999.0 -9999.0 -9999.0 -9999.0 -9999.0 -9999.0 -9999.0 -9999.0 -9999.0 -9999.0 -9999.0 -9999.0 -9999.0 -9999.0 -9999.0 -9999.0 -9999.0 -9999.0 -9999.0 -9999.0 -9999.0 -9999.0 -9999.0 -9999.0 -9999.0 -9999.0 -9999.0 -9999.0 -9999.0 -9999.0 -9999.0 -9999.0 -9999.0 -9999.0 -9999.0 -9999.0 -9999.0 -9999.0 -9999.0 -9999.0 -9999.0 -9999.0 -9999.0 -9999.0 -9999.0 -9999.0 -9999.0 -9999.0 -9999.0 -9999.0 -9999.0 -9999.0 -9999.0
0.3859303580734483 0.3784940547956094 0.3271622340845858 0.2292030184940411 0.1826631619028034 0.166112666157565 0.102129817911194 0.0188560656090432 -9999.0 -9999.0 -9999.0 -9999.0 -9999.0 -9999.0 -9999.0 -9999.0 -9999.0 -9999.0 -9999.0 -9999.0 -9999.0 -9999.0 -9999.0 -9999.0 -9999.0 -9999.0 -9999.0 -9999.0 -9999.0 -9999.0 -9999.0 -9999.0 -9999.0 -9999.0 -9999.0 1.3986264607932983 1.942979205943013 2.012594003033285 2.238457713153457 2.2661584012498337 2.249627111031109 2.2522162263848955 2.0359850670481565 1.899823242962856 1.8644932562425984 1.7795189148015482 1.6580043523963468 1.6786862524667263 1.1146253894529234 0.9243174969934272 0.9196824243357138 0.7893591755552551 0.3555880363691064 0.2862101738435445 0.3607090296167164 0.7708704904231758 0.8963352886818681 0.3383147152005059 -9999.0 -9999.0 -9999.0 -9999.0 -9999.0 -9999.0 -9999.0 -9999.0 -9999.0 -9999.0 -9999.0 -9999.0 -9999.0 -9999.0 -9999.0 -9999.0 -9999.0 -9999.0 -9999.0 -9999.0 -9999.0 -9999.0 -9999.0 -9999.0 -9999.0 -9999.0 -9999.0 -9999.0 -9999.0 -9999.0 -9999.0 -9999.0 -9999.0 -9999.0 -9999.0 -9999.0 -9999.0 -9999.0 -9999.0 -9999.0 -9999.0 -9999.0 -9999.0 -9999.0 -9999.0 -9999.0 -9999.0 -9999.0 -9999.0 -9999.0 -9999.0 -9999.0 -9999.0 -9999.0 -9999.0 -9999.0 -9999.0 -9999.0 -9999.0 -9999.0 -9999.0 -9999.0 -9999.0 -9999.0 -9999.0 -9999.0 -9999.0 -9999.0 -9999.0 -9999.0 -9999.0 -9999.0 -9999.0 -9999.0 -9999.0 -9999.0 -9999.0 -9999.0 -9999.0 -9999.0 -9999.0 -9999.0 -9999.0 -9999.0 -9999.0 -9999.0 -9999.0 -9999.0 -9999.0 -9999.0 -9999.0 -9999.0
0.4255061763679734 0.4789959739396368 0.4107811114519702 0.2960782710538787 0.1905564140369438 0.1365393526974846 0.084151347694736 0.0177890725071892 -9999.0 -9999.0 -9999.0 -9999.0 -9999.0 0.0459923281058745 0.2449544041473632 0.2133928274867142 -9999.0 -9999.0 -9999.0 -9999.0 -9999.0 -9999.0 -9999.0 -9999.0 -9999.0 -9999.0 -9999.0 -9999.0 -9999.0 -9999.0 -9999.0 -9999.0 -9999.0 -9999.0 -9999.0 -9999.0 1.3802509844625817 1.783645237549021 2.223530536267125 2.3633956761409314 2.4042643044578758 2.431210734003187 1.9706229056442135 1.896916202672527 1.8970858984779868 1.5355791015778175 1.289792145248393 1.4840835807866553 1.5123581400245787 0.9544603113255752 0.9862716188759966 0.9382713512924584 0.3636739110169203 0.224542539615212 0.6627153072682195 0.6648881342727464 0.7138067046624963 0.7128441749056857 -9999.0 -9999.0 -9999.0 -9999.0 -9999.0 -9999.0 -9999.0 -9999.0 -9999.0 -9999.0 -9999.0 -9999.0 -9999.0 -9999.0 -9999.0 -9999.0 -9999.0 -9999.0 -9999.0 -9999.0 -9999.0 -9999.0 -9999.0 -9999.0 -9999.0 -9999.0 -9999.0 -9999.0 -9999.0 -9999.0 -9999.0 -9999.0 -9999.0 -9999.0 -9999.0 -9999.0 -9999.0 -9999.0 -9999.0 -9999.0 -9999.0 -9999.0 -9999.0 -9999.0 -9999.0 -9999.0 -9999.0 -9999.0 -9999.0 -9999.0 -9999.0 -9999.0 -9999.0 -9999.0 -9999.0 -9999.0 -9999.0 -9999.0 -9999.0 -9999.0 -9999.0 -9999.0 -9999.0 -9999.0 -9999.0 -9999.0 -9999.0 -9999.0 -9999.0 -9999.0 -9999.0 -9999.0 -9999.0 -9999.0 -9999.0 -9999.0 -9999.0 -9999.0 -9999.0 -9999.0 -9999.0 -9999.0 -9999.0 -9999.0 -9999.0 -9999.0 -9999.0 -9999.0 -9999.0 -9999.0 -9999.0 -9999.0
0.5409590812646025 0.5218919986887253 0.410849796974163 0.2863350327309549 0.1996801746276472 0.1392922513403861 0.0984725696048082 0.0483180886755823 -9999.0 -9999.0 -9999.0 -9999.0 -9999.0 0.1735023639933182 0.4342355056690741 0.4411300226570885 0.1043269933768581 -9999.0 -9999.0 -9999.0 -9999.0 -9999.0 -9999.0 -9999.0 -9999.0 -9999.0 -9999.0 -9999.0 -9999.0 -9999.0 -9999.0 -9999.0 -9999.0 -9999.0 -9999.0 -9999.0 -9999.0 1.1248977144975687 1.8932450657276665 2.314899592828476 2.218432207748528 2.054114220228072 1.8836105249601027 1.8794228863192315 1.9324488167143947 1.49510397389384 1.398690731616434 1.6113180985441284 1.713829542025119 1.4447394109159948 1.135996622174709 0.9321954012262342 0.441074296126245 0.5694366377996452 0.5801354053742132 0.6378298751597861 0.6886456051128718 0.7507666016271612 0.0393139812558563 -9999.0 -9999.0 -9999.0 -9999.0 -9999.0 -9999.0 -9999.0 -9999.0 -9999.0 -9999.0 -9999.0 -9999.0 -9999.0 -9999.0 -9999.0 -9999.0 -9999.0 -9999.0 -9999.0 -9999.0 -9999.0 -9999.0 -9999.0 -9999.0 -9999.0 -9999.0 -9999.0 -9999.0 -9999.0 -9999.0 -9999.0 -9999.0 -9999.0 -9999.0 -9999.0 -9999.0 -9999.0 -9999.0 -9999.0 -9999.0 -9999.0 -9999.0 -9999.0 -9999.0 -9999.0 -9999.0 -9999.0 -9999.0 -9999.0 -9999.0 -9999.0 -9999.0 -9999.0 -9999.0 -9999.0 -9999.0 -9999.0 -9999.0 -9999.0 -9999.0 -9999.0 -9999.0 -9999.0 -9999.0 -9999.0 -9999.0 -9999.0 -9999.0 -9999.0 -9999.0 -9999.0 -9999.0 -9999.0 -9999.0 -9999.0 -9999.0 -9999.0 -9999.0 -9999.0 -9999.0 -9999.0 -9999.0 -9999.0 -9999.0 -9999.0 -9999.0 -9999.0 -9999.0 -9999.0 -9999.0 -9999.0
0.5647058714205799 0.466932148431981 0.320005439881842 0.2497180109140482 0.2045548137952549 0.1684195776412135 0.1426400733971702 0.1250846367735439 0.0816851775245177 0.0175773321844856 -9999.0 -9999.0 -9999.0 0.0507128769463507 0.2789525469204274 0.2826438091266005 0.0918719667380043 -9999.0 -9999.0 -9999.0 -9999.0 -9999.0 -9999.0 -9999.0 -9999.0 -9999.0 -9999.0 -9999.0 -9999.0 -9999.0 -9999.0 -9999.0 -9999.0 -9999.0 -9999.0 -9999.0 -9999.0 0.6047957757601322 1.510186300021522 1.390623510416423 1.5694080354854631 1.8501439422063903 1.8583879424534724 1.7096972789802831 1.7096424288973793 1.5567291635293086 1.527473047236042 1.6209559279673678 1.7495277038595 1.9029873549023888 1.0394788936672377 0.457806399672025 0.9335878873291138 0.5571582243160427 0.5294923174651303 0.6004417181021925 0.7275873588188472 0.8365716404735795 0.6867862131915465 -9999.0 -9999.0 -9999.0 -9999.0 -9999.0 -9999.0 -9999.0 -9999.0 -9999.0 -9999.0 -9999.0 -9999.0 -9999.0 -9999.0 -9999.0 -9999.0 -9999.0 -9999.0 -9999.0 -9999.0 -9999.0 -9999.0 -9999.0 -9999.0 -9999.0 -9999.0 -9999.0 -9999.0 -9999.0 -9999.0 -9999.0 -9999.0 -9999.0 -9999.0 -9999.0 -9999.0 -9999.0 -9999.0 -9999.0 -9999.0 -9999.0 -9999.0 -9999.0 -9999.0 -9999.0 -9999.0 -9999.0 -9999.0 -9999.0 -9999.0 -9999.0 -9999.0 -9999.0 -9999.0 -9999.0 -9999.0 -9999.0 -9999.0 -9999.0 -9999.0 -9999.0 -9999.0 -9999.0 -9999.0 -9999.0 -9999.0 -9999.0 -9999.0 -9999.0 -9999.0 -9999.0 -9999.0 -9999.0 -9999.0 -9999.0 -9999.0 -9999.0 -9999.0 -9999.0 -9999.0 -9999.0 -9999.0 -9999.0 -9999.0 -9999.0 -9999.0 -9999.0 -9999.0 -9999.0 -9999.0 -9999.0
0.6460243078366256 0.4459819019196642 0.3063066710194281 0.2644866173459506 0.237354931332247 0.2213008006015127 0.2405930670544957 0.2731060888194138 0.2614208749847397 0.2038140496079988 0.1273152835971152 0.0435064719864664 -9999.0 -9999.0 -9999.0 0.0565800331028472 0.0110443827123114 -9999.0 -9999.0 -9999.0 -9999.0 -9999.0 -9999.0 -9999.0 -9999.0 -9999.0 -9999.0 -9999.0 -9999.0 -9999.0 -9999.0 -9999.0 -9999.0 -9999.0 -9999.0 -9999.0 -9999.0 0.3424645131308966 1.015139814067406 1.4037952618359888 1.4493937002790247 1.7476430576836512 1.941690768647004 1.837742408010521 1.7049842449057302 1.667103250376504 1.622617139209832 1.6948466439504437 1.9078960689575752 1.961853346747676 1.0325573216393014 1.2229575250826916 1.1061081810176905 0.5750838187664271 0.3970460547000483 0.5049124861881693 0.7017770333601236 0.8568736668991763 1.1373722138178362 -9999.0 -9999.0 -9999.0 -9999.0 -9999.0 -9999.0 -9999.0 -9999.0 -9999.0 -9999.0 -9999.0 -9999.0 -9999.0 -9999.0 -9999.0 -9999.0 -9999.0 -9999.0 -9999.0 -9999.0 -9999.0 -9999.0 -9999.0 -9999.0 -9999.0 -9999.0 -9999.0 -9999.0 -9999.0 -9999.0 -9999.0 -9999.0 -9999.0 -9999.0 -9999.0 -9999.0 -9999.0 -9999.0 -9999.0 -9999.0 -9999.0 -9999.0 -9999.0 -9999.0 -9999.0 -9999.0 -9999.0 -9999.0 -9999.0 -9999.0 -9999.0 -9999.0 -9999.0 -9999.0 -9999.0 -9999.0 -9999.0 -9999.0 -9999.0 -9999.0 -9999.0 -9999.0 -9999.0 -9999.0 -9999.0 -9999.0 -9999.0 -9999.0 -9999.0 -9999.0 -9999.0 -9999.0 -9999.0 -9999.0 -9999.0 -9999.0 -9999.0 -9999.0 -9999.0 -9999.0 -9999.0 -9999.0 -9999.0 -9999.0 -9999.0 -9999.0 -9999.0 -9999.0 -9999.0 -9999.0 -9999.0
0.7220940880238644 0.6100295419430547 0.4488265526410211 0.3990500212828125 0.3686427550799551 0.3644789343052058 0.4297245495876735 0.4729622748981325 0.386233707106844 0.2893524717966913 0.198445314291085 0.1094683356000395 0.0114477448329518 -9999.0 -9999.0 -9999.0 0.0119228630373339 -9999.0 -9999.0 -9999.0 -9999.0 -9999.0 -9999.0 -9999.0 -9999.0 -9999.0 -9999.0 -9999.0 -9999.0 -9999.0 -9999.0 -9999.0 -9999.0 -9999.0 -9999.0 -9999.0 -9999.0 -9999.0 0.9277085058360324 1.6025170940229865 1.402488515171689 1.4558684697413409 2.0068784228341627 2.197532622016636 1.801410774493339 1.6872788502404807 1.73525023111642 1.8645837601591932 1.8699596120883517 1.694997531358827 1.339997035063941 1.161528060253937 1.0722394013381122 0.7114552591954426 0.4826546391167216 0.5364834258417912 0.6153874732028896 0.6547791078852735 1.049543394631986 0.6517623780277527 -9999.0 -9999.0 -9999.0 -9999.0 -9999.0 -9999.0 -9999.0 -9999.0 -9999.0 -9999.0 -9999.0 -9999.0 -9999.0 -9999.0 -9999.0 -9999.0 -9999.0 -9999.0 -9999.0 -9999.0 -9999.0 -9999.0 -9999.0 -9999.0 -9999.0 -9999.0 -9999.0 -9999.0 -9999.0 -9999.0 -9999.0 -9999.0 -9999.0 -9999.0 -9999.0 -9999.0 -9999.0 -9999.0 -9999.0 -9999.0 -9999.0 -9999.0 -9999.0 -9999.0 -9999.0 -9999.0 -9999.0 -9999.0 -9999.0 -9999.0 -9999.0 -9999.0 -9999.0 -9999.0 -9999.0 -9999.0 -9999.0 -9999.0 -9999.0 -9999.0 -9999.0 -9999.0 -9999.0 -9999.0 -9999.0 -9999.0 -9999.0 -9999.0 -9999.0 -9999.0 -9999.0 -9999.0 -9999.0 -9999.0 -9999.0 -9999.0 -9999.0 -9999.0 -9999.0 -9999.0 -9999.0 -9999.0 -9999.0 -9999.0 -9999.0 -9999.0 -9999.0 -9999.0 -9999.0 -9999.0
0.7886633680006095 0.81649292675871 0.6639748259678222 0.5975084350502181 0.5931726418130954 0.634602902910287 0.6443334458062586 0.5473880687189198 0.3605759542078365 0.2467133015371597 0.1904438637197049 0.1505179843813033 0.0844795900061633 0.0362606805079741 0.0300867523894486 0.0528074860745555 0.125728329352915 0.1171242415465697 -9999.0 -9999.0 -9999.0 -9999.0 -9999.0 -9999.0 -9999.0 -9999.0 -9999.0 -9999.0 -9999.0 -9999.0 -9999.0 -9999.0 -9999.0 -9999.0 -9999.0 -9999.0 -9999.0 -9999.0 0.2195243478544369 1.3589207030605426 1.6585882875856597 1.763603917188689 1.9781167864374496 2.196148030082774 2.0402894051733296 1.6699999570846555 1.772800487126164 1.8747316235824805 1.5610669975076186 1.6494516016367688 1.6239798323461645 1.047268952210665 1.0146575438476306 0.9302488577170512 0.6467262846801707 0.6038170524199351 0.6137436323612995 0.5438129961799958 0.8095772399404909 0.9590997243012966 -9999.0 -9999.0 -9999.0 -9999.0 -9999.0 -9999.0 -9999.0 -9999.0 -9999.0 -9999.0 -9999.0 -9999.0 -9999.0 -9999.0 -9999.0 -9999.0 -9999.0 -9999.0 -9999.0 -9999.0 -9999.0 -9999.0 -9999.0 -9999.0 -9999.0 -9999.0 -9999.0 -9999.0 -9999.0 -9999.0 -9999.0 -9999.0 -9999.0 -9999.0 -9999.0 -9999.0 -9999.0 -9999.0 -9999.0 -9999.0 -9999.0 -9999.0 -9999.0 -9999.0 -9999.0 -9999.0 -9999.0 -9999.0 -9999.0 -9999.0 -9999.0 -9999.0 -9999.0 -9999.0 -9999.0 -9999.0 -9999.0 -9999.0 -9999.0 -9999.0 -9999.0 -9999.0 -9999.0 -9999.0 -9999.0 -9999.0 -9999.0 -9999.0 -9999.0 -9999.0 -9999.0 -9999.0 -9999.0 -9999.0 -9999.0 -9999.0 -9999.0 -9999.0 -9999.0 -9999.0 -9999.0 -9999.0 -9999.0 -9999.0 -9999.0 -9999.0 -9999.0 -9999.0 -9999.0 -9999.0
0.7624904719908843 0.8036375559724891 0.7563428622146178 0.734040651875151 0.8361177325548537 0.8449431634622951 0.7321161940856993 0.4449421627616564 0.2435270992379057 0.1877050472869963 0.1776416396448418 0.1757740632319689 0.1571813053814231 0.1434058265129647 0.1466050269698299 0.1667776099867747 0.1997467752803204 0.1921129373008741 0.0795034883961224 -9999.0 -9999.0 -9999.0 -9999.0 -9999.0 -9999.0 -9999.0 -9999.0 -9999.0 -9999.0 -9999.0 -9999.0 -9999.0 -9999.0 -9999.0 -9999.0 -9999.0 -9999.0 -9999.0 0.0903430264512153 0.3505811868349525 1.6329985856660123 1.9159377507865831 1.918226313901719 2.0874121982366787 2.480109468991356 1.98960809168884 1.6899025106702192 1.4401857345485287 1.4998195896771187 1.5682116270964097 1.589127032088519 1.0242474428963415 0.9541972285551156 0.9076245339268766 0.7649517954211317 0.6571094279573678 0.6671577072301573 0.639527792537606 0.6344238231521431 0.8772054843130065 0.3172322392667971 -9999.0 -9999.0 -9999.0 -9999.0 -9999.0 -9999.0 -9999.0 -9999.0 -9999.0 -9999.0 -9999.0 -9999.0 -9999.0 -9999.0 -9999.0 -9999.0 -9999.0 -9999.0 -9999.0 -9999.0 -9999.0 -9999.0 -9999.0 -9999.0 -9999.0 -9999.0 -9999.0 -9999.0 -9999.0 -9999.0 -9999.0 -9999.0 -9999.0 -9999.0 -9999.0 -9999.0 -9999.0 -9999.0 -9999.0 -9999.0 -9999.0 -9999.0 -9999.0 -9999.0 -9999.0 -9999.0 -9999.0 -9999.0 -9999.0 -9999.0 -9999.0 -9999.0 -9999.0 -9999.0 -9999.0 -9999.0 -9999.0 -9999.0 -9999.0 -9999.0 -9999.0 -9999.0 -9999.0 -9999.0 -9999.0 -9999.0 -9999.0 -9999.0 -9999.0 -9999.0 -9999.0 -9999.0 -9999.0 -9999.0 -9999.0 -9999.0 -9999.0 -9999.0 -9999.0 -9999.0 -9999.0 -9999.0 -9999.0 -9999.0 -9999.0 -9999.0 -9999.0 -9999.0 -9999.0
0.685224089033958 0.7433993941051396 0.776118020492703 0.9256380704747932 1.0219611887784898 0.9298616206189378 0.6616343202590895 0.3570647333360972 0.1954582904366709 0.1698022380248629 0.1771459321181329 0.1894707614533513 0.1982292914756487 0.2003609862942644 0.1987332032963441 0.2002553353325993 0.2103356394155891 0.2055562446000458 0.1216346066352624 0.0223006465993352 -9999.0 -9999.0 -9999.0 -9999.0 -9999.0 -9999.0 -9999.0 -9999.0 -9999.0 -9999.0 -9999.0 -9999.0 -9999.0 -9999.0 -9999.0 -9999.0 -9999.0 -9999.0 0.1748513206437457 0.1652048885213455 0.812544212527431 1.646504241125852 1.862468614432496 2.121609142170815 2.521015581433539 1.835772409058666 1.4573733230699406 1.4891011840581707 1.585151089084632 1.5682989095331872 1.5596060653383186 1.4993376234960192 0.8916313502691636 0.7597465801131076 0.7767612947188829 0.7392987108651428 0.7336129829554225 0.7177183096715293 0.5979688445686842 0.6539221198647559 0.7247132369107454 -9999.0 -9999.0 -9999.0 -9999.0 -9999.0 -9999.0 -9999.0 -9999.0 -9999.0 -9999.0 -9999.0 -9999.0 -9999.0 -9999.0 -9999.0 -9999.0 -9999.0 -9999.0 -9999.0 -9999.0 -9999.0 -9999.0 -9999.0 -9999.0 -9999.0 -9999.0 -9999.0 -9999.0 -9999.0 -9999.0 -9999.0 -9999.0 -9999.0 -9999.0 -9999.0 -9999.0 -9999.0 -9999.0 -9999.0 -9999.0 -9999.0 -9999.0 -9999.0 -9999.0 -9999.0 -9999.0 -9999.0 -9999.0 -9999.0 -9999.0 -9999.0 -9999.0 -9999.0 -9999.0 -9999.0 -9999.0 -9999.0 -9999.0 -9999.0 -9999.0 -9999.0 -9999.0 -9999.0 -9999.0 -9999.0 -9999.0 -9999.0 -9999.0 -9999.0 -9999.0 -9999.0 -9999.0 -9999.0 -9999.0 -9999.0 -9999.0 -9999.0 -9999.0 -9999.0 -9999.0 -9999.0 -9999.0 -9999.0 -9999.0 -9999.0 -9999.0 -9999.0 -9999.0 -9999.0
0.6786497345111587 0.6921397114457946 0.856462656614834 1.1145005203590477 1.1269086868099123 0.8965242965750548 0.5127748768386383 0.2864464718336355 0.1904195835361947 0.1767628472644433 0.1940926848595763 0.2033182185156821 0.2133133948831185 0.2219051936632708 0.2136707032209845 0.2009990194345437 0.1913168085671582 0.1640059744748193 0.0899647108682033 -9999.0 -9999.0 -9999.0 -9999.0 -9999.0 -9999.0 -9999.0 -9999.0 -9999.0 -9999.0 -9999.0 -9999.0 -9999.0 -9999.0 -9999.0 -9999.0 -9999.0 -9999.0 -9999.0 0.1106967441063828 -9999.0 -9999.0 1.3203497769139454 1.7758526158968715 2.09992404076898 1.6757364136879485 1.3615272111977614 1.485361772121987 1.714380023739407 1.6715927328901932 1.5656551490210429 1.4877620759475592 1.457570691940127 1.3913465614620693 0.6453070040731624 0.7347535010784865 0.7642071689743055 0.714423568261345 0.686424478914232 0.6259990874244112 0.6505805305169048 0.779981090119687 0.1365708336458078 -9999.0 -9999.0 -9999.0 -9999.0 -9999.0 -9999.0 -9999.0 -9999.0 -9999.0 -9999.0 -9999.0 -9999.0 -9999.0 -9999.0 -9999.0 -9999.0 -9999.0 -9999.0 -9999.0 -9999.0 -9999.0 -9999.0 -9999.0 -9999.0 -9999.0 -9999.0 -9999.0 -9999.0 -9999.0 -9999.0 -9999.0 -9999.0 -9999.0 -9999.0 -9999.0 -9999.0 -9999.0 -9999.0 -9999.0 -9999.0 -9999.0 -9999.0 -9999.0 -9999.0 -9999.0 -9999.0 -9999.0 -9999.0 -9999.0 -9999.0 -9999.0 -9999.0 -9999.0 -9999.0 -9999.0 -9999.0 -9999.0 -9999.0 -9999.0 -9999.0 -9999.0 -9999.0 -9999.0 -9999.0 -9999.0 -9999.0 -9999.0 -9999.0 -9999.0 -9999.0 -9999.0 -9999.0 -9999.0 -9999.0 -9999.0 -9999.0 -9999.0 -9999.0 -9999.0 -9999.0 -9999.0 -9999.0 -9999.0 -9999.0 -9999.0 -9999.0 -9999.0 -9999.0
0.8157171453903966 0.8025604706740062 0.95686389530519 1.1466800218603357 1.1392768828229816 0.8357832292965434 0.4891758886783361 0.3118254740777853 0.2262105920370392 0.2056020702361461 0.2020261928206887 0.2048177856272584 0.2231644525344693 0.2382730508973911 0.2299235929488396 0.1920912081734543 0.1573396518884765 0.1092253966485471 0.011303010708172 -9999.0 -9999.0 -9999.0 -9999.0 -9999.0 -9999.0 -9999.0 -9999.0 -9999.0 -9999.0 -9999.0 -9999.0 -9999.0 -9999.0 -9999.0 -9999.0 -9999.0 -9999.0 -9999.0 -9999.0 -9999.0 -9999.0 -9999.0 1.475847535371786 1.531425142708762 1.332659751097426 1.4085455501326587 1.924388797000255 1.7453456401892944 1.5982099148712496 1.5086415083509752 1.4635586405463956 1.453508954805998 1.4581852676837097 0.9456979345832977 0.7302917217531595 0.852967270430648 0.7438626071991523 0.6750651446290039 0.6351493208946651 0.6797917049948934 0.7950177781178649 0.7464658702515062 -9999.0 -9999.0 -9999.0 -9999.0 -9999.0 -9999.0 -9999.0 -9999.0 -9999.0 -9999.0 -9999.0 -9999.0 -9999.0 -9999.0 -9999.0 -9999.0 -9999.0 -9999.0 -9999.0 -9999.0 -9999.0 -9999.0 -9999.0 -9999.0 -9999.0 -9999.0 -9999.0 -9999.0 -9999.0 -9999.0 -9999.0 -9999.0 -9999.0 -9999.0 -9999.0 -9999.0 -9999.0 -9999.0 -9999.0 -9999.0 -9999.0 -9999.0 -9999.0 -9999.0 -9999.0 -9999.0 -9999.0 -9999.0 -9999.0 -9999.0 -9999.0 -9999.0 -9999.0 -9999.0 -9999.0 -9999.0 -9999.0 -9999.0 -9999.0 -9999.0 -9999.0 -9999.0 -9999.0 -9999.0 -9999.0 -9999.0 -9999.0 -9999.0 -9999.0 -9999.0 -9999.0 -9999.0 -9999.0 -9999.0 -9999.0 -9999.0 -9999.0 -9999.0 -9999.0 -9999.0 -9999.0 -9999.0 -9999.0 -9999.0 -9999.0 -9999.0 -9999.0 -9999.0
0.9733862086012997 0.9704263505012832 1.0134621444402705 1.083377100191477 1.0493964536295382 0.8283631046567377 0.6554499681939433 0.4588115782282072 0.3373682704057735 0.2778787117493069 0.2381422185743826 0.2229192904629632 0.2528298155805938 0.273982239713653 0.2545098049526445 0.1941546497666623 0.1309753237379058 0.0564735921801694 -9999.0 -9999.0 -9999.0 -9999.0 -9999.0 -9999.0 -9999.0 -9999.0 -9999.0 -9999.0 -9999.0 -9999.0 -9999.0 -9999.0 -9999.0 -9999.0 -9999.0 -9999.0 -9999.0 -9999.0 -9999.0 -9999.0 -9999.0 -9999.0 0.9810231959004234 1.3211485078653409 1.4584453628253895 2.064510149510572 2.035778616441088 1.7768681449455392 1.5864622960537011 1.5269900910272618 1.5199757370544478 1.5340797152333108 1.591320739790348 1.461613547833989 0.7786839321222436 0.9096693759258492 0.8966804924423499 0.6180633501692697 0.5699963238189162 0.631597303930235 0.7964300711231482 0.8167473165534885 -9999.0 -9999.0 -9999.0 -9999.0 -9999.0 -9999.0 -9999.0 -9999.0 -9999.0 -9999.0 -9999.0 -9999.0 -9999.0 -9999.0 -9999.0 -9999.0 -9999.0 -9999.0 -9999.0 -9999.0 -9999.0 -9999.0 -9999.0 -9999.0 -9999.0 -9999.0 -9999.0 -9999.0 -9999.0 -9999.0 -9999.0 -9999.0 -9999.0 -9999.0 -9999.0 -9999.0 -9999.0 -9999.0 -9999.0 -9999.0 -9999.0 -9999.0 -9999.0 -9999.0 -9999.0 -9999.0 -9999.0 -9999.0 -9999.0 -9999.0 -9999.0 -9999.0 -9999.0 -9999.0 -9999.0 -9999.0 -9999.0 -9999.0 -9999.0 -9999.0 -9999.0 -9999.0 -9999.0 -9999.0 -9999.0 -9999.0 -9999.0 -9999.0 -9999.0 -9999.0 -9999.0 -9999.0 -9999.0 -9999.0 -9999.0 -9999.0 -9999.0 -9999.0 -9999.0 -9999.0 -9999.0 -9999.0 -9999.0 -9999.0 -9999.0 -9999.0 -9999.0 -9999.0
0.9857953678798408 0.9994255478496576 1.001633461462475 1.0225474792359 0.9619317554419248 0.8037967767672505 0.7008000797784921 0.6013579554447953 0.4713557076775853 0.3817770421678822 0.329110010992247 0.3051780505640331 0.322766329467048 0.3389239601877404 0.2973242610541082 0.211328388886827 0.1319779136345731 0.0641453251943774 -9999.0 -9999.0 -9999.0 -9999.0 -9999.0 -9999.0 -9999.0 -9999.0 -9999.0 -9999.0 -9999.0 -9999.0 -9999.0 -9999.0 -9999.0 -9999.0 -9999.0 -9999.0 -9999.0 -9999.0 -9999.0 -9999.0 -9999.0 -9999.0 -9999.0 1.4665175589746413 1.6072682891910155 2.0428816473216425 1.9899374505093643 1.726850040398508 1.5676961981559745 1.6016804443351218 1.5977105371057454 1.6161295827419846 1.6813784083322911 1.63940217701375 0.8072926660887825 0.865627919852118 0.93973047643426 0.6828074446124335 0.5605138097643535 0.6677021841809145 0.8348697654556338 0.8950860155103811 0.6089883572598455 -9999.0 -9999.0 -9999.0 -9999.0 -9999.0 -9999.0 -9999.0 -9999.0 -9999.0 -9999.0 -9999.0 -9999.0 -9999.0 -9999.0 -9999.0 -9999.0 -9999.0 -9999.0 -9999.0 -9999.0 -9999.0 -9999.0 -9999.0 -9999.0 -9999.0 -9999.0 -9999.0 -9999.0 -9999.0 -9999.0 -9999.0 -9999.0 -9999.0 -9999.0 -9999.0 -9999.0 -9999.0 -9999.0 -9999.0 -9999.0 -9999.0 -9999.0 -9999.0 -9999.0 -9999.0 -9999.0 -9999.0 -9999.0 -9999.0 -9999.0 -9999.0 -9999.0 -9999.0 -9999.0 -9999.0 -9999.0 -9999.0 -9999.0 -9999.0 -9999.0 -9999.0 -9999.0 -9999.0 -9999.0 -9999.0 -9999.0 -9999.0 -9999.0 -9999.0 -9999.0 -9999.0 -9999.0 -9999.0 -9999.0 -9999.0 -9999.0 -9999.0 -9999.0 -9999.0 -9999.0 -9999.0 -9999.0 -9999.0 -9999.0 -9999.0 -9999.0 -9999.0
0.9758659895359894 0.9910711971413456 1.0007936170141702 0.9935004845254514 0.928649643938518 0.7959570864253536 0.707716089599051 0.6457363905402118 0.559411888307957 0.4840368281783473 0.4248490984174277 0.3881866123407176 0.3862629763339822 0.3784010004481525 0.3283366145327842 0.219522796638039 0.1480012297022032 0.1084629933493773 0.0602308059427527 0.0062053447288751 -9999.0 -9999.0 -9999.0 -9999.0 -9999.0 -9999.0 -9999.0 -9999.0 -9999.0 -9999.0 -9999.0 -9999.0 -9999.0 -9999.0 -9999.0 -9999.0 -9999.0 -9999.0 -9999.0 -9999.0 -9999.0 -9999.0 0.1385561877059926 0.9664650206617976 1.2923603413679503 1.7235666197066188 1.7285227576251498 1.500790917102684 1.423748981871552 1.544750286556705 1.5514752403070051 1.5772039915232912 1.6061707886145755 1.623750569972564 1.589921950675941 0.9469891779768672 0.9373706747848644 0.6414479548246043 0.5770320605820554 0.744791851131227 0.8153032968394216 0.8730066037315442 0.8330390293054233 -9999.0 -9999.0 -9999.0 -9999.0 -9999.0 -9999.0 -9999.0 -9999.0 -9999.0 -9999.0 -9999.0 -9999.0 -9999.0 -9999.0 -9999.0 -9999.0 -9999.0 -9999.0 -9999.0 -9999.0 -9999.0 -9999.0 -9999.0 -9999.0 -9999.0 -9999.0 -9999.0 -9999.0 -9999.0 -9999.0 -9999.0 -9999.0 -9999.0 -9999.0 -9999.0 -9999.0 -9999.0 -9999.0 -9999.0 -9999.0 -9999.0 -9999.0 -9999.0 -9999.0 -9999.0 -9999.0 -9999.0 -9999.0 -9999.0 -9999.0 -9999.0 -9999.0 -9999.0 -9999.0 -9999.0 -9999.0 -9999.0 -9999.0 -9999.0 -9999.0 -9999.0 -9999.0 -9999.0 -9999.0 -9999.0 -9999.0 -9999.0 -9999.0 -9999.0 -9999.0 -9999.0 -9999.0 -9999.0 -9999.0 -9999.0 -9999.0 -9999.0 -9999.0 -9999.0 -9999.0 -9999.0 -9999.0 -9999.0 -9999.0 -9999.0 -9999.0 -9999.0
0.9597565162738996 0.988021934607634 1.045589765500574 1.0320903384002806 0.9695065781896148 0.875369234488456 0.7940497566227225 0.7236412801791153 0.6485550687362533 0.5845695801370769 0.512313743556335 0.4487266663708538 0.402798578304674 0.3802157989417521 0.3054844188986012 0.2078041422274412 0.1596139999479539 0.1453095126003368 0.1247400865486941 0.0858074231550496 0.0189037727128547 -9999.0 -9999.0 -9999.0 -9999.0 -9999.0 -9999.0 -9999.0 -9999.0 -9999.0 -9999.0 -9999.0 -9999.0 -9999.0 -9999.0 -9999.0 -9999.0 -9999.0 -9999.0 -9999.0 -9999.0 0.0152768090070881 0.3006425069291738 0.6887254848751034 1.0553554298015202 1.2798218389147418 1.5543342912008122 1.4193784661327564 1.3574621660612125 1.4277814414776293 1.4673440818286037 1.4979989660056734 1.5399445196771144 1.6031380128085484 1.616369188318466 0.937925329546399 0.8332121890982938 0.6709798343547521 0.5920346995802444 0.6521111747327393 0.731728377531408 0.74719343430839 0.7570152447335874 0.0592902370402803 -9999.0 -9999.0 -9999.0 -9999.0 -9999.0 -9999.0 -9999.0 -9999.0 -9999.0 -9999.0 -9999.0 -9999.0 -9999.0 -9999.0 -9999.0 -9999.0 -9999.0 -9999.0 -9999.0 -9999.0 -9999.0 -9999.0 -9999.0 -9999.0 -9999.0 -9999.0 -9999.0 -9999.0 -9999.0 -9999.0 -9999.0 -9999.0 -9999.0 -9999.0 -9999.0 -9999.0 -9999.0 -9999.0 -9999.0 -9999.0 -9999.0 -9999.0 -9999.0 -9999.0 -9999.0 -9999.0 -9999.0 -9999.0 -9999.0 -9999.0 -9999.0 -9999.0 -9999.0 -9999.0 -9999.0 -9999.0 -9999.0 -9999.0 -9999.0 -9999.0 -9999.0 -9999.0 -9999.0 -9999.0 -9999.0 -9999.0 -9999.0 -9999.0 -9999.0 -9999.0 -9999.0 -9999.0 -9999.0 -9999.0 -9999.0 -9999.0 -9999.0 -9999.0 -9999.0 -9999.0 -9999.0 -9999.0 -9999.0 -9999.0 -9999.0 -9999.0
0.9682308775481868 1.1081204217074143 1.147664424083615 1.0936510247616194 1.0275198148497469 0.997848319165398 0.9677342663386098 0.860033560052475 0.765571436505877 0.697027697025536 0.6280177753598443 0.5477138474520158 0.4637150984493444 0.3834574117317777 0.2895347323091871 0.1957678642214247 0.1590728428220726 0.1586770800459284 0.172138303571092 0.1701104321317048 0.1303204677276747 0.0858859838072246 0.0304246420372102 -9999.0 -9999.0 -9999.0 -9999.0 -9999.0 -9999.0 -9999.0 -9999.0 -9999.0 -9999.0 -9999.0 -9999.0 -9999.0 -9999.0 -9999.0 -9999.0 -9999.0 -9999.0 0.2451030408094263 0.6503011094025979 0.9015882751162548 1.01746948100406 1.0686437644119853 1.3775815021213524 1.5076135557355017 1.4993826889811972 1.5307920458106925 1.722021819800139 1.539962980354668 1.536396787375686 1.6078433616043435 1.5747693460961227 0.963862401468957 0.8554229284478253 0.8277718194114372 0.702990978560222 0.6409676026350098 0.5474377443650171 0.538353558277425 0.7071372944844976 0.7447036515430212 -9999.0 -9999.0 -9999.0 -9999.0 -9999.0 -9999.0 -9999.0 -9999.0 -9999.0 -9999.0 -9999.0 -9999.0 -9999.0 -9999.0 -9999.0 -9999.0 -9999.0 -9999.0 -9999.0 -9999.0 -9999.0 -9999.0 -9999.0 -9999.0 -9999.0 -9999.0 -9999.0 -9999.0 -9999.0 -9999.0 -9999.0 -9999.0 -9999.0 -9999.0 -9999.0 -9999.0 -9999.0 -9999.0 -9999.0 -9999.0 -9999.0 -9999.0 -9999.0 -9999.0 -9999.0 -9999.0 -9999.0 -9999.0 -9999.0 -9999.0 -9999.0 -9999.0 -9999.0 -9999.0 -9999.0 -9999.0 -9999.0 -9999.0 -9999.0 -9999.0 -9999.0 -9999.0 -9999.0 -9999.0 -9999.0 -9999.0 -9999.0 -9999.0 -9999.0 -9999.0 -9999.0 -9999.0 -9999.0 -9999.0 -9999.0 -9999.0 -9999.0 -9999.0 -9999.0 -9999.0 -9999.0 -9999.0 -9999.0 -9999.0 -9999.0 -9999.0
1.0551359042858874 1.205963914975739 1.2312426207304736 1.203649890175361 1.1065348845634229 1.0361035046928448 1.006103134656122 0.932859506252018 0.8549216272735835 0.8093947501788712 0.7793248273238889 0.7138392208319694 0.612845963536254 0.4749563343976218 0.3214846484882621 0.1880894722037183 0.1452814297864719 0.1545650975844326 0.191577613625189 0.1967483675117272 0.1582445646468411 0.0926057905628472 0.0323645544861571 0.0133373546997428 -9999.0 -9999.0 -9999.0 -9999.0 -9999.0 -9999.0 -9999.0 -9999.0 0.0516645925635073 0.0769603022110338 -9999.0 -9999.0 -9999.0 -9999.0 -9999.0 -9999.0 -9999.0 0.2426344267917545 0.532859944641569 0.8073394397715994 0.7758379517196632 0.7591136053686705 1.1183958290041358 1.5013997266840589 1.6864661911333323 1.761991185456934 1.9690876162311488 1.6978189339803629 1.4531048789271446 1.483008907810382 1.462943716172737 0.8685933559256237 0.8764374820599021 0.910092095467764 0.8608076140245269 0.6764282640956976 0.503385575479088 0.4945522710820913 0.5925291146297053 0.9241360391294652 -9999.0 -9999.0 -9999.0 -9999.0 -9999.0 -9999.0 -9999.0 -9999.0 -9999.0 -9999.0 -9999.0 -9999.0 -9999.0 -9999.0 -9999.0 -9999.0 -9999.0 -9999.0 -9999.0 -9999.0 -9999.0 -9999.0 -9999.0 -9999.0 -9999.0 -9999.0 -9999.0 -9999.0 -9999.0 -9999.0 -9999.0 -9999.0 -9999.0 -9999.0 -9999.0 -9999.0 -9999.0 -9999.0 -9999.0 -9999.0 -9999.0 -9999.0 -9999.0 -9999.0 -9999.0 -9999.0 -9999.0 -9999.0 -9999.0 -9999.0 -9999.0 -9999.0 -9999.0 -9999.0 -9999.0 -9999.0 -9999.0 -9999.0 -9999.0 -9999.0 -9999.0 -9999.0 -9999.0 -9999.0 -9999.0 -9999.0 -9999.0 -9999.0 -9999.0 -9999.0 -9999.0 -9999.0 -9999.0 -9999.0 -9999.0 -9999.0 -9999.0 -9999.0 -9999.0 -9999.0 -9999.0 -9999.0 -9999.0 -9999.0 -9999.0 -9999.0
1.112267099583279 1.1600564899743129 1.2394639948505928 1.2591447748453302 1.2327040000129172 1.127550724692624 1.0292715348224386 0.9792401517040304 0.9297168516574588 0.928803980786354 0.9195103374879152 0.8902801737047483 0.8218073676546197 0.6784979877974147 0.4547885813708818 0.2219261424838422 0.1249875478684104 0.1169336010493434 0.1652117910889073 0.1809458344280595 0.1191665320632936 0.0240243741480466 -9999.0 -9999.0 -9999.0 -9999.0 -9999.0 -9999.0 -9999.0 -9999.0 0.0007700100067401 0.011471637644481 0.1161478054816119 0.1325646865034619 -9999.0 -9999.0 -9999.0 -9999.0 -9999.0 -9999.0 -9999.0 0.1269245881539873 0.214608790349439 0.2488889440306252 0.2096185598910575 0.2924795377953435 0.963712205601443 1.1901750647987088 1.5780820923450478 1.6934080848700312 1.827242136265428 1.6924742880662866 1.3927662820746116 1.377214649058058 1.369488926423926 0.7940000680351091 0.8290126814056605 0.9095916704137196 0.7993798818060041 0.6814732371544321 0.5118575909311565 0.4593460210788809 0.5248834925906094 0.8274959501433674 0.7706935682987 -9999.0 -9999.0 -9999.0 -9999.0 -9999.0 -9999.0 -9999.0 -9999.0 -9999.0 -9999.0 -9999.0 -9999.0 -9999.0 -9999.0 -9999.0 -9999.0 -9999.0 -9999.0 -9999.0 -9999.0 -9999.0 -9999.0 -9999.0 -9999.0 -9999.0 -9999.0 -9999.0 -9999.0 -9999.0 -9999.0 -9999.0 -9999.0 -9999.0 -9999.0 -9999.0 -9999.0 -9999.0 -9999.0 -9999.0 -9999.0 -9999.0 -9999.0 -9999.0 -9999.0 -9999.0 -9999.0 -9999.0 -9999.0 -9999.0 -9999.0 -9999.0 -9999.0 -9999.0 -9999.0 -9999.0 -9999.0 -9999.0 -9999.0 -9999.0 -9999.0 -9999.0 -9999.0 -9999.0 -9999.0 -9999.0 -9999.0 -9999.0 -9999.0 -9999.0 -9999.0 -9999.0 -9999.0 -9999.0 -9999.0 -9999.0 -9999.0 -9999.0 -9999.0 -9999.0 -9999.0 -9999.0 -9999.0 -9999.0 -9999.0 -9999.0
1.189492257695344 1.1971585620348022 1.261865209725158 1.336976001874469 1.371701196303921 1.299463065866323 1.1733221624783303 1.056125051783053 1.0177570559414706 1.024907969959247 1.0115935349162053 1.015327954599589 1.007761564689667 0.9161851941502892 0.6739764018539474 0.3576760266808285 0.1262225657106835 0.0877862183865864 0.11722092416149 0.1246533232265082 0.0429846028471189 -9999.0 -9999.0 -9999.0 -9999.0 -9999.0 0.0232808872453995 0.0297183845790773 0.0141115125384796 0.0071514473271089 6.3156105825544e-05 0.0105392661385349 0.1742709200782734 0.1756087986094007 -9999.0 -9999.0 -9999.0 0.1630955961189575 -9999.0 -9999.0 -9999.0 0.0542635522921638 0.1192378013500683 -9999.0 -9999.0 -9999.0 -9999.0 0.9289727841911464 1.3396729500433715 1.5521445828589913 1.6945933458076703 1.6150615275254467 1.3894157840120889 1.32254938156793 1.3216803597005096 0.8209286265327151 0.850298924426107 0.918640812421847 0.8098259784878534 0.6674478726582384 0.5630288861023662 0.4643529671521635 0.5117460110316056 0.6242970173505329 0.7676827012876087 0.5461655344017688 -9999.0 -9999.0 -9999.0 -9999.0 -9999.0 -9999.0 -9999.0 -9999.0 -9999.0 -9999.0 -9999.0 -9999.0 -9999.0 -9999.0 -9999.0 -9999.0 -9999.0 -9999.0 -9999.0 -9999.0 -9999.0 -9999.0 -9999.0 -9999.0 -9999.0 -9999.0 -9999.0 -9999.0 -9999.0 -9999.0 -9999.0 -9999.0 -9999.0 -9999.0 -9999.0 -9999.0 -9999.0 -9999.0 -9999.0 -9999.0 -9999.0 -9999.0 -9999.0 -9999.0 -9999.0 -9999.0 -9999.0 -9999.0 -9999.0 -9999.0 -9999.0 -9999.0 -9999.0 -9999.0 -9999.0 -9999.0 -9999.0 -9999.0 -9999.0 -9999.0 -9999.0 -9999.0 -9999.0 -9999.0 -9999.0 -9999.0 -9999.0 -9999.0 -9999.0 -9999.0 -9999.0 -9999.0 -9999.0 -9999.0 -9999.0 -9999.0 -9999.0 -9999.0 -9999.0 -9999.0 -9999.0 -9999.0 -9999.0 -9999.0
1.3514826687295158 1.280151989695366 1.3374709200441306 1.4164019738755234 1.4772968181276838 1.4747040636213682 1.3531462716492682 1.2176808131145744 1.1926097974621896 1.1977532628266538 1.1744742129456005 1.179295843172066 1.1588608422897182 1.0588494863464435 0.8743883982694002 0.5359490675011477 0.2100416629276447 0.0857748163931485 0.0961093545560062 0.0851438709816165 -9999.0 -9999.0 -9999.0 -9999.0 -9999.0 -9999.0 0.0097200164152029 0.0196679062458032 0.0088360558055923 -9999.0 -9999.0 0.0882870880149788 0.2150619321943324 0.2142500589323502 0.0756613531860724 0.0140620113030593 0.3850960515008116 0.7867025490168474 0.279693939815632 -9999.0 -9999.0 -9999.0 -9999.0 -9999.0 -9999.0 -9999.0 -9999.0 0.6793933512855853 0.8986900068836334 1.272885544415928 1.5145768691592592 1.5256620180578475 1.3771264472640148 1.2288009271601352 1.208652219053675 1.28169535036477 1.000959282642639 0.92668377772515 0.8671843346654105 0.7113380994785754 0.5672064967705795 0.5009478234615345 0.4586417982770016 0.4624050584753896 0.5974210629334766 0.681792827508893 0.0363889872459763 -9999.0 -9999.0 -9999.0 -9999.0 -9999.0 -9999.0 -9999.0 -9999.0 -9999.0 -9999.0 -9999.0 -9999.0 -9999.0 -9999.0 -9999.0 -9999.0 -9999.0 -9999.0 -9999.0 -9999.0 -9999.0 -9999.0 -9999.0 -9999.0 -9999.0 -9999.0 -9999.0 -9999.0 -9999.0 -9999.0 -9999.0 -9999.0 -9999.0 -9999.0 -9999.0 -9999.0 -9999.0 -9999.0 -9999.0 -9999.0 -9999.0 -9999.0 -9999.0 -9999.0 -9999.0 -9999.0 -9999.0 -9999.0 -9999.0 -9999.0 -9999.0 -9999.0 -9999.0 -9999.0 -9999.0 -9999.0 -9999.0 -9999.0 -9999.0 -9999.0 -9999.0 -9999.0 -9999.0 -9999.0 -9999.0 -9999.0 -9999.0 -9999.0 -9999.0 -9999.0 -9999.0 -9999.0 -9999.0 -9999.0 -9999.0 -9999.0 -9999.0 -9999.0 -9999.0 -9999.0 -9999.0 -9999.0 -9999.0
1.6025108004012336 1.4410139280161207 1.385680506066098 1.400490543282467 1.491504083790386 1.5303845753685388 1.4818738466749086 1.3621341424324458 1.3460878519014892 1.344544881212023 1.3163491739952011 1.360287731917888 1.284853760421968 1.1455589522399785 0.9737775568610274 0.6998507154784201 0.4282778927457845 0.220855623878029 0.1018525867630653 0.0130160478794477 -9999.0 -9999.0 -9999.0 -9999.0 -9999.0 -9999.0 0.0010774077956512 -9999.0 -9999.0 -9999.0 0.0948814351941531 0.2375321483101358 0.3243462344038198 0.3059972572841515 0.1838895516871693 0.0968358055337167 0.3675624724652672 1.8455554419402984 0.859387023006694 0.4565748602551325 0.1101407356411033 -9999.0 -9999.0 -9999.0 -9999.0 -9999.0 -9999.0 -9999.0 0.7827535635839585 1.1265828479882536 1.3304532070961377 1.4379614807005952 1.3702866053425906 1.196683015104293 1.2000690288937403 1.5752616068714185 1.7610498792237244 1.012875264995616 0.907651658852756 0.804061454581559 0.6032091716362317 0.5100149163904246 0.4075485966889289 0.3818050321656329 0.4499501484084459 0.5191428460688005 0.4816356662567788 0.0882266467121826 -9999.0 -9999.0 -9999.0 -9999.0 -9999.0 -9999.0 -9999.0 -9999.0 -9999.0 -9999.0 -9999.0 -9999.0 -9999.0 -9999.0 -9999.0 -9999.0 -9999.0 -9999.0 -9999.0 -9999.0 -9999.0 -9999.0 -9999.0 -9999.0 -9999.0 -9999.0 -9999.0 -9999.0 -9999.0 -9999.0 -9999.0 -9999.0 -9999.0 -9999.0 -9999.0 -9999.0 -9999.0 -9999.0 -9999.0 -9999.0 -9999.0 -9999.0 -9999.0 -9999.0 -9999.0 -9999.0 -9999.0 -9999.0 -9999.0 -9999.0 -9999.0 -9999.0 -9999.0 -9999.0 -9999.0 -9999.0 -9999.0 -9999.0 -9999.0 -9999.0 -9999.0 -9999.0 -9999.0 -9999.0 -9999.0 -9999.0 -9999.0 -9999.0 -9999.0 -9999.0 -9999.0 -9999.0 -9999.0 -9999.0 -9999.0 -9999.0 -9999.0 -9999.0 -9999.0 -9999.0 -9999.0 -9999.0
1.8677457544348888 1.6375093963336889 1.4326847408053225 1.388815669148172 1.4218773299301162 1.5239857157777112 1.5257552151262672 1.4615372829063542 1.4842237467976558 1.5782508678686713 1.5859911950797103 1.4956876348051775 1.38086421838903 1.19038347573845 1.0072588282302413 0.8068285510186557 0.6137625697380098 0.4737306400656428 0.2147721702511554 -9999.0 -9999.0 -9999.0 -9999.0 -9999.0 0.0028752620023434 -9999.0 -9999.0 -9999.0 -9999.0 0.0458346680263036 0.2197693181154332 0.3489950119490831 0.396655499419989 0.3649637720845042 0.2559910677068417 0.1323073777003874 0.1040495145056986 4.516289393199291 4.6068510425351 0.9050406846041478 0.5736498017828402 0.0284327451410932 -9999.0 -9999.0 -9999.0 -9999.0 -9999.0 -9999.0 -9999.0 0.8507559804344156 1.228287045359591 1.4029230421692835 1.4001966404536177 1.3212572359310728 1.4728528386235362 2.023088837013087 1.898001964818336 1.6201863959535954 0.9979291148780428 0.9676885409205296 0.8037813745323833 0.574132728724956 0.4425298166476893 0.3922396287193448 0.4206861768770923 0.460598802367245 0.5853836915674498 0.6420736858010418 0.0259517219335586 -9999.0 -9999.0 -9999.0 -9999.0 -9999.0 -9999.0 -9999.0 -9999.0 -9999.0 -9999.0 -9999.0 -9999.0 -9999.0 -9999.0 -9999.0 -9999.0 -9999.0 -9999.0 -9999.0 -9999.0 -9999.0 -9999.0 -9999.0 -9999.0 -9999.0 -9999.0 -9999.0 -9999.0 -9999.0 -9999.0 -9999.0 -9999.0 -9999.0 -9999.0 -9999.0 -9999.0 -9999.0 -9999.0 -9999.0 -9999.0 -9999.0 -9999.0 -9999.0 -9999.0 -9999.0 -9999.0 -9999.0 -9999.0 -9999.0 -9999.0 -9999.0 -9999.0 -9999.0 -9999.0 -9999.0 -9999.0 -9999.0 -9999.0 -9999.0 -9999.0 -9999.0 -9999.0 -9999.0 -9999.0 -9999.0 -9999.0 -9999.0 -9999.0 -9999.0 -9999.0 -9999.0 -9999.0 -9999.0 -9999.0 -9999.0 -9999.0 -9999.0 -9999.0 -9999.0 -9999.0 -9999.0
2.0054677416592783 1.9596734659582544 1.7149561854233502 1.5114600505704026 1.4632130808681445 1.5482158439668587 1.6119716712504624 1.5764157106190562 1.6580352852154836 1.7746811024771598 1.6957211675862385 1.537082770470758 1.352988384608698 1.190046548049833 1.015571264602599 0.8374140376851736 0.6871917026862294 0.5499745830696892 0.2445839886239351 0.0103053032095087 -9999.0 -9999.0 0.0024935414707706 0.002089156662918 -9999.0 -9999.0 -9999.0 -9999.0 0.0212045500966583 0.1770331554964445 0.3493371207443098 0.4485234655585295 0.4738216939739217 0.4187384245828135 0.2984656118026791 0.1474724462855881 0.1042973538608444 0.1329685309859299 6.683782305532944 2.877757827423153 0.6294952115482157 0.3889226753631604 0.1228924178646903 -9999.0 -9999.0 -9999.0 -9999.0 -9999.0 -9999.0 0.3543676908607084 0.9061030014680528 1.406460299426475 1.4537614033236368 1.4592729770537618 1.5175826021628365 1.6579679328979249 1.654002618131268 1.6380837703375462 1.5846696776898193 1.2190708589997663 1.161408213757869 0.6563171506536858 0.5021581999124046 0.4281182127676294 0.4197144930301385 0.4773781412899238 0.6914882245702125 0.8113211592852041 0.6249932050695686 -9999.0 -9999.0 -9999.0 -9999.0 -9999.0 -9999.0 -9999.0 -9999.0 -9999.0 -9999.0 -9999.0 -9999.0 -9999.0 -9999.0 -9999.0 -9999.0 -9999.0 -9999.0 -9999.0 -9999.0 -9999.0 -9999.0 -9999.0 -9999.0 -9999.0 -9999.0 -9999.0 -9999.0 -9999.0 -9999.0 -9999.0 -9999.0 -9999.0 -9999.0 -9999.0 -9999.0 -9999.0 -9999.0 -9999.0 -9999.0 -9999.0 -9999.0 -9999.0 -9999.0 -9999.0 -9999.0 -9999.0 -9999.0 -9999.0 -9999.0 -9999.0 -9999.0 -9999.0 -9999.0 -9999.0 -9999.0 -9999.0 -9999.0 -9999.0 -9999.0 -9999.0 -9999.0 -9999.0 -9999.0 -9999.0 -9999.0 -9999.0 -9999.0 -9999.0 -9999.0 -9999.0 -9999.0 -9999.0 -9999.0 -9999.0 -9999.0 -9999.0 -9999.0 -9999.0 -9999.0 -9999.0
1.9984666563509663 2.0055381293213257 2.0070230075845377 1.975169848294176 1.8701174401706209 1.906721174089625 1.914188977257308 1.8144865195515036 1.8686302926459728 1.884515344202816 1.643997725253972 1.4107762874230985 1.2383184966819658 1.1076728844981054 1.0033947363799616 0.7875534460585141 0.622931679229432 0.452818735108811 0.3239811736903825 0.0864066581075296 -9999.0 0.0030756785852823 0.0256853493919319 0.0078019854989041 -9999.0 -9999.0 0.0480804664257656 0.1870657738316845 0.2891584428964631 0.420535179786651 0.5289014390859091 0.577528086779627 0.5816807292931704 0.4963136637873479 0.3553637140923757 0.1862097749628777 0.1287791898161134 0.1608577635158985 0.1932369875278709 1.1437987597027146 0.5133325791123966 -9999.0 0.2525148915531262 0.0808919129536277 -9999.0 -9999.0 -9999.0 -9999.0 -9999.0 -9999.0 0.772766880224084 1.209731890114412 1.4615440704891038 1.4752171835012462 1.5024470403592876 1.522653451475922 1.5834311126126903 1.6991132490450438 1.9571488183163268 1.449472706524619 1.211625324855878 1.0321322050595727 0.5956529534473497 0.4566240808531287 0.4435419005293647 0.5117324106780954 0.8458400117469564 0.6840719757409208 0.6476567001033068 0.5981702916211074 -9999.0 -9999.0 -9999.0 -9999.0 -9999.0 -9999.0 -9999.0 -9999.0 -9999.0 -9999.0 -9999.0 -9999.0 -9999.0 -9999.0 -9999.0 -9999.0 -9999.0 -9999.0 -9999.0 -9999.0 -9999.0 -9999.0 -9999.0 -9999.0 -9999.0 -9999.0 -9999.0 -9999.0 -9999.0 -9999.0 -9999.0 -9999.0 -9999.0 -9999.0 -9999.0 -9999.0 -9999.0 -9999.0 -9999.0 -9999.0 -9999.0 -9999.0 -9999.0 -9999.0 -9999.0 -9999.0 -9999.0 -9999.0 -9999.0 -9999.0 -9999.0 -9999.0 -9999.0 -9999.0 -9999.0 -9999.0 -9999.0 -9999.0 -9999.0 -9999.0 -9999.0 -9999.0 -9999.0 -9999.0 -9999.0 -9999.0 -9999.0 -9999.0 -9999.0 -9999.0 -9999.0 -9999.0 -9999.0 -9999.0 -9999.0 -9999.0 -9999.0 -9999.0 -9999.0 -9999.0
1.8643571465420297 1.9457516046092211 2.000033496982665 2.00587480575087 2.00121110885965 2.0054195948170825 2.016842494079423 1.985880002911021 2.061804919648098 2.052419351942175 1.6207667648024815 1.3931472166138494 1.21133418156912 1.0974334786487048 0.9870213445503052 0.7339609132630767 0.618238637421474 0.524135570153494 0.4744090795636428 0.2879974792732571 0.0761563130535665 0.08687944747437 0.1299352087014995 0.1170507005644715 0.0714782359820149 0.1244390174292158 0.2544895954829884 0.3926206027619678 0.5172197200373718 0.7193708695729766 0.764315345070701 0.7287703163791726 0.6765227760643788 0.5809026340556135 0.43158961305128 0.2716309028227139 0.1832146649084908 0.1853332783752815 0.1908342734331431 0.2225978092328755 0.0704913488049684 -9999.0 -9999.0 0.1908662707260949 0.0768300750631036 -9999.0 -9999.0 -9999.0 -9999.0 -9999.0 -9999.0 0.981837055000064 1.3279334153940232 1.5306003305130722 1.5853401440473025 1.596531520841696 1.5918797923856094 1.6311464926949395 2.01183662504744 1.9663946287135063 1.2928051079195106 1.2400444794567371 0.7375810325869384 0.478636152101991 0.4605845553141022 0.5492278366123174 0.5865470478797619 0.5964875977153702 0.6345905747934223 0.7228655484589857 0.6325518842977773 -9999.0 -9999.0 -9999.0 -9999.0 -9999.0 -9999.0 -9999.0 -9999.0 -9999.0 -9999.0 -9999.0 -9999.0 -9999.0 -9999.0 -9999.0 -9999.0 -9999.0 -9999.0 -9999.0 -9999.0 -9999.0 -9999.0 -9999.0 -9999.0 -9999.0 -9999.0 -9999.0 -9999.0 -9999.0 -9999.0 -9999.0 -9999.0 -9999.0 -9999.0 -9999.0 -9999.0 -9999.0 -9999.0 -9999.0 -9999.0 -9999.0 -9999.0 -9999.0 -9999.0 -9999.0 -9999.0 -9999.0 -9999.0 -9999.0 -9999.0 -9999.0 -9999.0 -9999.0 -9999.0 -9999.0 -9999.0 -9999.0 -9999.0 -9999.0 -9999.0 -9999.0 -9999.0 -9999.0 -9999.0 -9999.0 -9999.0 -9999.0 -9999.0 -9999.0 -9999.0 -9999.0 -9999.0 -9999.0 -9999.0 -9999.0 -9999.0 -9999.0 -9999.0 -9999.0
1.7002819956388215 1.7782139665660002 1.8951836512133868 1.9668119535189927 1.996122250364876 1.9985902168586709 1.997423339881153 1.9983088684935424 2.0872318937181147 2.1535493946679507 1.8554758622384664 1.603460329393366 1.4296168347909242 1.2022779903858805 1.0002478711045812 0.8052412767184625 0.7382005601983495 0.6438032329488115 0.5418316072471154 0.3838741531066347 0.2540938642608811 0.2510876021629824 0.3270381101258911 0.3414521523723863 0.3014192121804725 0.3029180535963698 0.3812561934850195 0.5000326331193915 0.7534169172186476 0.94386395544121 0.9086824277555758 0.8079222656970544 0.7180392760586093 0.6024591947849958 0.4612382979779889 0.3378378203577047 0.2548734171719093 0.2062290977888206 0.2139959404682597 0.2413282719840733 0.2017162522068327 -9999.0 -9999.0 -9999.0 -9999.0 0.0570284002711911 -9999.0 -9999.0 -9999.0 -9999.0 -9999.0 0.2121611419076548 1.019686592260621 1.473524597749766 1.9171904058051716 1.9615083202190369 1.6126450476972258 1.5365405417283902 1.8995787397069637 2.091021314480385 1.7090526663859922 1.2483528255688503 0.7232363395832323 0.5635344622511911 0.5232413124648019 0.4983322688731885 0.4939370184990228 0.5523512097633476 0.5452429150761052 0.6236094791959612 0.7366772865008449 0.4795822106752427 -9999.0 -9999.0 -9999.0 -9999.0 -9999.0 -9999.0 -9999.0 -9999.0 -9999.0 -9999.0 -9999.0 -9999.0 -9999.0 -9999.0 -9999.0 -9999.0 -9999.0 -9999.0 -9999.0 -9999.0 -9999.0 -9999.0 -9999.0 -9999.0 -9999.0 -9999.0 -9999.0 -9999.0 -9999.0 -9999.0 -9999.0 -9999.0 -9999.0 -9999.0 -9999.0 -9999.0 -9999.0 -9999.0 -9999.0 -9999.0 -9999.0 -9999.0 -9999.0 -9999.0 -9999.0 -9999.0 -9999.0 -9999.0 -9999.0 -9999.0 -9999.0 -9999.0 -9999.0 -9999.0 -9999.0 -9999.0 -9999.0 -9999.0 -9999.0 -9999.0 -9999.0 -9999.0 -9999.0 -9999.0 -9999.0 -9999.0 -9999.0 -9999.0 -9999.0 -9999.0 -9999.0 -9999.0 -9999.0 -9999.0 -9999.0 -9999.0 -9999.0 -9999.0
1.7045202912423705 1.7605013523540909 1.8530934574158908 1.9286027482578172 1.9801136010962752 2.0000644843255944 2.006109963814673 1.9995362896390236 1.996374267987092 2.0001546809454345 1.9921527220146455 1.905088520686016 1.80758684216072 1.5050397421218324 1.0996742462979037 0.8412540742337278 0.7511324945061046 0.6272264627231079 0.4877389699064136 0.4172505607618242 0.3608005881895951 0.3960860988507318 0.4547822349301355 0.4581534845529196 0.4514366792552099 0.4842193913260143 0.5733712623166464 0.7519912554923773 0.9876145262972448 1.0085859424432757 0.9364482881907504 0.8017395724734309 0.6599133879772436 0.5248008193342335 0.4111418200626718 0.3485889115713368 0.3349705565796294 0.3232544027295975 0.3264242431890889 0.2899663166164429 0.2653802214101705 -9999.0 -9999.0 -9999.0 -9999.0 -9999.0 0.1897366908602671 -9999.0 -9999.0 -9999.0 -9999.0 -9999.0 0.8992904591139345 1.194716899210849 1.8915976765707845 1.9238962776076929 1.7656813193036671 1.7972802136941877 2.0329963847057986 2.1319344181077406 2.0647635381925595 1.2176503371812155 0.783221542659903 0.7059370739410867 0.5498631965769127 0.4907663186360755 0.4434712960129076 0.3699769158335941 0.3624423401625575 0.5021075042884642 0.6792895836224804 0.715420141878498 -9999.0 -9999.0 -9999.0 -9999.0 -9999.0 -9999.0 -9999.0 -9999.0 -9999.0 -9999.0 -9999.0 -9999.0 -9999.0 -9999.0 -9999.0 -9999.0 -9999.0 -9999.0 -9999.0 -9999.0 -9999.0 -9999.0 -9999.0 -9999.0 -9999.0 -9999.0 -9999.0 -9999.0 -9999.0 -9999.0 -9999.0 -9999.0 -9999.0 -9999.0 -9999.0 -9999.0 -9999.0 -9999.0 -9999.0 -9999.0 -9999.0 -9999.0 -9999.0 -9999.0 -9999.0 -9999.0 -9999.0 -9999.0 -9999.0 -9999.0 -9999.0 -9999.0 -9999.0 -9999.0 -9999.0 -9999.0 -9999.0 -9999.0 -9999.0 -9999.0 -9999.0 -9999.0 -9999.0 -9999.0 -9999.0 -9999.0 -9999.0 -9999.0 -9999.0 -9999.0 -9999.0 -9999.0 -9999.0 -9999.0 -9999.0 -9999.0 -9999.0 -9999.0
1.8982531942074383 1.937255232319211 1.9421919326995347 1.9692930311346897 2.002381542011015 2.0896418649767945 2.043558810744293 1.9942079964231123 1.97429869735445 1.9915602566047688 1.9995407989926832 1.9980987007423272 1.984694932621056 1.784692480808328 1.304168587217713 0.8363199196032207 0.6430736810105664 0.517630383983529 0.4540052819770208 0.4455090904960662 0.455276024031262 0.4762068033462596 0.4763013813131163 0.4773022470463069 0.5244604202126917 0.6474476490290426 0.7842077124926965 0.985307784931002 1.0927331062611905 1.027949920213285 0.7936702671650617 0.6520751179693062 0.5189376339101001 0.4098829071147185 0.3428826018344357 0.3343691169604519 0.3481237969477631 0.3994522406796497 0.4123465007877867 0.3379235079665291 0.2705177779929649 0.2469854798482694 -9999.0 -9999.0 -9999.0 -9999.0 -9999.0 0.1065600336343659 -9999.0 -9999.0 -9999.0 0.0758698223495088 0.615191943777089 1.0766815951559188 1.3576475961979275 1.7428072536936008 1.9465424423573952 2.0299696854561207 2.084311226341386 2.178940177652035 2.091157248690252 1.7086000086013358 0.8319674422412434 0.7641445823570897 0.6706221475672819 0.520108387999324 0.4467022094652885 0.3536242630006668 0.4272754810992119 0.6065472871377715 0.6467561522246776 0.6988499030946062 0.6653440582732655 -9999.0 -9999.0 -9999.0 -9999.0 -9999.0 -9999.0 -9999.0 -9999.0 -9999.0 -9999.0 -9999.0 -9999.0 -9999.0 -9999.0 -9999.0 -9999.0 -9999.0 -9999.0 -9999.0 -9999.0 -9999.0 -9999.0 -9999.0 -9999.0 -9999.0 -9999.0 -9999.0 -9999.0 -9999.0 -9999.0 -9999.0 -9999.0 -9999.0 -9999.0 -9999.0 -9999.0 -9999.0 -9999.0 -9999.0 -9999.0 -9999.0 -9999.0 -9999.0 -9999.0 -9999.0 -9999.0 -9999.0 -9999.0 -9999.0 -9999.0 -9999.0 -9999.0 -9999.0 -9999.0 -9999.0 -9999.0 -9999.0 -9999.0 -9999.0 -9999.0 -9999.0 -9999.0 -9999.0 -9999.0 -9999.0 -9999.0 -9999.0 -9999.0 -9999.0 -9999.0 -9999.0 -9999.0 -9999.0 -9999.0 -9999.0 -9999.0 -9999.0
2.039369910300728 2.079137347906158 2.0729371488623487 2.073504921533553 2.1430146130435226 2.2158486153070918 2.07705728715311 1.8981543285726796 1.8301024770768413 1.8960635436540447 1.9825949088224035 1.9975555572204309 2.001339682061624 2.003922589642953 1.7744676141000408 1.143684411507277 0.7500882730925851 0.5679364988565397 0.527505250934591 0.5447451489622324 0.5230819283175497 0.4902363582188723 0.4571452853260481 0.4613620683727538 0.6522951688306146 0.8570351578512697 1.044768020752863 1.2078219974631854 1.0960213155510543 0.7759279092724504 0.6103948376063559 0.4944126733151457 0.4042626032904824 0.3278400214095819 0.2776199787920503 0.2674121270089195 0.3015859260094935 0.3594269363135002 0.3739349434496519 0.3216140401496395 0.2598781792828488 0.2329498857587145 0.1886528399407518 -9999.0 -9999.0 -9999.0 -9999.0 -9999.0 0.0742268932796816 0.0394532523286593 0.2393095279450131 0.7142011039545448 0.9293186662473042 0.938079848627702 1.1363427483694395 1.3502191846606104 1.993957898988788 2.240034127884947 2.2607174767989613 2.15756617843591 1.8109336222215475 1.6157561039907578 1.3791470917437945 0.7636637935978503 0.6962262997004887 0.5942494064691174 0.5300194812804122 0.5841739774062444 0.6619764047988355 0.7134407776159308 0.7554959828079713 0.7902505936438391 0.8190485371794751 0.64633833007104 -9999.0 -9999.0 -9999.0 -9999.0 -9999.0 -9999.0 -9999.0 -9999.0 -9999.0 -9999.0 -9999.0 -9999.0 -9999.0 -9999.0 -9999.0 -9999.0 -9999.0 -9999.0 -9999.0 -9999.0 -9999.0 -9999.0 -9999.0 -9999.0 -9999.0 -9999.0 -9999.0 -9999.0 -9999.0 -9999.0 -9999.0 -9999.0 -9999.0 -9999.0 -9999.0 -9999.0 -9999.0 -9999.0 -9999.0 -9999.0 -9999.0 -9999.0 -9999.0 -9999.0 -9999.0 -9999.0 -9999.0 -9999.0 -9999.0 -9999.0 -9999.0 -9999.0 -9999.0 -9999.0 -9999.0 -9999.0 -9999.0 -9999.0 -9999.0 -9999.0 -9999.0 -9999.0 -9999.0 -9999.0 -9999.0 -9999.0 -9999.0 -9999.0 -9999.0 -9999.0 -9999.0 -9999.0 -9999.0 -9999.0 -9999.0 -9999.0
2.1222056229386466 2.165230934449412 2.1725996615758563 2.1742401074156525 2.189312679780608 2.1938900713000207 2.0091281656827444 1.790092885958833 1.6766858796348991 1.651283809951814 1.7771277348200505 1.9150737096876584 1.987920503547209 2.004882766023578 2.0139145851135254 2.0005453096160952 1.724200620407396 0.974387213487396 0.6745171769782213 0.6116398794805861 0.5895496123052166 0.561276233649857 0.4945632218202336 0.587441234044813 0.9240278344363104 1.148330110220427 1.2110942271922096 1.1433721896045037 0.8398270337651776 0.652932437930435 0.521151102296138 0.4386024519439698 0.3857097636828265 0.3211324915322132 0.2557927498458729 0.2254546637336389 0.2141814266770638 0.2426720033029381 0.288037539782238 0.2830023966627155 0.2526832271805387 0.214098780953363 0.1811464956312908 0.1353715334283242 -9999.0 -9999.0 -9999.0 -9999.0 -9999.0 0.1507849200699279 0.7482654065433065 1.0952163351007265 1.0445871998028045 0.8893770699038268 0.9404216986160988 1.1568024506301295 1.6639352716843234 2.379637583677979 2.2996901520345747 1.929463305858723 1.5083492364152065 1.3521897243700498 1.3666449350959675 0.89977014167357 0.6079385096532237 0.5921282927595743 0.7066162892755654 0.8467019562552939 1.0275578032157064 1.110259194778222 1.087560628115593 1.0688317373489948 1.068227665446266 0.9477585930891652 0.5989988338911324 -9999.0 -9999.0 -9999.0 -9999.0 -9999.0 -9999.0 -9999.0 -9999.0 -9999.0 -9999.0 -9999.0 -9999.0 -9999.0 -9999.0 -9999.0 -9999.0 -9999.0 -9999.0 -9999.0 -9999.0 -9999.0 -9999.0 -9999.0 -9999.0 -9999.0 -9999.0 -9999.0 -9999.0 -9999.0 -9999.0 -9999.0 -9999.0 -9999.0 -9999.0 -9999.0 -9999.0 -9999.0 -9999.0 -9999.0 -9999.0 -9999.0 -9999.0 -9999.0 -9999.0 -9999.0 -9999.0 -9999.0 -9999.0 -9999.0 -9999.0 -9999.0 -9999.0 -9999.0 -9999.0 -9999.0 -9999.0 -9999.0 -9999.0 -9999.0 -9999.0 -9999.0 -9999.0 -9999.0 -9999.0 -9999.0 -9999.0 -9999.0 -9999.0 -9999.0 -9999.0 -9999.0 -9999.0 -9999.0 -9999.0 -9999.0
2.1973662619910708 2.263451715048185 2.2165356886002945 2.1844817213225363 2.171072830765107 2.1220255261476137 2.012467316832771 1.8075925684734115 1.6322791463165287 1.5889523029327393 1.6565220813066208 1.776072987417515 1.8353925358080856 1.8939178136984989 1.9460982865270624 1.9972528883798208 1.9991798656808903 1.995522750605225 1.463540875389406 0.7663158222734736 0.7273949761047779 0.836161762194892 0.920772051108333 1.054468233207837 1.1383932750526395 1.1375853632366804 1.0449321584165467 0.8952743885409041 0.7249538021084392 0.6391653216113109 0.5611598457430147 0.4783878198580603 0.4364851481840455 0.3906909879999235 0.3106171543597233 0.2354551307466398 0.2002539590005242 0.2000631274608977 0.231388522226152 0.2703202650957565 0.2716869108125678 0.2282912156371418 0.1727773948651887 0.1472547895173535 -9999.0 -9999.0 -9999.0 -9999.0 -9999.0 -9999.0 0.1175021286243905 0.8562664009932948 1.0145197951982885 1.0993821513068307 0.9897099390063058 1.0077917202419897 1.2685647193261975 1.6436195831689584 1.7626152653006315 1.547384468234999 1.342488569890156 1.2843241515635553 1.319178350066844 1.30398744121244 0.6870525476096636 0.698480642877247 0.7898679313834331 1.0960536373048344 1.2588662945854163 1.3315859014627909 1.4805261918600483 1.4344556652093188 1.4858580934948191 1.4493098041511083 1.1842711298435769 0.2431751140643793 -9999.0 -9999.0 -9999.0 -9999.0 -9999.0 -9999.0 -9999.0 -9999.0 -9999.0 -9999.0 -9999.0 -9999.0 -9999.0 -9999.0 -9999.0 -9999.0 -9999.0 -9999.0 -9999.0 -9999.0 -9999.0 -9999.0 -9999.0 -9999.0 -9999.0 -9999.0 -9999.0 -9999.0 -9999.0 -9999.0 -9999.0 -9999.0 -9999.0 -9999.0 -9999.0 -9999.0 -9999.0 -9999.0 -9999.0 -9999.0 -9999.0 -9999.0 -9999.0 -9999.0 -9999.0 -9999.0 -9999.0 -9999.0 -9999.0 -9999.0 -9999.0 -9999.0 -9999.0 -9999.0 -9999.0 -9999.0 -9999.0 -9999.0 -9999.0 -9999.0 -9999.0 -9999.0 -9999.0 -9999.0 -9999.0 -9999.0 -9999.0 -9999.0 -9999.0 -9999.0 -9999.0 -9999.0 -9999.0 -9999.0
2.402159898080127 2.430816865084422 2.2860518299888257 2.1575345056065376 2.102924882076672 2.075492015423288 2.0215752163924283 1.8591189952256528 1.7267431343599782 1.661124194113426 1.7286334994574792 1.7867885737446276 1.773947328656935 1.6958632585609683 1.656267828986134 1.6861500155575924 1.795142525026429 1.9631460269906007 1.986943610905144 1.994706225367917 1.9263826715354189 1.5457572949571037 1.3370351210574425 1.2083098638234822 1.1399776256263152 1.0277246954321904 0.952578842577884 0.8473686411963199 0.7180021131117755 0.6766823273081988 0.6958587444269971 0.6482687981404631 0.5986925872572846 0.534163454876333 0.4392410858983337 0.3337625212995675 0.2559461172479757 0.2271119063122069 0.2532764576512855 0.3008055660459305 0.3379198440984361 0.2957097014843665 0.2190454966887945 0.1832746069058132 0.1528300151381438 -9999.0 -9999.0 -9999.0 -9999.0 -9999.0 -9999.0 -9999.0 0.916871586826998 1.14081361948926 0.9834565990619332 0.9373827577009126 1.1621728120905503 1.280206612697087 1.3644764972914052 1.396869543517108 1.337417611212775 1.3021317976884863 1.2887591270048602 1.3105190676499243 1.2985646731262908 0.9367262929973464 0.9403116117244488 1.181574287247163 1.3216085249138745 1.4726083804493535 1.620780698608126 1.7644271923034955 2.282416558085125 2.490095262873269 1.3564050040875786 1.1862190160327182 0.1898561828717121 -9999.0 -9999.0 -9999.0 -9999.0 -9999.0 -9999.0 0.3228839159238998 0.1942868528758688 -9999.0 -9999.0 -9999.0 -9999.0 -9999.0 -9999.0 -9999.0 -9999.0 -9999.0 -9999.0 -9999.0 -9999.0 -9999.0 -9999.0 -9999.0 -9999.0 -9999.0 -9999.0 -9999.0 -9999.0 -9999.0 -9999.0 -9999.0 -9999.0 -9999.0 -9999.0 -9999.0 -9999.0 -9999.0 -9999.0 -9999.0 -9999.0 -9999.0 -9999.0 -9999.0 -9999.0 -9999.0 -9999.0 -9999.0 -9999.0 -9999.0 -9999.0 -9999.0 -9999.0 -9999.0 -9999.0 -9999.0 -9999.0 -9999.0 -9999.0 -9999.0 -9999.0 -9999.0 -9999.0 -9999.0 -9999.0 -9999.0 -9999.0 -9999.0 -9999.0 -9999.0 -9999.0 -9999.0 -9999.0 -9999.0
2.8142804535947468 2.667818451226108 2.4386786661188067 2.19052702776986 2.0822272647426887 2.0617681315822667 2.008894582175113 1.8914248690083413 1.8139337312754336 1.8188933734606296 1.9359920144253795 1.9020143815380224 1.7138186884876303 1.490086753838881 1.2928537441790893 1.2139382174291224 1.18586139855451 1.4377844879748365 1.7569630843560593 1.956610343249699 1.964493133299154 1.7571021842766688 1.4283606230987234 1.232642410345672 1.0520093982489982 0.9863898977528868 0.961518656075946 0.9153160349088 0.8313536113839626 0.906920023093377 1.0012465483070023 0.8772245242253416 0.7708038557072764 0.6992462149822906 0.6074567423489994 0.4934519288208175 0.3748642419176333 0.3353908104613597 0.3606650967065936 0.4170132634469338 0.444864718772457 0.3843966733247111 0.2616487956212528 0.2402782029045597 0.2340726475397627 -9999.0 -9999.0 -9999.0 -9999.0 -9999.0 -9999.0 -9999.0 -9999.0 0.8693130517144682 0.8588856070765654 0.8439701954675161 1.0547848367718744 1.200655106952405 1.3319429149833544 1.358663906100599 1.3190945113066188 1.337405247173595 1.3147391908385877 1.3675241426308011 1.3496730440712903 1.3082553868874118 1.2307197524349698 1.2039438885836578 1.3672091226516936 1.4324572846876524 1.402290277418329 1.5762176628670297 1.9534673913886649 1.428536544726578 1.0441833364501238 1.0078131447323455 0.8167930668511024 0.3004753488875734 -9999.0 -9999.0 -9999.0 -9999.0 0.2849133504992886 0.3591472919748631 0.3892464661926555 -9999.0 -9999.0 -9999.0 -9999.0 -9999.0 -9999.0 -9999.0 -9999.0 -9999.0 -9999.0 -9999.0 -9999.0 -9999.0 -9999.0 -9999.0 -9999.0 -9999.0 -9999.0 -9999.0 -9999.0 -9999.0 -9999.0 -9999.0 -9999.0 -9999.0 -9999.0 -9999.0 -9999.0 -9999.0 -9999.0 -9999.0 -9999.0 -9999.0 -9999.0 -9999.0 -9999.0 -9999.0 -9999.0 -9999.0 -9999.0 -9999.0 -9999.0 -9999.0 -9999.0 -9999.0 -9999.0 -9999.0 -9999.0 -9999.0 -9999.0 -9999.0 -9999.0 -9999.0 -9999.0 -9999.0 -9999.0 -9999.0 -9999.0 -9999.0 -9999.0 -9999.0 -9999.0 -9999.0 -9999.0 -9999.0
3.0207890074323007 2.8896634079748496 2.6567695835511547 2.397368837242189 2.16214999265097 2.050507481090289 1.9993076350805912 1.9409536733537087 1.8962994784746408 1.9628178550649695 1.999320806147852 1.9330000748468337 1.6692689558442175 1.3770828912365145 1.1794023520393426 1.1268011634888284 1.101603190892846 1.180082126212746 1.432382243753111 1.6718168580803088 1.7036878488637368 1.477473689126541 1.2361957136705763 1.1119354811868734 1.0511230289687037 1.01292249081648 1.0781846555479495 1.2175096335682898 1.3520039298925275 1.5947820503546457 1.463709398969058 1.0835825995456905 0.8410682356111286 0.7814572039044265 0.7538301876075961 0.7084806495981377 0.6027099593054882 0.5337706958736858 0.5422780689671675 0.5627097665859052 0.5592565233014588 0.4621540645635329 0.2772624561964215 0.2593478870565451 0.3131208017575894 -9999.0 -9999.0 0.0778644525832108 -9999.0 -9999.0 -9999.0 -9999.0 -9999.0 0.1301114608831279 0.7892104593580495 0.4465500163756979 0.3639921554988339 1.0814252135055673 1.2279416658656157 1.316621460854651 1.3725576503880683 1.5956942088468686 1.557138332507285 1.4747859163851456 1.4504608335943725 1.3524892938646542 1.3423706520722656 1.270161309492729 1.2508694664471178 1.1009583676798531 0.8866007405065682 0.6516641165019805 0.5765893327997125 0.5459721021442349 0.5327574513726009 0.6899546327106578 0.7282440575131247 0.7022733360087465 0.7097853245734417 0.6932133494476588 0.3481835877499344 0.2979462364093058 0.2535608366951185 0.3114574021471759 0.4128934710000301 0.0480270752648604 -9999.0 -9999.0 -9999.0 -9999.0 -9999.0 -9999.0 -9999.0 -9999.0 -9999.0 -9999.0 -9999.0 -9999.0 -9999.0 -9999.0 -9999.0 -9999.0 -9999.0 -9999.0 -9999.0 -9999.0 -9999.0 -9999.0 -9999.0 -9999.0 -9999.0 -9999.0 -9999.0 -9999.0 -9999.0 -9999.0 -9999.0 -9999.0 -9999.0 -9999.0 -9999.0 -9999.0 -9999.0 -9999.0 -9999.0 -9999.0 -9999.0 -9999.0 -9999.0 -9999.0 -9999.0 -9999.0 -9999.0 -9999.0 -9999.0 -9999.0 -9999.0 -9999.0 -9999.0 -9999.0 -9999.0 -9999.0 -9999.0 -9999.0 -9999.0 -9999.0 -9999.0 -9999.0 -9999.0 -9999.0
3.0255287593418307 2.974515684390958 2.8422658432085117 2.625062830458012 2.3631857013820947 2.128911289317191 2.015909905806712 1.9920564558565523 1.99223126748526 2.006129817282293 1.9742385754464864 1.767814496913224 1.5914792828617652 1.4152169601681184 1.2385882752033004 1.1897883457381615 1.1480348824914597 1.1856562170488458 1.3341162468293362 1.4649945242844846 1.353811199959539 1.2052478791972594 1.164309095336053 1.1625036496613386 1.1539331992106563 1.1715589218601938 1.2809890531088284 1.44091986309671 1.6474984250024536 1.8183642325454263 1.6926751301009455 1.352941480295853 0.9717755575760524 0.8791970919392943 0.8822341085232408 0.8959383246928716 0.8846239693318969 0.7980686654321112 0.7138396075777191 0.6536718671108059 0.6149085281673431 0.4958384849867022 0.2935114039029965 0.274712511727003 0.3177198624667041 0.1418100970793283 0.0712678809342794 0.3207918704046013 0.0478789108952663 -9999.0 -9999.0 -9999.0 -9999.0 -9999.0 0.1861183477105844 0.2060601975281825 0.2446469157020358 0.9662492854082284 1.1319137178615175 1.2651504631322923 1.4996145002600914 1.5399234769198875 1.5510193426337833 1.5704319992167972 1.5367736057659591 1.4397277423215324 1.4213931112212292 1.431724770655447 1.0969212780626232 0.7430335381051999 0.2762735495286851 -9999.0 -9999.0 -9999.0 0.1234249990433764 0.3558327409162537 0.5341213175431768 0.4876442901909579 0.5734991685916138 0.5736747472046593 0.3915052112674827 0.1895063702810089 0.0859212344330994 0.2289134351542533 0.3921336913457189 0.4367547430757729 -9999.0 -9999.0 -9999.0 -9999.0 -9999.0 -9999.0 -9999.0 -9999.0 -9999.0 -9999.0 -9999.0 -9999.0 -9999.0 -9999.0 -9999.0 -9999.0 -9999.0 -9999.0 -9999.0 -9999.0 -9999.0 -9999.0 -9999.0 -9999.0 -9999.0 -9999.0 -9999.0 -9999.0 -9999.0 -9999.0 -9999.0 -9999.0 -9999.0 -9999.0 -9999.0 -9999.0 -9999.0 -9999.0 -9999.0 -9999.0 -9999.0 -9999.0 -9999.0 -9999.0 -9999.0 -9999.0 -9999.0 -9999.0 -9999.0 -9999.0 -9999.0 -9999.0 -9999.0 -9999.0 -9999.0 -9999.0 -9999.0 -9999.0 -9999.0 -9999.0 -9999.0 -9999.0 -9999.0 -9999.0
3.009197327479804 2.9847835188453784 2.898553973170101 2.767924375764869 2.567186780985137 2.307114763030827 2.142400596569856 2.076746560481787 2.034673321847846 2.000889715330794 1.7098525750703348 1.4790501783547898 1.4334794711870305 1.3517886135828197 1.269248230774765 1.2281492812673345 1.2487609097378385 1.2736347592677992 1.3212834725789078 1.324550705320394 1.2536553092856986 1.2386343427630533 1.3680096810803335 1.5059470033358573 1.5223585730106797 1.3540973272414414 1.4299650442852343 1.6464885409374137 1.7635833083730323 1.8448175464776528 1.7861337275160176 1.4919585527357404 1.2006027812183269 1.0189553584566478 0.981358542040101 0.9976972659814084 1.010641769341334 0.9096493265493766 0.8124771341862607 0.6987661217127001 0.5953220606729583 0.4490351652573836 0.3221117755589852 0.2776606478885244 0.2719972506605455 0.1976853324489092 0.053139188090162 0.4323413450737369 0.7798002952105992 0.1928070133248715 -9999.0 -9999.0 -9999.0 -9999.0 -9999.0 0.1911392702201773 0.263152655128243 0.4584880194363754 1.0908187285755933 1.2033298743599157 1.5151635227586395 1.6319294268222198 1.6625320052678836 1.6920082806020311 1.57155920273925 1.502575878814543 1.4763160446144383 1.4331986416515328 1.1903322148696074 0.6052096335059798 -9999.0 -9999.0 -9999.0 -9999.0 -9999.0 -9999.0 0.140366919164863 0.2643494931607264 0.4975315801366823 0.6775542529029647 0.4692919432122334 0.0523239622758877 0.0506793514484139 0.1401614152733306 0.4273402524771854 0.5702930255802285 -9999.0 -9999.0 -9999.0 -9999.0 -9999.0 -9999.0 -9999.0 -9999.0 -9999.0 -9999.0 -9999.0 -9999.0 -9999.0 -9999.0 -9999.0 -9999.0 -9999.0 -9999.0 -9999.0 -9999.0 -9999.0 -9999.0 -9999.0 -9999.0 -9999.0 -9999.0 -9999.0 -9999.0 -9999.0 -9999.0 -9999.0 -9999.0 -9999.0 -9999.0 -9999.0 -9999.0 -9999.0 -9999.0 -9999.0 -9999.0 -9999.0 -9999.0 -9999.0 -9999.0 -9999.0 -9999.0 -9999.0 -9999.0 -9999.0 -9999.0 -9999.0 -9999.0 -9999.0 -9999.0 -9999.0 -9999.0 -9999.0 -9999.0 -9999.0 -9999.0 -9999.0 -9999.0 -9999.0 -9999.0
3.030530108818448 2.9738513770367465 2.881358091335681 2.7856945534843325 2.7145301543567943 2.483419363848149 2.2893291336648205 2.1890480447078757 2.0932803401087674 1.9361589865395263 1.4317679913903687 1.2385455987170757 1.2507465267575912 1.2772663863145477 1.248734407413715 1.2346124725738572 1.434863502538866 1.6419776771256345 1.5140362058065906 1.3999596112100932 1.4671433848183333 1.6546542420615271 1.7613504855632822 1.881566068547527 1.928732748461932 1.6015540261597083 1.6227256366998366 1.8233303591081076 1.8816081723585485 1.9148122822187916 1.85456746230598 1.6274897684388172 1.3995396620785854 1.2227040688849358 1.0855009959606423 1.0391193758765955 1.029294157550267 0.9516285408091982 0.8444801839506215 0.6857348622982069 0.5109545502431581 0.3855962754714958 0.3207478095959016 0.2794676439730236 0.238118583539215 0.1986230029213809 0.189277884157119 0.630779558382359 0.6110732344753657 0.4180022946052457 -9999.0 -9999.0 -9999.0 -9999.0 -9999.0 -9999.0 0.22798922470383 0.2790966239329821 0.9695293906310212 1.061614241089342 1.3685961849119912 1.7421173907006335 1.8716573549579016 1.816491197811864 1.613751797238218 1.4790460366696532 1.445131356197063 1.343944321122589 1.1660257201868236 1.0061521597686474 0.1191048010768428 -9999.0 0.0280141263497406 0.0244688543227384 -9999.0 0.1511027563209129 0.1687292325102856 0.3409079311435983 0.8368688644027853 0.8142133461384448 0.5902515878816561 0.1302526644134944 0.0979523963047496 0.1943720686639493 0.3516460073027275 0.5310020190758438 0.4991534275683793 -9999.0 -9999.0 -9999.0 -9999.0 -9999.0 -9999.0 -9999.0 -9999.0 -9999.0 -9999.0 -9999.0 -9999.0 -9999.0 -9999.0 -9999.0 -9999.0 -9999.0 -9999.0 -9999.0 -9999.0 -9999.0 -9999.0 -9999.0 -9999.0 -9999.0 -9999.0 -9999.0 -9999.0 -9999.0 -9999.0 -9999.0 -9999.0 -9999.0 -9999.0 -9999.0 -9999.0 -9999.0 -9999.0 -9999.0 -9999.0 -9999.0 -9999.0 -9999.0 -9999.0 -9999.0 -9999.0 -9999.0 -9999.0 -9999.0 -9999.0 -9999.0 -9999.0 -9999.0 -9999.0 -9999.0 -9999.0 -9999.0 -9999.0 -9999.0 -9999.0 -9999.0 -9999.0 -9999.0
3.078520971779123 2.9622193103231416 2.877445788275403 2.8014163899293463 2.748125150122 2.572297347566297 2.3835608743337766 2.25074502862532 2.193417849743417 2.054596540426048 1.6745999118248918 1.281784609268311 1.2425908409843298 1.2761995522388163 1.2863295344848722 1.3784157967745845 1.7394397927082197 1.874197716456608 1.7013276614497292 1.6108117520332257 1.7009043132814563 1.8145814072699855 1.9007135095773469 2.0052070199170955 2.0553364394387463 1.7610563559975927 1.7844732335672098 2.0467088547953867 2.092750250738569 2.072111523320721 1.961175387741596 1.790213692519168 1.6017944350441256 1.4377391892632496 1.2578644384225652 1.1023120327791942 1.0208505853871044 0.9509374280488222 0.8218520832776042 0.6360511796808209 0.4407640935791967 0.3472382648438047 0.3099288177286685 0.2827155452089155 0.2442903711393549 0.2159642553000819 0.3773936430224258 0.327631501078217 0.0872613476421199 0.178980141973747 -9999.0 -9999.0 -9999.0 -9999.0 -9999.0 -9999.0 -9999.0 0.1417643010921835 0.9313460389897712 1.0077155938595652 1.2440292410889884 1.7120155991605095 1.87429052208195 1.8195573773712863 1.6135147632340625 1.3436709127520263 1.2910746089344818 1.2602169663846503 1.195247245693089 1.0400088563931296 0.9204418075170508 0.098672624751488 -9999.0 -9999.0 0.0878289633340818 0.2283848526432625 0.282593677900619 0.7851246185778458 0.8408008415863736 0.7651200550756571 0.6128788798968005 0.2682621366073545 0.1343965947693809 0.1659386105822931 0.3166513496418419 0.381518672971306 0.5362445449168377 -9999.0 -9999.0 -9999.0 -9999.0 -9999.0 -9999.0 -9999.0 -9999.0 -9999.0 -9999.0 -9999.0 -9999.0 -9999.0 -9999.0 -9999.0 -9999.0 -9999.0 -9999.0 -9999.0 -9999.0 -9999.0 -9999.0 -9999.0 -9999.0 -9999.0 -9999.0 -9999.0 -9999.0 -9999.0 -9999.0 -9999.0 -9999.0 -9999.0 -9999.0 -9999.0 -9999.0 -9999.0 -9999.0 -9999.0 -9999.0 -9999.0 -9999.0 -9999.0 -9999.0 -9999.0 -9999.0 -9999.0 -9999.0 -9999.0 -9999.0 -9999.0 -9999.0 -9999.0 -9999.0 -9999.0 -9999.0 -9999.0 -9999.0 -9999.0 -9999.0 -9999.0 -9999.0 -9999.0
3.090656659895424 3.0034238933957784 2.9382643970122007 2.882459796434002 2.7987475813048297 2.62529162641428 2.411454332254534 2.249691858555955 2.19694583437957 2.163378515972165 1.9876979463271895 1.6549875322789247 1.485863299142928 1.5577258142714836 1.6827089100793715 1.7834462976961385 1.8298078300606888 1.806696858740384 1.6056360445130051 1.6038064870682998 1.7235418875654147 1.8324867175230168 1.9014013721012424 1.926957126645892 1.8950273378732287 1.8279667426234285 1.960930759102918 2.1344528860322933 2.188706312752274 2.1719685116788527 2.0321160301888788 1.9377791508298472 1.8481521501545315 1.6967424937317166 1.480270672096459 1.2447266850450225 1.053316266674938 0.9502422202946452 0.8273073318433541 0.6653198127979572 0.4977815551536587 0.3745019838453126 0.3148685346525461 0.284180908529506 0.2539949310500876 0.2185860037206823 0.1446571131086643 -9999.0 -9999.0 0.209492862045653 0.2518415788609884 -9999.0 -9999.0 -9999.0 -9999.0 -9999.0 -9999.0 0.1878125507307141 1.3940442785817226 1.281669658455911 1.2737552193092003 1.5557493205209858 1.7378614759302031 1.7652714844381572 1.6421986392986756 1.4084834623644331 1.382979191040386 1.2954788318520931 1.175194367460266 1.0528070660568436 1.025756405292758 0.8314402853415954 0.076811927314327 -9999.0 0.0060135696400492 0.1137481704196924 0.3947796901396293 0.8945385230300333 0.916679615248934 0.7476071960403327 0.5930017281827411 0.3888878194257776 0.1830432577888973 0.1277226745510616 0.3284983342669513 0.3099053376533577 0.4248427863106991 0.3780445381508395 -9999.0 -9999.0 -9999.0 -9999.0 -9999.0 -9999.0 -9999.0 -9999.0 -9999.0 -9999.0 -9999.0 -9999.0 -9999.0 -9999.0 -9999.0 -9999.0 -9999.0 -9999.0 -9999.0 -9999.0 -9999.0 -9999.0 -9999.0 -9999.0 -9999.0 -9999.0 -9999.0 -9999.0 -9999.0 -9999.0 -9999.0 -9999.0 -9999.0 -9999.0 -9999.0 -9999.0 -9999.0 -9999.0 -9999.0 -9999.0 -9999.0 -9999.0 -9999.0 -9999.0 -9999.0 -9999.0 -9999.0 -9999.0 -9999.0 -9999.0 -9999.0 -9999.0 -9999.0 -9999.0 -9999.0 -9999.0 -9999.0 -9999.0 -9999.0 -9999.0 -9999.0 -9999.0
3.225500243075142 3.142705727488717 3.030918011588271 2.993568736148619 2.910963584130179 2.705225165505805 2.413983859123604 2.194784837656525 2.146661106734286 2.173072068050988 2.1388951563187875 1.947681485239459 1.8375268868367611 1.9086967532907904 2.01373414284197 2.002774829509391 1.8316760578949964 1.669236785306299 1.5939742105836503 1.6301598389967569 1.7912901081540893 1.8981145782255548 1.9257755429520471 1.9285846154281685 1.9677231531676145 1.9955485858161937 2.0263741623446183 2.0804203997463957 2.193032401799182 2.1805472358181808 2.0564617194505 1.9887871509775 1.9352562608615949 1.7707927549166964 1.5326746057728886 1.316794201155365 1.1313908143855276 0.9634127132856566 0.8901370120741069 0.7639546733518524 0.614521205863406 0.4718747600846598 0.354307804052101 0.2825871325753097 0.2426632265180007 0.193822538528713 0.0093933706367641 -9999.0 -9999.0 0.4208628986357808 0.3710784842605141 0.1277104030967146 -9999.0 -9999.0 -9999.0 -9999.0 -9999.0 0.5699391631156513 1.4691397630908232 1.3286589250913572 1.2510000467300415 1.3723853718126868 1.5537065478181764 1.7075647154381464 1.6313747092857345 1.4153290357325514 1.679272882466663 1.6905882792902551 1.1834899740495686 1.0793258920638378 1.1235088428169944 0.8975296065864771 0.6847493283232106 0.6569800545043292 0.2905248346352211 0.2440750836813826 0.7234906129439814 0.964646033283743 1.075408724361716 0.9018689468464812 0.6114400012553902 0.5124399494310746 0.346303936417608 0.1726195239228628 0.1952988131357153 0.2732108091917037 0.2839675502445367 0.5332843581171961 -9999.0 -9999.0 -9999.0 -9999.0 -9999.0 -9999.0 -9999.0 -9999.0 -9999.0 -9999.0 -9999.0 -9999.0 -9999.0 -9999.0 -9999.0 -9999.0 -9999.0 -9999.0 -9999.0 -9999.0 -9999.0 -9999.0 -9999.0 -9999.0 -9999.0 -9999.0 -9999.0 -9999.0 -9999.0 -9999.0 -9999.0 -9999.0 -9999.0 -9999.0 -9999.0 -9999.0 -9999.0 -9999.0 -9999.0 -9999.0 -9999.0 -9999.0 -9999.0 -9999.0 -9999.0 -9999.0 -9999.0 -9999.0 -9999.0 -9999.0 -9999.0 -9999.0 -9999.0 -9999.0 -9999.0 -9999.0 -9999.0 -9999.0 -9999.0 -9999.0 -9999.0 -9999.0
3.354107389787162 3.24912541491298 3.1205832707537944 3.0310753113683093 2.978471975419314 2.722301697072324 2.3963283576743337 2.155766921324472 2.103954076766968 2.186303825795532 2.276037781365118 2.153955911769113 1.9751914443613163 1.9705220230083385 1.978730586458738 1.894852601886108 1.733599951668514 1.6382161690149908 1.6374389449877365 1.7647743199811905 1.9371006939408837 2.044313529084881 2.071184702509179 2.096207613897381 2.112842788560676 2.095042247243938 2.054612740866241 2.059575504360768 2.0917462752353053 2.0907263233199904 1.9909156038003208 1.8144816815652545 1.677167325077034 1.572658943365188 1.4009009427498038 1.2324330127467638 1.071503562067022 0.9570699681964916 0.9263159459628894 0.8688095964402611 0.7519296307624318 0.5912180955680892 0.4136857510988682 0.2827377255704559 0.2201025362539221 0.1637680467103065 0.104795953085897 -9999.0 -9999.0 -9999.0 0.3350497351987596 0.2343899237366032 0.0684056959609734 -9999.0 -9999.0 -9999.0 -9999.0 0.1871797427987577 1.2508513189068209 1.1209508498707736 1.128971108114012 1.361135232994686 1.4987336090399577 1.5652345914825985 1.5006462647696737 1.401339712581145 1.7057910717474138 1.7042280962076262 1.2717115353333694 1.3181889596798868 1.329392202100551 1.0758565664495032 0.8092510972904357 0.704130646062753 0.7832290465503635 1.1824213452058832 1.808958563187044 1.00616851659889 1.0938534028931983 1.2704048245461517 0.7747489084686878 0.6281010042337957 0.5228237310409434 0.2775594112973742 0.2481342375772742 0.393050680030413 0.3156390414270178 0.5065148624028324 0.5398375542753089 -9999.0 -9999.0 -9999.0 -9999.0 -9999.0 -9999.0 -9999.0 -9999.0 -9999.0 -9999.0 -9999.0 -9999.0 -9999.0 -9999.0 -9999.0 -9999.0 -9999.0 -9999.0 -9999.0 -9999.0 -9999.0 -9999.0 -9999.0 -9999.0 -9999.0 -9999.0 -9999.0 -9999.0 -9999.0 -9999.0 -9999.0 -9999.0 -9999.0 -9999.0 -9999.0 -9999.0 -9999.0 -9999.0 -9999.0 -9999.0 -9999.0 -9999.0 -9999.0 -9999.0 -9999.0 -9999.0 -9999.0 -9999.0 -9999.0 -9999.0 -9999.0 -9999.0 -9999.0 -9999.0 -9999.0 -9999.0 -9999.0 -9999.0 -9999.0 -9999.0 -9999.0
3.462900242138284 3.3048877207678533 3.153337878748221 3.0380414783606997 2.9279367908121623 2.683919016430077 2.4008664106182014 2.2606346385252327 2.2314198844032083 2.3648764481560947 2.4487632839868185 2.2746891121157007 1.9971264074882435 1.9683676864478985 1.842122338059375 1.7294371723242974 1.6767859842138615 1.62572433560032 1.6631593325815464 1.8176241023332864 2.024994195505117 2.1290100632544733 2.16771394912682 2.185893401008186 2.1987083521906188 2.1885859847894937 2.137756401090115 2.0937187158990893 2.0987817478554747 2.0822832148444657 1.8488232459823464 1.5952339524858958 1.588701305891726 1.585913160402577 1.3770940750782883 1.1591935829376745 0.9985099365507512 0.9393892410753752 0.924810992880128 0.9143412173134052 0.8661752178944707 0.7224833961703274 0.4956836496559363 0.3196348894246114 0.2255868757199147 0.1593678606984218 0.1107172305865508 -9999.0 -9999.0 -9999.0 -9999.0 -9999.0 0.1216023826269887 0.193589282708736 -9999.0 -9999.0 -9999.0 0.4055429004184071 0.7020626745541106 1.0155485444327346 1.0486285812510134 1.3791159989604305 1.6021603650033354 1.6146186284107225 1.5749569711589833 1.4719944008590642 1.4674826647905923 1.4862668361054137 1.4495414713945771 1.5446690333585855 1.4315640479817124 1.114377544295979 0.8768878426205957 0.7580186997742882 0.9883486392897628 1.830524565836233 1.898908086890432 1.951964713631455 1.3813735035218828 1.4646733196315709 1.042489729612585 0.828108359762967 0.6940497621662401 0.4344470408588531 0.3752222583302058 0.4732568962340451 0.3777816515609862 0.4068898283693617 0.5416242375829954 -9999.0 -9999.0 -9999.0 -9999.0 -9999.0 -9999.0 -9999.0 -9999.0 -9999.0 -9999.0 -9999.0 -9999.0 -9999.0 -9999.0 -9999.0 -9999.0 -9999.0 -9999.0 -9999.0 -9999.0 -9999.0 -9999.0 -9999.0 -9999.0 -9999.0 -9999.0 -9999.0 -9999.0 -9999.0 -9999.0 -9999.0 -9999.0 -9999.0 -9999.0 -9999.0 -9999.0 -9999.0 -9999.0 -9999.0 -9999.0 -9999.0 -9999.0 -9999.0 -9999.0 -9999.0 -9999.0 -9999.0 -9999.0 -9999.0 -9999.0 -9999.0 -9999.0 -9999.0 -9999.0 -9999.0 -9999.0 -9999.0 -9999.0 -9999.0 -9999.0 -9999.0
3.525033498964973 3.317769761200304 3.1444269660787643 3.021696009212116 2.87693057770629 2.6485825874820046 2.473894482950315 2.385433868635701 2.441860710787143 2.541669044071992 2.507873487674635 2.197493481348132 2.036985706871586 2.016335045510917 1.9136461037396588 1.7766966279440624 1.7119968031316095 1.6242835818981285 1.6176891796662758 1.756260369703818 1.978552698736696 2.131591381624053 2.1890280947038327 2.218557169614195 2.2505754031780216 2.261482337769156 2.238184695492715 2.2040709631944164 2.181364594391707 2.1179217886929456 1.8281988119466728 1.618760151856825 1.6849349890074308 1.6989112906928046 1.4542725813637367 1.1222492150229253 0.9424249142584692 0.9272690956041532 0.9300982899004312 0.924876791255443 0.9179542254011196 0.852285438486365 0.6536739195357958 0.4204497053640408 0.2735819595891363 0.1806293355628442 0.1362019828210013 -9999.0 -9999.0 -9999.0 -9999.0 -9999.0 -9999.0 0.2633557612331804 0.2281022790501362 -9999.0 0.1773296482644704 0.5636697674126168 0.6254528828573456 1.031355280343382 1.1131471197400171 1.1765695730151209 1.608545213600034 1.7034943819993715 1.7063151743226563 1.6810777345359678 1.499192127404556 1.4870534266365911 1.626392501318787 1.6918087536394246 1.5787164989768514 1.1498599023352771 0.9009200184003612 0.92563995115129 1.39082658401972 1.7949233684379289 1.8155392271699864 1.9738014636112189 2.298406153373957 1.45002982667633 1.260695494653658 0.94145097343573 0.7526530085850422 0.556281176970008 0.4156022369078147 0.3612749944519424 0.357397095971832 0.3454849059915797 0.3975738871111229 0.3964425489739193 -9999.0 -9999.0 -9999.0 -9999.0 -9999.0 -9999.0 -9999.0 -9999.0 -9999.0 -9999.0 -9999.0 -9999.0 -9999.0 -9999.0 -9999.0 -9999.0 -9999.0 -9999.0 -9999.0 -9999.0 -9999.0 -9999.0 -9999.0 -9999.0 -9999.0 -9999.0 -9999.0 -9999.0 -9999.0 -9999.0 -9999.0 -9999.0 -9999.0 -9999.0 -9999.0 -9999.0 -9999.0 -9999.0 -9999.0 -9999.0 -9999.0 -9999.0 -9999.0 -9999.0 -9999.0 -9999.0 -9999.0 -9999.0 -9999.0 -9999.0 -9999.0 -9999.0 -9999.0 -9999.0 -9999.0 -9999.0 -9999.0 -9999.0 -9999.0 -9999.0
3.55959049962258 3.324158078977405 3.118544452187076 3.009877388025016 2.8959931039597526 2.714076378466153 2.5957063304603216 2.5851490751225272 2.658255336318933 2.641852070409042 2.5584275107693744 2.3133585616619743 2.0882543586223474 2.0287780073647905 1.973587439202316 1.9566242172618304 1.8953200954525928 1.751798964630541 1.6582204989639329 1.7484258746057817 1.932077926000412 2.096693808749697 2.1884068706570394 2.2406620786877296 2.2778221625887625 2.2997759341883808 2.3108423002036496 2.283443602524592 2.237819108549864 2.1358670128156656 1.8605006964813324 1.6641883912937172 1.6840650955103074 1.6892923588998274 1.4987922299038468 1.1009704616886749 0.9849987004024968 1.1107727145921664 1.0161315859212987 0.9483657714968468 0.9248371075392722 0.916420517202882 0.8214754471332473 0.5715706635921245 0.3540767987096445 0.2392089939488767 0.1809218068235201 0.1386168294478127 -9999.0 -9999.0 -9999.0 -9999.0 -9999.0 0.299256105054997 0.5806128509356888 0.4517421984321399 0.3841590332912137 0.6260638714130887 0.6295401027180303 0.9361938322792088 1.092365021757774 1.0827117305547702 1.4689640054936812 1.708949226689401 1.70513107641768 1.8346158746201504 2.022233294093706 2.0781397031516518 2.1303927742066198 2.1584496792950514 1.91334982288964 1.4070953879476789 1.0215167816271744 1.0425232713976524 1.71794583153745 1.8002912768011956 1.8294641170216537 1.93886225561463 2.197154539665352 1.7578342385725798 1.2597906505452134 1.1214051421256614 0.8265601774202859 0.5586962651785342 0.4132350335615182 0.3376660862655984 0.3215671408487588 0.3741748294104445 0.3822243457147905 0.4542442530071793 -9999.0 -9999.0 -9999.0 -9999.0 -9999.0 -9999.0 -9999.0 -9999.0 -9999.0 -9999.0 -9999.0 -9999.0 -9999.0 -9999.0 -9999.0 -9999.0 -9999.0 -9999.0 -9999.0 -9999.0 -9999.0 -9999.0 -9999.0 -9999.0 -9999.0 -9999.0 -9999.0 -9999.0 -9999.0 -9999.0 -9999.0 -9999.0 -9999.0 -9999.0 -9999.0 -9999.0 -9999.0 -9999.0 -9999.0 -9999.0 -9999.0 -9999.0 -9999.0 -9999.0 -9999.0 -9999.0 -9999.0 -9999.0 -9999.0 -9999.0 -9999.0 -9999.0 -9999.0 -9999.0 -9999.0 -9999.0 -9999.0 -9999.0 -9999.0 -9999.0
3.6592045517861447 3.3810009394544185 3.099773934221344 3.003499523405203 2.9823590829839466 2.860527914366246 2.799954796502437 2.799438723942708 2.789689211772603 2.721771684810224 2.5431547962868897 2.3357718454661622 2.118800907562204 1.947376584986935 1.886163364205877 1.983328800069356 2.000497121472738 1.9657462393585128 1.86598337503504 1.880660117956197 1.9703697344061943 2.082391472323879 2.1831602338931333 2.232706626326107 2.268019605521856 2.3043282872639157 2.323241233825684 2.309291986916523 2.240015279640587 2.0966693747854954 1.9090290802747265 1.7877585979223063 1.7599180969230035 1.7686797318057923 1.671711132040559 1.383818493869824 1.4533729797797623 1.4558526159733516 1.2079301093779675 0.964436570702868 0.9175135343334576 0.9321687397240072 0.9116970468840746 0.6485872736946768 0.3837475293543394 0.3387254761755022 0.309166094641475 0.2807370566798939 -9999.0 -9999.0 -9999.0 -9999.0 -9999.0 0.2336143275887562 0.5344022459218953 0.5860675106900743 0.4593250609187154 0.5468550108844505 0.6307691169447978 0.9232805926129616 0.9930733094613168 0.8883809918662653 1.340671972447926 1.690219806105561 1.7631380658457962 1.9362904722772525 2.1719879776115123 2.2505193254839813 2.4989661566742467 2.5656199385980947 2.180888366834172 1.548685793624398 1.0874582783599018 1.2243378391858752 1.8069464471199328 1.827105751489226 1.8574036257395456 1.9693531614001731 2.097724632563272 2.1614866322405573 1.2376225890548995 1.134927783977994 0.9035212015245644 0.5592525174714382 0.4789574154656829 0.4062512523474532 0.5306988260508663 0.6590032707860374 0.4239091889983964 0.376395906292802 0.2773014068187071 -9999.0 -9999.0 -9999.0 -9999.0 -9999.0 -9999.0 -9999.0 -9999.0 -9999.0 -9999.0 -9999.0 -9999.0 -9999.0 -9999.0 -9999.0 -9999.0 -9999.0 -9999.0 -9999.0 -9999.0 -9999.0 -9999.0 -9999.0 -9999.0 -9999.0 -9999.0 -9999.0 -9999.0 -9999.0 -9999.0 -9999.0 -9999.0 -9999.0 -9999.0 -9999.0 -9999.0 -9999.0 -9999.0 -9999.0 -9999.0 -9999.0 -9999.0 -9999.0 -9999.0 -9999.0 -9999.0 -9999.0 -9999.0 -9999.0 -9999.0 -9999.0 -9999.0 -9999.0 -9999.0 -9999.0 -9999.0 -9999.0 -9999.0 -9999.0
3.8651285835074103 3.5762953431742712 3.2176697424737783 3.0303255951625467 3.0255913310188065 3.012181154457912 2.976329133234443 2.90404392090662 2.825599474307175 2.672351489312196 2.4601964108998464 2.275552207847599 2.1088589769165766 1.952989815209834 1.9007254469918304 2.0124801271270885 2.0333457494935554 2.022959706638047 2.005736406890072 1.9822531549496387 1.9868633927325816 2.034549331995932 2.1220647367173835 2.1810776720570875 2.208600364624105 2.2470305505527484 2.2853554098096875 2.2547534206516 2.1567079607292303 2.0246468463692557 1.9205715734090525 1.91093584834673 1.951509008518303 1.8953581365271492 1.8156499066019465 1.6711755987130696 1.5575364198077044 1.4447207037768377 1.2385453647171576 0.9103936022097048 0.893607721354706 0.9480945856296852 0.9248298352879846 0.5914817601801158 0.3671479486393161 0.3832712764296776 0.478195937620258 0.4291182766411924 0.3433875236093576 -9999.0 -9999.0 0.0350446059388558 0.0558178381324994 0.2671235763101141 0.3730080682146159 0.4594859626146237 0.4479010105655269 0.450668212248019 0.5840790748451753 0.9691560755284 0.9572308368771648 0.7413167337948281 0.8439544720098417 1.6344421978001753 1.6953018989862865 1.847284971990184 1.8730966192853824 1.878326901670228 2.066090298088634 2.219272302601335 1.749208515318633 1.3027525094913477 1.0835784115013394 1.663832297036532 2.0269317785737044 1.889422752309928 1.8562130379015969 1.9484301500596424 2.0309837903869106 2.168652393064629 1.9676363114164848 0.825424068420222 0.7535418511722333 0.6455536116516443 0.554088803655325 0.4726385477120436 0.4710356643749106 0.5208987173340416 0.2982494822497575 0.2311964755485881 0.2569308277379894 -9999.0 -9999.0 -9999.0 -9999.0 -9999.0 -9999.0 -9999.0 -9999.0 -9999.0 -9999.0 -9999.0 -9999.0 -9999.0 -9999.0 -9999.0 -9999.0 -9999.0 -9999.0 -9999.0 -9999.0 -9999.0 -9999.0 -9999.0 -9999.0 -9999.0 -9999.0 -9999.0 -9999.0 -9999.0 -9999.0 -9999.0 -9999.0 -9999.0 -9999.0 -9999.0 -9999.0 -9999.0 -9999.0 -9999.0 -9999.0 -9999.0 -9999.0 -9999.0 -9999.0 -9999.0 -9999.0 -9999.0 -9999.0 -9999.0 -9999.0 -9999.0 -9999.0 -9999.0 -9999.0 -9999.0 -9999.0 -9999.0 -9999.0 -9999.0
4.055668083374121 3.8961539965827385 3.5749964160493297 3.325488629903406 3.2285661602701685 3.1446688173747583 3.0388972320090253 2.971098201182895 2.7723423816559745 2.5238581967427907 2.32838539172754 2.1905276334051145 2.095327358477785 2.0459933236586383 2.031662172952479 2.009443322229348 1.8512953093005855 1.943020731357096 2.003042045130997 1.986874514576951 1.9597954936357385 1.9517784634253157 1.9956761564423056 2.0420195213727053 2.079706855566424 2.130576199029959 2.1666288912004297 2.1302545360176266 2.030475206962593 1.9304002165138257 1.8944151313501636 1.902258281491352 1.9119070379474208 1.8246671873419469 1.7319135422013388 1.6720151748542706 1.6000007332671902 1.399130718803523 1.1386406756614027 0.925924224694876 0.9216026210872722 0.9489580667945476 0.916693457227653 0.5934498830293364 0.4025284606237698 0.5162689296237173 0.5875733953566404 0.5469956926372722 0.5069602198455069 0.0734935065513321 0.0404914301407279 0.0770335976145427 0.3597786263104813 0.3958637995752797 0.5368386236849653 0.5296586713322371 0.4905901108067643 0.5136749929161548 0.5917104755887904 0.914251802160579 1.0828362161697798 1.085001657434855 0.6192507679805962 1.4417456765020136 1.5422866112278073 1.4698958502716093 1.2161987568238457 1.2751077430786917 1.4528318458531442 1.5305688252291696 1.4591324606828515 0.9661653655194014 1.1502626521406385 2.12980088086796 2.3838316369080483 1.981457307420622 1.82790962170038 1.8921527512018588 2.0093803662746845 2.0757744704946357 1.9902864411987429 0.7350628285521342 0.7053110383266373 0.6941683822676878 0.6518718441768071 0.5150932375305113 0.351661384631837 0.2155397799271262 0.2794748847124879 0.1780614568895334 0.1965166955030943 0.2394123398335448 -9999.0 -9999.0 -9999.0 -9999.0 -9999.0 -9999.0 -9999.0 -9999.0 -9999.0 -9999.0 -9999.0 -9999.0 -9999.0 -9999.0 -9999.0 -9999.0 -9999.0 -9999.0 -9999.0 -9999.0 -9999.0 -9999.0 -9999.0 -9999.0 -9999.0 -9999.0 -9999.0 -9999.0 -9999.0 -9999.0 -9999.0 -9999.0 -9999.0 -9999.0 -9999.0 -9999.0 -9999.0 -9999.0 -9999.0 -9999.0 -9999.0 -9999.0 -9999.0 -9999.0 -9999.0 -9999.0 -9999.0 -9999.0 -9999.0 -9999.0 -9999.0 -9999.0 -9999.0 -9999.0 -9999.0 -9999.0 -9999.0 -9999.0
4.287225650987092 4.04821474287426 3.953577011166364 3.715444141546968 3.4656034219699463 3.2674552600887945 3.093138566315736 2.933336088613605 2.571551808868275 2.311311460465234 2.174960630037773 2.099220055801054 2.0491786090267765 2.0485908914545283 2.0530301155898742 1.9842246714063132 1.5544422347348017 1.647827947768449 1.77107653518345 1.8374459942062464 1.8083082428101505 1.832875064267364 1.90497635826445 1.9278945660391569 1.971134099284792 1.9989274973178537 2.0160209014924773 1.9941110625405831 1.9481550150297424 1.883970927300121 1.8536032177459127 1.835708517663488 1.7837580102253243 1.6841771829366785 1.6564838928785386 1.6326219971802345 1.5495226045875454 1.3086457051296216 1.018444680255285 0.9396176299003408 0.9331306620106063 0.9406464375226052 0.9129280469008232 0.7572640934514423 0.5929147715548865 0.6272379276612284 0.6352970758552159 0.6201134214636947 0.5841127202478722 0.0548978605094435 0.0775593838839607 0.6733917012106772 0.3755826223871316 0.520118876952193 0.7336836128163242 0.5954405966604899 0.5752757259438128 0.5904140567492534 0.678524982073569 1.00093050712369 1.1585184949928142 1.2000305764803445 0.7736569105210318 1.14114232537649 1.4554729182599382 1.408834145507896 1.0531983914674212 0.6742720607423375 1.014748719487995 1.2068264642017064 0.9813082579019972 0.9440849050542132 1.4883996606605894 2.3098339497865563 2.4868445498664404 1.949552756955496 1.8149842951054016 1.8843003289351865 1.9413984062631915 1.976734132283693 1.984597730447956 1.4315982105115828 0.7208913507368931 0.7204942501403601 0.6510628758987104 0.5385301223330541 0.3132353474189305 0.2117613085747962 0.2730763209339353 0.243094946611635 0.1968844878457519 0.2580965145247507 -9999.0 -9999.0 -9999.0 -9999.0 -9999.0 -9999.0 -9999.0 -9999.0 -9999.0 -9999.0 -9999.0 -9999.0 -9999.0 -9999.0 -9999.0 -9999.0 -9999.0 -9999.0 -9999.0 -9999.0 -9999.0 -9999.0 -9999.0 -9999.0 -9999.0 -9999.0 -9999.0 -9999.0 -9999.0 -9999.0 -9999.0 -9999.0 -9999.0 -9999.0 -9999.0 -9999.0 -9999.0 -9999.0 -9999.0 -9999.0 -9999.0 -9999.0 -9999.0 -9999.0 -9999.0 -9999.0 -9999.0 -9999.0 -9999.0 -9999.0 -9999.0 -9999.0 -9999.0 -9999.0 -9999.0 -9999.0 -9999.0 -9999.0
4.449240414889316 4.207886846171895 4.063938008290899 3.946906638803551 3.6659342833040234 3.308641901924262 3.0071946406462278 2.694266634110114 2.29472842474357 2.1022895065424283 2.055004616512159 1.9984444574805047 1.9607168218842896 1.9985044929953628 2.044785829204062 2.031360980033689 1.869273872871736 1.7271716643159734 1.7068105409219436 1.7337697493568591 1.7471875976290896 1.7957487414709432 1.907790748100444 1.9396555846810868 1.97381812874496 1.9877449434871632 1.9992231222101011 2.0105807991889857 2.006805885809454 1.9812059008983456 1.9794939965726472 1.9329468041700224 1.865770994419987 1.8180018072218207 1.7751075163140762 1.6925619165749164 1.544785521659187 1.2833166718220503 1.0116836668485154 0.9670586285456868 0.945085781196836 0.939670865003046 0.92717388649705 0.8899697275683108 0.8449301281355018 0.8363103928777004 0.7881840098898665 0.7550904931771001 0.6998762496735494 0.1370133904321604 0.6709134751028003 0.8616592858642886 0.4342795879642076 0.7078409716990233 0.7808559462382356 0.6935549759355832 0.6323300614475931 0.5964615424529411 0.7206019405575012 1.1014933428295912 1.1872031216302328 1.0886365223358565 0.7641218958296793 0.7074876441907234 1.417591743594921 1.4030063211432884 0.6229883218262329 0.5690387550532153 0.926884506228138 1.0290569232873037 1.008551820128306 1.217745845410107 1.7265415976792802 2.585797741703588 2.592645107857902 1.8734704044318289 1.7154905285615978 1.810129057819985 1.8934471158580668 1.944507112011817 1.944743857665245 1.839764141386957 0.7692618472083391 0.7500801396683323 0.6567074572234659 0.5595251031707975 0.3842558462951261 0.2691838612262425 0.2209137083415547 0.23107949504175 0.2206681255211012 0.2134369576955021 0.2539109555000334 -9999.0 -9999.0 -9999.0 -9999.0 -9999.0 -9999.0 -9999.0 -9999.0 -9999.0 -9999.0 -9999.0 -9999.0 -9999.0 -9999.0 -9999.0 -9999.0 -9999.0 -9999.0 -9999.0 -9999.0 -9999.0 -9999.0 -9999.0 -9999.0 -9999.0 -9999.0 -9999.0 -9999.0 -9999.0 -9999.0 -9999.0 -9999.0 -9999.0 -9999.0 -9999.0 -9999.0 -9999.0 -9999.0 -9999.0 -9999.0 -9999.0 -9999.0 -9999.0 -9999.0 -9999.0 -9999.0 -9999.0 -9999.0 -9999.0 -9999.0 -9999.0 -9999.0 -9999.0 -9999.0 -9999.0 -9999.0 -9999.0
4.512534361222706 4.332542566006706 4.200423241910852 4.032405716460233 3.7493351217388433 3.1826968277285546 2.8807868249503272 2.560489694182692 2.2422401776158902 2.092633931878375 2.02644221159364 1.9503138090646877 1.9071152389414971 1.9140517640103167 1.9808885742159388 2.00941402733739 1.99465659978618 1.9749380128912524 1.9379188571571944 1.923056270046304 1.928363020326197 1.9420582308539585 1.9449487074959269 1.9585794903378029 2.005640838670172 2.172195876340109 2.3676465116157983 2.386388920368486 2.413525848602542 2.3853537153295075 2.344754640187104 2.2513249542165124 2.110598914045932 2.0506279833513776 2.0102861854665632 1.934943972094767 1.711654121217769 1.4239555998222668 1.144556606723362 1.0229033107078656 1.001881857548562 0.961401911996007 0.9424215325671036 0.9575891011840296 0.968393485969107 0.9710827916002188 0.973051055200972 0.9828229975000512 0.9536520491086812 0.4334219816201304 0.7082402012586398 0.8138274350329568 0.7144721775958514 0.7874388541520554 0.7676932004821455 0.7019746608391897 0.6844777016916455 0.6391324921867965 0.813189444062441 1.0966530817936282 1.246191273082434 1.00992169926128 0.824126670360412 0.9911576684695478 1.3906295291946842 1.39485061609523 0.8409232288219992 0.9184052618842208 1.044972540984854 0.9466258986501612 0.997035272717102 1.3826675504066348 1.8262109459037663 2.6944629473751043 2.702257263084955 1.727106506114778 1.62870331077665 1.776961352790991 1.903915539380572 1.948531657291096 1.9610522129485528 1.9501695328550384 1.737449836370794 0.8384213933687583 0.7409398394347987 0.6060669291902895 0.4233082751880016 0.3150419909540748 0.2567697305646849 0.1944140557482999 0.2866831285413498 0.2109668871907506 0.2633874081683519 0.0987658818493894 -9999.0 -9999.0 -9999.0 -9999.0 -9999.0 -9999.0 -9999.0 -9999.0 -9999.0 -9999.0 -9999.0 -9999.0 -9999.0 -9999.0 -9999.0 -9999.0 -9999.0 -9999.0 -9999.0 -9999.0 -9999.0 -9999.0 -9999.0 -9999.0 -9999.0 -9999.0 -9999.0 -9999.0 -9999.0 -9999.0 -9999.0 -9999.0 -9999.0 -9999.0 -9999.0 -9999.0 -9999.0 -9999.0 -9999.0 -9999.0 -9999.0 -9999.0 -9999.0 -9999.0 -9999.0 -9999.0 -9999.0 -9999.0 -9999.0 -9999.0 -9999.0 -9999.0 -9999.0 -9999.0 -9999.0 -9999.0
4.508080886425537 4.352985332585416 4.278166098612798 4.109488563613217 3.638463651581472 3.0214944018684045 2.901270247590498 2.648541813595015 2.404450294588508 2.221980693356457 2.0861107334921423 1.9631110702485308 1.8898774010309929 1.867456091317608 1.8577414176203184 1.8859671687824608 1.9163325708446752 1.9253675929934653 1.904611317830452 1.9034813258705816 1.9420004239783413 1.9227239464877923 1.8574099683126677 1.8501042583682032 2.080322542737136 2.374894708298023 2.545457473359499 2.691691304986884 2.631131409042286 2.477325627533567 2.370225406742906 2.3064965928524144 2.2478715387238903 2.1642120126431883 2.082324969565769 2.0021845560880487 1.932377446155521 1.6769295778723576 1.4228455487786091 1.2774140278529356 1.2197144185873927 1.129973185467691 1.0507137338067527 1.0355303341251183 1.0293352394134865 1.0371194597826636 1.0698053923626258 1.122468076192502 1.1496351647755283 0.55502588960132 0.6090806796213709 0.884618844795383 0.8517392287959329 0.7957402313509341 0.8100279755837968 0.7611288218037547 0.7589253563445526 0.8218666614981067 0.9186175762155214 1.0169951499527743 1.105560145869974 1.1291353283126877 1.1132938617948662 1.207953048487904 1.3603244211108343 1.4070683491591258 1.2036012872021329 0.9885955221024892 0.9530339422024924 0.8665388946964625 0.867599327087961 1.1778132608329213 1.848558459769436 2.6758281056871382 2.637502354899361 1.6833650720152027 1.679432137234801 1.8400238765832504 1.9590831734288776 1.9830706048542373 1.9893872471269816 2.0389743228019976 1.9762228723126936 1.1170502346416924 0.7173379659652711 0.638196329415069 0.4463583995668794 0.315395990492668 0.2893207364468578 0.273686587647503 0.3274031879177831 0.2795087865290264 0.2578978892701564 0.2672125588225192 -9999.0 -9999.0 -9999.0 -9999.0 -9999.0 -9999.0 -9999.0 -9999.0 -9999.0 -9999.0 -9999.0 -9999.0 -9999.0 -9999.0 -9999.0 -9999.0 -9999.0 -9999.0 -9999.0 -9999.0 -9999.0 -9999.0 -9999.0 -9999.0 -9999.0 -9999.0 -9999.0 -9999.0 -9999.0 -9999.0 -9999.0 -9999.0 -9999.0 -9999.0 -9999.0 -9999.0 -9999.0 -9999.0 -9999.0 -9999.0 -9999.0 -9999.0 -9999.0 -9999.0 -9999.0 -9999.0 -9999.0 -9999.0 -9999.0 -9999.0 -9999.0 -9999.0 -9999.0 -9999.0 -9999.0 -9999.0
4.506543535740578 4.319189022175523 4.224350683662922 4.00644075102902 3.3257631116663267 3.0021650985838164 2.964281142046488 2.7993225993987 2.6070493248247404 2.4019589611156835 2.204397237481768 2.028819162927653 1.9067508096853032 1.840083765695808 1.7954933329059546 1.7617292412734027 1.7337181172410956 1.7003972437698744 1.647097790438452 1.6491361709678554 1.798912292284259 1.883384492788165 1.90533801344132 2.0287495192774494 2.287760104441855 2.548525807999686 2.8012515304780563 2.9741616533502166 2.8678462335062926 2.4521469784007444 2.3263791622729904 2.312816898655106 2.3181587908605823 2.259244034993296 2.142074981054797 2.0151048164044902 1.999503711033644 1.9223576802428184 1.6940044474828684 1.590426338485494 1.587663242406744 1.5238336978397655 1.2862949866728792 1.12653299141126 1.0840904868555925 1.087762540313991 1.14766339947965 1.2254145220128927 1.2861065743515416 0.8040360615752953 0.5137828417893155 0.8558917698071967 0.9102665481508844 0.8571644987736807 0.8581470927053454 0.7944411813785343 0.8091675558701783 0.8896567529031327 0.9816740594314624 0.9486201738849702 1.032134518345324 1.2297612409139955 1.2811786646839214 1.2365561965843306 1.3189794155033123 1.4308330363448265 1.2878674785285338 0.9033655356215062 0.8643964094558685 0.9014930936542992 0.8572858002067221 0.8813011320249143 1.584072957542602 2.7448298156055966 2.7724387349440285 1.835056290261909 1.8415145804540731 1.876969526258922 2.0093320524038134 2.1096921688400485 2.077337978406807 2.1193495686598016 2.0869913302630545 1.627008621587697 0.6843739836234533 0.6630598887399008 0.5336332461449935 0.3351922048421907 0.3335986490101533 0.3126919994500791 0.2765617022558242 0.2873262007130145 0.2532291721376368 0.2592333853244781 0.1580271062414116 -9999.0 -9999.0 -9999.0 -9999.0 -9999.0 -9999.0 -9999.0 -9999.0 -9999.0 -9999.0 -9999.0 -9999.0 -9999.0 -9999.0 -9999.0 -9999.0 -9999.0 -9999.0 -9999.0 -9999.0 -9999.0 -9999.0 -9999.0 -9999.0 -9999.0 -9999.0 -9999.0 -9999.0 -9999.0 -9999.0 -9999.0 -9999.0 -9999.0 -9999.0 -9999.0 -9999.0 -9999.0 -9999.0 -9999.0 -9999.0 -9999.0 -9999.0 -9999.0 -9999.0 -9999.0 -9999.0 -9999.0 -9999.0 -9999.0 -9999.0 -9999.0 -9999.0 -9999.0 -9999.0 -9999.0
4.4865821957413 4.2216785096795695 4.042136252186598 3.6704940470778262 3.176147843225875 3.0020356693921046 2.9926465141287864 2.924719999804536 2.7894621202091017 2.573684968208125 2.320325497445028 2.105022500226985 1.9695310220494264 1.870803546251524 1.8033588431418115 1.7478833784664882 1.706556249456786 1.678221615513634 1.6455564327243943 1.626846376420057 1.7143358545735163 1.916108645158068 2.0976984060469346 2.2664513170882974 2.411256522058287 2.683957007588704 2.915815339117115 3.045716320643816 3.0323675232034337 2.7127551941673107 2.467522355218109 2.511706568779376 2.4520022823680936 2.330510609803029 2.1459666742937085 2.0278244428105427 2.013999316684411 1.99936293912256 1.793207729194918 1.76127099505943 1.8190440609512968 1.750275883351838 1.449151331831823 1.1755970752555105 1.0863362816224733 1.0858599661907842 1.1528957062548577 1.247304615517819 1.329882971000579 1.3407367669204455 0.5716570461396397 0.6907796144091815 0.906126260278123 0.8803219075143541 0.8517385125142949 0.7914131281957627 0.8736573615525896 0.9709788788578286 1.031627641836896 1.0044089150065274 1.0899336153156898 1.177093545372062 1.2719668546699867 1.268656516694394 1.356198163664048 1.4991864965137085 1.6080723941828436 1.2175427683442808 0.9790824447385984 0.9194261575318554 0.9528470369077088 0.9748179002371672 1.233055592613681 2.1019475624987347 2.364951177351092 1.944004091793879 1.6589856872834583 1.8047434606921529 2.006749707234897 2.2153140661038324 2.1499751118155164 2.094302993091583 2.0819720689719388 1.9225023046330063 0.7805521608509518 0.7217904728737854 0.6567656964795471 0.3988355353718059 0.3329491138246913 0.3133189996404115 0.2520363115924892 0.2851084074687767 0.2931888648995564 0.2653999077092042 0.3127442187703516 -9999.0 -9999.0 -9999.0 -9999.0 -9999.0 -9999.0 -9999.0 -9999.0 -9999.0 -9999.0 -9999.0 -9999.0 -9999.0 -9999.0 -9999.0 -9999.0 -9999.0 -9999.0 -9999.0 -9999.0 -9999.0 -9999.0 -9999.0 -9999.0 -9999.0 -9999.0 -9999.0 -9999.0 -9999.0 -9999.0 -9999.0 -9999.0 -9999.0 -9999.0 -9999.0 -9999.0 -9999.0 -9999.0 -9999.0 -9999.0 -9999.0 -9999.0 -9999.0 -9999.0 -9999.0 -9999.0 -9999.0 -9999.0 -9999.0 -9999.0 -9999.0 -9999.0 -9999.0 -9999.0 -9999.0
4.255268640682487 4.019082888331436 3.732941872867019 3.3710709122888867 3.097241373905036 3.002165823437243 2.997032750836258 2.963663585917835 2.8776981545769664 2.6604938112694847 2.37489248218941 2.143310062735559 2.0137354472237425 1.9264936265514423 1.8787164507069585 1.8491865741850968 1.836137690039113 1.8401822496241984 1.7941869776889583 1.7197564387578963 1.795360337817972 2.044913437483653 2.275464857431372 2.384015016355355 2.47223704048108 2.751885001684103 2.987330128989776 3.059822265427384 3.047792070185268 2.995372810512186 2.8530707993080315 2.737023586350738 2.580587568510761 2.364537829401427 2.1873874941208884 2.071932244487232 2.02010053025839 1.9826004017719745 1.8404893377477087 1.8280209005999568 1.870906505284461 1.8007952713670732 1.4283305938081798 1.1216974772258823 1.0475227128593347 1.0573730463997573 1.1181539606677104 1.2104896534226863 1.2929848478389463 1.3106770660231075 0.6818388332293915 0.9542549224465672 0.9726587691237104 0.9029885486641872 0.8760717154766191 0.8072017729021839 0.9087348882773836 0.9800415507300486 1.0051534687826955 0.9726487401368816 0.9225241869825698 1.0091197695448442 1.0523092859632797 1.3456495897467875 1.4244736105165088 1.4561780549160162 1.622835557449029 1.593533105711203 1.1686469922402742 0.9211552910320676 0.9584384840460434 1.079686585434008 1.3139158035805925 2.053286862303988 2.328241741828763 1.7751029328160757 1.4374717075691916 1.4917424335629472 1.8531921297643563 2.169694004658472 2.06597874686888 1.970601018467172 2.02956851042573 2.035463898360761 1.7798323896171306 1.019855301155252 0.768765259617344 0.559979625292384 0.3719353059954507 0.3193984269172949 0.2623815404478955 0.2629116850275984 0.2730097368407699 0.2616854088342745 0.2979065395674437 0.3034988337552561 -9999.0 -9999.0 -9999.0 -9999.0 -9999.0 -9999.0 -9999.0 -9999.0 -9999.0 -9999.0 -9999.0 -9999.0 -9999.0 -9999.0 -9999.0 -9999.0 -9999.0 -9999.0 -9999.0 -9999.0 -9999.0 -9999.0 -9999.0 -9999.0 -9999.0 -9999.0 -9999.0 -9999.0 -9999.0 -9999.0 -9999.0 -9999.0 -9999.0 -9999.0 -9999.0 -9999.0 -9999.0 -9999.0 -9999.0 -9999.0 -9999.0 -9999.0 -9999.0 -9999.0 -9999.0 -9999.0 -9999.0 -9999.0 -9999.0 -9999.0 -9999.0 -9999.0 -9999.0 -9999.0
4.055337016926001 3.851265074083796 3.467991678985773 3.2418403339877795 3.1024892292699158 3.026706300629944 3.0008385917477445 2.9792960512919 2.851674655909303 2.6161650777540104 2.3478399049107117 2.145089863030611 2.055634730608073 2.012113707893556 1.9993469644956912 2.0213241966617668 2.0615387328809978 2.095982760665944 2.025115650763421 1.9068533813548307 1.9349593246898835 2.1959964211128327 2.452155246205608 2.4369115141584543 2.4839545857220093 2.829991897125216 3.0210703767755493 3.0711005727755256 3.071625095317583 3.0462067086367783 3.032197624840141 2.954044097632467 2.7518080538434764 2.50618127119944 2.313234089075811 2.179588238575176 2.09669797266458 2.0211272233340063 1.9435314577092249 1.9129034772260611 1.9021049828486385 1.8370921676740115 1.4541850581070928 1.1342737113392516 1.058620354321765 1.0750413456822927 1.13930655172831 1.2007164720611347 1.259739239817712 1.275759581922832 1.2628000049134256 1.120859151282555 1.177977525414882 1.1228540846374848 0.9955691354612872 0.8988827360037279 0.9025239934201944 0.9227425544348072 0.940113551322196 0.7709610568577507 0.5468958773899555 0.6175842834298253 0.9800946420379424 1.1047616256213122 1.4303074755777672 1.547944274861473 1.5427438643421114 1.4848541801694148 1.3276580098941642 1.057843053667144 1.0605351060895374 1.1372612464863092 1.3894086664154566 2.3551438857718296 2.4077078910149714 1.6869748030457392 1.4678075315380714 1.5196591294963324 1.8010232308850356 2.055652142821327 1.996459612810052 1.920496581143372 1.933257840199568 2.0170243078684305 2.0949219151064487 1.5421399086157823 1.5829345236685834 0.6561532354076108 0.5070646272287778 0.3576949717395408 0.2608268184776795 0.2028437902501597 0.1686250470383088 0.2573398228842627 0.3139539771063942 0.4024502867448969 0.0004499136552369 -9999.0 -9999.0 -9999.0 -9999.0 -9999.0 -9999.0 -9999.0 -9999.0 -9999.0 -9999.0 -9999.0 -9999.0 -9999.0 -9999.0 -9999.0 -9999.0 -9999.0 -9999.0 -9999.0 -9999.0 -9999.0 -9999.0 -9999.0 -9999.0 -9999.0 -9999.0 -9999.0 -9999.0 -9999.0 -9999.0 -9999.0 -9999.0 -9999.0 -9999.0 -9999.0 -9999.0 -9999.0 -9999.0 -9999.0 -9999.0 -9999.0 -9999.0 -9999.0 -9999.0 -9999.0 -9999.0 -9999.0 -9999.0 -9999.0 -9999.0 -9999.0 -9999.0 -9999.0
3.988743492479896 3.700624036271272 3.3880872655874152 3.222063932024396 3.1161671448966217 3.054816526515496 3.002391119367807 2.977778493131256 2.864491587462336 2.562689660655557 2.257648174064625 2.0969020736835864 2.061130484172742 2.067504825859668 2.12539076575645 2.196822307289384 2.2612117783564853 2.27979791386193 2.18558625224339 2.0179373674412604 2.028731022441801 2.3491782901495046 2.5691496968788337 2.6395593278653577 2.7507883548835648 2.9794159607582134 3.1699594122368726 3.236984271311326 3.243603975050843 3.2197926171363296 3.1781366798580617 3.092831691444604 2.9734702691930983 2.750779307974908 2.521667514557904 2.3640533952435234 2.1774544969050558 2.0944224105559908 2.024056592746489 1.9891632713093683 1.9840794905203487 1.943256778152726 1.590309676794123 1.2571789021815891 1.1695756580532584 1.1875125228512682 1.2219091990098745 1.246366231625816 1.267002881351202 1.2654200167169485 1.2595360851710824 1.2628574510782826 1.3199682704765603 1.2261913792093142 1.1031791270467703 0.9976267388070024 0.944744379528941 0.9147663660598062 0.9151985038897557 0.8473287941883636 0.6114933138629473 0.6915819723932268 1.2142031409914154 1.066984972552864 1.3152043377139928 1.537440401409535 1.52331278211275 1.3610463666471115 1.3044746036775334 1.1881032331565138 1.1209324727584424 1.1033747258711395 1.2430329635054314 2.312032797267597 2.2914557141793037 2.118826166857249 1.9198943599822444 1.7732441699677868 1.8635856295963968 2.04057947108634 2.023516115023232 1.941710126236025 1.8962877621494352 1.923406148905944 2.1680171887200896 1.889053518483504 1.6394238942211512 0.9419500212747244 0.562812187333446 0.39958391986009 0.2425682882168254 0.1865742140291237 0.1777031187251758 0.2788243766489661 0.3399331787104286 0.3972403747207135 0.3882878843811134 -9999.0 -9999.0 -9999.0 -9999.0 -9999.0 -9999.0 -9999.0 -9999.0 -9999.0 -9999.0 -9999.0 -9999.0 -9999.0 -9999.0 -9999.0 -9999.0 -9999.0 -9999.0 -9999.0 -9999.0 -9999.0 -9999.0 -9999.0 -9999.0 -9999.0 -9999.0 -9999.0 -9999.0 -9999.0 -9999.0 -9999.0 -9999.0 -9999.0 -9999.0 -9999.0 -9999.0 -9999.0 -9999.0 -9999.0 -9999.0 -9999.0 -9999.0 -9999.0 -9999.0 -9999.0 -9999.0 -9999.0 -9999.0 -9999.0 -9999.0 -9999.0 -9999.0 -9999.0
3.894204666116764 3.683138460180011 3.4391883780014822 3.2370249747500126 3.107909143682434 3.048983611551254 2.9969511830319577 2.9434971476138285 2.7651756054091905 2.4249431420831318 2.1527410809948817 2.0562779622651197 2.0611239217239303 2.115982325556358 2.2035977064383747 2.286867353299142 2.3596679789936905 2.404603406693835 2.3552999620335062 2.1920566582106806 2.261001703386119 2.5764885300902423 2.66568089616835 2.689535311665197 2.834227552663944 3.067112817788849 3.301842839461367 3.445315985234604 3.513871280888304 3.4365214307800014 3.308216040783905 3.180528444892148 3.0628580972767425 2.9979227219474684 2.8730925040433206 2.7314113357629517 2.5467402157205803 2.3686522947412594 2.211775576318799 2.102400390863312 2.0326315118933724 2.007644996936629 1.7833561959510844 1.5076290456916055 1.3955889848056535 1.4515589292591558 1.504163480355078 1.4580036848852065 1.3658748838111403 1.2888804231890425 1.2613130625568718 1.4369683094105197 1.388959970884838 1.3379699924690294 1.2764314202670572 1.1381456563604246 1.0401477927675222 1.0692176403930465 1.034268796869214 1.0183784382827348 1.1315728883884342 1.149037569460422 1.1692608342316229 0.3798689769721518 0.3327695743624371 1.0345552511111775 1.2359264115304762 1.400779986660139 1.3128027992740066 1.2083541504903883 1.0433564837447316 0.901819768395258 1.1507891884932366 1.7213088656880262 2.181730044067886 2.2065612497164504 2.254783047397294 2.2323807744569946 2.212344381756058 2.1892205374518783 2.0427155258593435 1.93555145008102 1.888656056218453 1.8967064583211104 2.009776039467152 2.0165874597225857 1.731555043278568 1.6302357425068694 0.846885273122564 0.5437858965906457 0.2521120996012487 0.164204859831639 0.1870962658451401 0.2043602375553124 0.2123297208510983 0.320141684423065 0.3280599234721879 0.1260667016443298 -9999.0 -9999.0 -9999.0 -9999.0 -9999.0 -9999.0 -9999.0 -9999.0 -9999.0 -9999.0 -9999.0 -9999.0 -9999.0 -9999.0 -9999.0 -9999.0 -9999.0 -9999.0 -9999.0 -9999.0 -9999.0 -9999.0 -9999.0 -9999.0 -9999.0 -9999.0 -9999.0 -9999.0 -9999.0 -9999.0 -9999.0 -9999.0 -9999.0 -9999.0 -9999.0 -9999.0 -9999.0 -9999.0 -9999.0 -9999.0 -9999.0 -9999.0 -9999.0 -9999.0 -9999.0 -9999.0 -9999.0 -9999.0 -9999.0 -9999.0 -9999.0 -9999.0
3.928809451428177 3.777381627155657 3.5494520553579587 3.28212891957118 3.1154442413955863 3.054816484342309 2.975944688086756 2.7779498641303597 2.468500628670251 2.2057834042691598 2.0868848383000875 2.0526071970104924 2.0667699581916343 2.128288241629272 2.197506042409543 2.2610876236490163 2.35365528856596 2.4439132991551737 2.484287341536859 2.4832073661419702 2.59969339619743 2.704625899063249 2.6824845474243717 2.6854428189849044 2.883492570594401 3.1272324283596955 3.4542402095740736 3.707438387033423 3.840946088308863 3.710718410603537 3.4994276512160285 3.2831729479982594 3.100200505551895 3.0772101175378426 3.0903069750926973 2.974574904001964 2.752450786451454 2.509668259308647 2.3254000178599434 2.198612225921792 2.0862484233569694 2.019979582350023 1.9440875479391837 1.7473589744175604 1.697929309734502 1.77343850051417 1.853151943520896 1.7622752710934912 1.5807661144667016 1.424705012103869 1.3602730698115328 1.4894406117096013 1.5671519396875708 1.491624575440599 1.485530719960914 1.3748455597156783 1.2967602638091045 1.304581514652092 1.2063655211149296 1.1494835263778502 1.1724312063714133 0.9855455336001544 0.7587186552174395 0.0750841482222186 0.2695936938964825 0.4180242346176539 1.1013334589980197 1.493557419686101 1.3681893336424011 1.2163865287982842 1.0261051427328718 0.7985734617910415 0.9796419902560314 1.3157586732536095 1.554022058657651 2.1271942387827245 2.2286099298058675 2.3295081802660618 2.442507555950125 2.4001150796636708 2.104228525021031 1.8949389554188136 1.8474795818328853 1.87741518873378 1.92336851608036 2.0786773564139227 1.9283075023392628 1.7057891503051994 1.606990532497992 1.2309478221726275 0.3051087626458363 0.2003279437773413 0.2443738451737798 0.2083836340077052 0.2075798595952374 0.3234914230054658 0.2403353518829669 0.2478128265077345 -9999.0 -9999.0 -9999.0 -9999.0 -9999.0 -9999.0 -9999.0 -9999.0 -9999.0 -9999.0 -9999.0 -9999.0 -9999.0 -9999.0 -9999.0 -9999.0 -9999.0 -9999.0 -9999.0 -9999.0 -9999.0 -9999.0 -9999.0 -9999.0 -9999.0 -9999.0 -9999.0 -9999.0 -9999.0 -9999.0 -9999.0 -9999.0 -9999.0 -9999.0 -9999.0 -9999.0 -9999.0 -9999.0 -9999.0 -9999.0 -9999.0 -9999.0 -9999.0 -9999.0 -9999.0 -9999.0 -9999.0 -9999.0 -9999.0 -9999.0 -9999.0 -9999.0
3.9808110315081326 3.84016581240136 3.6647634906837223 3.395474257852756 3.1748584432748914 3.067874448689468 2.914124310541137 2.565536355868902 2.2348870052128342 2.125349597204976 2.0734579848646506 2.063525528446071 2.0880003848922835 2.15197021295054 2.206664022716263 2.240505522514024 2.27657327184733 2.420979231905154 2.551214313110053 2.597022525872261 2.668140460355033 2.7338948669916743 2.736374304902187 2.808938480703145 3.004754709446994 3.25839033463992 3.610792484987093 3.918971455872016 4.007958041211735 3.933069146580959 3.728816167681276 3.4415198457227065 3.139217332322791 3.077649187379432 3.067812200300473 2.973429426550452 2.7419204537362525 2.5033986393449483 2.33886196194048 2.2587810383595106 2.1491262251405727 2.023630533645882 1.9891537194226312 1.9464422308432092 1.9168102977985644 1.9619166873900775 1.9879928695748657 1.9260784894445449 1.780114671290108 1.624792009807784 1.567166157266761 1.6218974463708349 1.673350069740243 1.7017228864761176 1.6978661331022566 1.6441268249996976 1.5513853917547276 1.4961413275559643 1.4511755486413986 1.221760694725128 1.0761843756685483 0.9002848193727071 0.1666064498623412 0.0101421308904574 -9999.0 -9999.0 0.2767042022931413 1.1512650494965262 1.4486547164269457 1.531969705851067 1.2071838353698925 0.7847506310215027 0.6614578084800056 1.0293005843651803 1.086130856529824 1.4725269528182374 2.064582200944726 2.3193133922807103 2.606195477094162 2.5443777975443043 2.183029267245216 1.9357511277718369 1.8419990172702392 1.8958040049600096 2.045481208166449 2.184720790304348 2.056420503612759 1.770197236116499 1.6595146594419317 0.4771405919943546 0.3447363925195351 0.2823798939813483 0.2730429268000728 0.2741314545093995 0.262526464149065 0.3173853184975216 0.3202375567536655 0.3777629273130315 0.3739844691877649 -9999.0 -9999.0 -9999.0 -9999.0 -9999.0 -9999.0 -9999.0 -9999.0 -9999.0 -9999.0 -9999.0 -9999.0 -9999.0 -9999.0 -9999.0 -9999.0 -9999.0 -9999.0 -9999.0 -9999.0 -9999.0 -9999.0 -9999.0 -9999.0 -9999.0 -9999.0 -9999.0 -9999.0 -9999.0 -9999.0 -9999.0 -9999.0 -9999.0 -9999.0 -9999.0 -9999.0 -9999.0 -9999.0 -9999.0 -9999.0 -9999.0 -9999.0 -9999.0 -9999.0 -9999.0 -9999.0 -9999.0 -9999.0 -9999.0 -9999.0 -9999.0
3.992633267681338 3.831263230712724 3.651673267157043 3.445414762552873 3.22043034391947 3.028246668608942 2.901962952938981 2.498349082851117 2.22347125028653 2.1322202702729287 2.085372249845311 2.0766338318105184 2.11771808097295 2.210768703218349 2.307850643831183 2.3456187320864617 2.3081634038931877 2.327100392906801 2.4575871833481573 2.5866593440346897 2.6691386963451094 2.777908419308953 2.8990585631757813 3.0142659934904072 3.120872484906598 3.3675577548841136 3.6910021454188735 3.968429477925163 4.048646550513881 4.037207031082982 3.939450547107344 3.682630832258215 3.2635472416982974 3.0639773981263665 3.0308430628562557 2.880347800004225 2.625081439986202 2.410792717697001 2.306261101487304 2.2890003685320406 2.224245298051687 2.104565878274945 2.0192162430269045 1.998915092399688 1.9887402300392352 2.018608641928603 2.012547703254896 1.9796043736441669 1.916037137206661 1.8126959471873936 1.748674610470243 1.7632921871407654 1.8083022431860265 1.829200137899659 1.8140093691511536 1.8022506851994409 1.769743754440113 1.732716582344291 1.5840984596755745 1.3682535165696403 1.083609285082962 0.4374836291137768 0.0792614913827445 0.0166688362942266 -9999.0 -9999.0 -9999.0 0.3591459333723361 1.2788533284011885 1.554209197955202 1.5258029302979526 1.1556956607362423 0.7566839998977444 0.8624732451314234 0.8791972392450521 1.1403768245589436 1.8862065953798623 2.0639402043518325 2.3809916405293725 2.404449363284313 2.2775501549820927 2.027209688369084 1.956989136715512 2.0259251375984264 2.0575917020214827 2.204634599958428 2.186871757526235 1.7904476945174188 1.6194038742730683 0.8174667018936053 0.4082076816925497 0.3039962431087034 0.175768474042678 0.2710722006997755 0.2957976555928879 0.3401816148914677 0.3802750978436976 0.4009214950664547 0.409199179226329 -9999.0 -9999.0 -9999.0 -9999.0 -9999.0 -9999.0 -9999.0 -9999.0 -9999.0 -9999.0 -9999.0 -9999.0 -9999.0 -9999.0 -9999.0 -9999.0 -9999.0 -9999.0 -9999.0 -9999.0 -9999.0 -9999.0 -9999.0 -9999.0 -9999.0 -9999.0 -9999.0 -9999.0 -9999.0 -9999.0 -9999.0 -9999.0 -9999.0 -9999.0 -9999.0 -9999.0 -9999.0 -9999.0 -9999.0 -9999.0 -9999.0 -9999.0 -9999.0 -9999.0 -9999.0 -9999.0 -9999.0 -9999.0 -9999.0 -9999.0 -9999.0
3.9975814271143815 3.828929961493561 3.643093936181616 3.460551408560711 3.1832134617698347 3.037972059738493 2.9543393098198734 2.4990859144788367 2.2934504503789563 2.202470329762217 2.1284228800231886 2.099580575228519 2.1598183608222983 2.331260641948092 2.483982012928196 2.5850674579825066 2.5548606145505213 2.3599490647731383 2.334244769985496 2.4738348597332243 2.681117329688326 2.882780099729964 3.00541379982263 3.054225760425872 3.152736400396269 3.4181664948186747 3.713773012413329 3.966362988368384 4.071028518177862 4.101049663022739 4.0766248180588125 3.96880709258824 3.602985159860125 3.239314329090398 3.043235062313208 2.761161510504052 2.528301596966747 2.37678022882322 2.3145785546846773 2.3186066385377004 2.3018942597066725 2.219521337936853 2.121109741180112 2.0662646660540456 2.080874703543837 2.1524851528021007 2.14688193756991 2.049644583821153 2.0059785005889283 1.9454799218044585 1.8762189932366824 1.8512929207974556 2.049003913033974 2.0413041702811405 1.896006061024019 1.8874297611413036 1.999693084806205 1.8856506229330696 1.6397929860731222 1.1971407037142836 0.3392887205784277 0.05782418852424 0.0842827503601105 0.014534395902595 -9999.0 -9999.0 -9999.0 -9999.0 0.2456906995449763 1.3973218868510977 1.4658017249184805 1.4186609796595984 1.122243577245026 1.0713856365740064 1.1135474383735142 1.159913779855709 1.5780248389095988 1.592670034286919 1.5419346752234913 2.1273653753324706 2.4467415689488075 2.46719738088894 2.189908282379984 2.129657251222701 2.108703228458425 2.19419273397403 2.255648604502753 2.0349979545519115 1.625771770713769 1.4921733878472203 0.4819292493779046 0.2938507820593457 0.1627771780968001 0.2248846720209286 0.3800752848272594 0.4380795285776483 0.5200572194777646 0.583416684227188 0.6426990586603063 0.5395125040965497 -9999.0 -9999.0 -9999.0 -9999.0 -9999.0 -9999.0 -9999.0 -9999.0 -9999.0 -9999.0 -9999.0 -9999.0 -9999.0 -9999.0 -9999.0 -9999.0 -9999.0 -9999.0 -9999.0 -9999.0 -9999.0 -9999.0 -9999.0 -9999.0 -9999.0 -9999.0 -9999.0 -9999.0 -9999.0 -9999.0 -9999.0 -9999.0 -9999.0 -9999.0 -9999.0 -9999.0 -9999.0 -9999.0 -9999.0 -9999.0 -9999.0 -9999.0 -9999.0 -9999.0 -9999.0 -9999.0 -9999.0 -9999.0 -9999.0 -9999.0
4.01658184431523 3.843831346849259 3.636600827639181 3.426838599795215 3.158981776794728 3.0444877043378598 2.937430846863085 2.5494357270908017 2.4073937021054053 2.3464596222548395 2.2571876296924263 2.200000144776027 2.299874334068549 2.504019115504983 2.700301878494725 2.8462534729101727 2.881838180979414 2.673332536380345 2.392655225188117 2.471658342303764 2.735269954881314 2.9579290646347416 3.016860175134328 3.070339691733543 3.2032359561398347 3.441624669674293 3.7076118876777 3.948702867685903 4.090886638812318 4.191800847583929 4.223512605329572 4.116453794383535 3.871818020946594 3.445720684858057 3.040938530463281 2.7396653460755083 2.6032351967250738 2.491440436474728 2.457078570343908 2.451541703714802 2.4241900515792416 2.349084230906483 2.245914458864931 2.176146259037947 2.188158561857472 2.235803271944452 2.253253494625349 2.202213950154257 2.1178920350612014 2.0173444245507097 1.9579625297930068 1.9706368109699792 2.2509233248731326 2.0763401421060537 1.8893894328086 1.8247094548124332 1.9178617791469443 1.8984919556154485 1.41375821637323 0.2201890179161589 -9999.0 -9999.0 0.0231504985383352 -9999.0 -9999.0 -9999.0 -9999.0 -9999.0 -9999.0 0.3525275286064582 1.3582298403860733 1.480727461006256 1.4879410702231162 1.1896941124420362 1.2597830123952778 1.2401520727993818 1.0970434718315198 0.9806703945096448 1.0061477046000675 1.5730138355650325 2.468498991583411 2.497967496326623 2.378573747196427 2.23973232725959 2.250277806212048 2.265058504750016 2.263620307499523 2.156248595720566 1.7131328048850478 1.4836801159509994 0.5841636344445158 0.357515720686258 0.2908793131215093 0.2877798300683656 0.4252678219240525 0.5142693570579123 0.5573720487590025 0.6196678074110596 0.7222216444441301 0.612398621329159 0.3694990428919431 -9999.0 -9999.0 -9999.0 -9999.0 -9999.0 -9999.0 -9999.0 -9999.0 -9999.0 -9999.0 -9999.0 -9999.0 -9999.0 -9999.0 -9999.0 -9999.0 -9999.0 -9999.0 -9999.0 -9999.0 -9999.0 -9999.0 -9999.0 -9999.0 -9999.0 -9999.0 -9999.0 -9999.0 -9999.0 -9999.0 -9999.0 -9999.0 -9999.0 -9999.0 -9999.0 -9999.0 -9999.0 -9999.0 -9999.0 -9999.0 -9999.0 -9999.0 -9999.0 -9999.0 -9999.0 -9999.0 -9999.0 -9999.0 -9999.0
4.011325995602321 3.841263665773017 3.573869655822544 3.336760699516569 3.141481613655008 3.026040850229987 2.894231212487957 2.6396143537590557 2.5732004260173564 2.596862420244652 2.479391297582332 2.4099492316590387 2.507699199829956 2.71399492365562 2.901558019373176 2.9954162022469206 2.9904650209728887 2.8584342836397605 2.6019322022913167 2.610127505906864 2.8831740041609457 2.998593082874548 3.0110795399801487 3.118270858686037 3.283546394802477 3.475527931765183 3.700465292984277 3.921298058677097 4.110379548550324 4.306172237669953 4.368615388288629 4.23909879665457 4.031474059128481 3.473606153820419 3.0150038405911 2.8894301783923027 2.8228845179255035 2.7692887344187267 2.6993167724000444 2.651379618428669 2.599820039526768 2.506335376701614 2.378400465635948 2.283118318101863 2.265642122597817 2.2961230025584904 2.321308704207103 2.321631118098926 2.2898913345561813 2.1689563520540283 2.0335020884485964 2.0481491789086075 2.3784424801463366 2.0404751583277334 1.8906800116591929 1.7940275013313145 1.699124966714428 0.8868009796298583 0.5537439838471403 0.012716213613706 -9999.0 -9999.0 -9999.0 -9999.0 -9999.0 0.0260749158828031 -9999.0 -9999.0 -9999.0 -9999.0 0.290091408013968 1.343122625925344 1.655102582067104 1.6358938437494257 1.4281337656548223 1.3115456628120952 1.132647791802719 0.9846147955580272 0.8796064442989877 1.0585853808585108 2.114480578116811 2.3469585655725544 2.3140593024080207 2.2748264073329496 2.2778340286380208 2.2855465967299358 2.266894799258622 2.210214358059433 1.8677081975262708 1.5048526388709935 1.3871264939439818 0.5859262870013873 0.5310696116235712 0.471303229612346 0.4088147536959595 0.468904726355176 0.5657645587350695 0.5940281519720654 0.6001453013193131 0.4857682483365341 0.4576794300588076 -9999.0 -9999.0 -9999.0 -9999.0 -9999.0 -9999.0 -9999.0 -9999.0 -9999.0 -9999.0 -9999.0 -9999.0 -9999.0 -9999.0 -9999.0 -9999.0 -9999.0 -9999.0 -9999.0 -9999.0 -9999.0 -9999.0 -9999.0 -9999.0 -9999.0 -9999.0 -9999.0 -9999.0 -9999.0 -9999.0 -9999.0 -9999.0 -9999.0 -9999.0 -9999.0 -9999.0 -9999.0 -9999.0 -9999.0 -9999.0 -9999.0 -9999.0 -9999.0 -9999.0 -9999.0 -9999.0 -9999.0 -9999.0 -9999.0
4.010104616049629 3.795985428077976 3.5051360775091096 3.3440034348643186 3.1870061768842617 3.0470937401374054 2.929966727084768 2.744754521154756 2.7236361230626254 2.713772364830335 2.6342176265711004 2.5892260368706346 2.7090029803806246 2.885452254182213 2.99871007360117 3.002195383309836 2.989116880788098 2.811850661536134 2.574889295738908 2.6089034977001995 2.9102596597136583 2.9998328013827646 3.007926545368444 3.117794268721129 3.30774554788296 3.488330881017335 3.699380254194894 3.912817766910174 4.138587983144374 4.414451410471195 4.4842260676534895 4.337133439643815 4.163922664209971 3.443832659714758 3.0389115909162348 2.985664322482533 2.979210880069796 2.950356319227872 2.8845593592383847 2.834412657934122 2.786931595959589 2.69101346057417 2.526299254689296 2.392501331950485 2.345012670926388 2.3555160304915423 2.3688117113401983 2.374176373873708 2.367185968093072 2.3141608978871133 2.187821794673442 2.155880167851441 2.064699195465634 2.000938298467384 2.028439439313033 1.885535379156898 0.8984071257608381 0.5426251354338011 0.3951481511016451 0.3274144486485786 0.0926115433807456 -9999.0 -9999.0 -9999.0 -9999.0 0.0719518261415765 0.165605618584572 0.0748267908774937 0.0444372439977517 0.0684726794834057 0.1373165260196175 0.2643047892704949 1.5086468960857018 1.7744055225333 1.727144617225942 1.3807860199663926 1.2526200361665494 1.5279380377262377 0.9162590974135922 0.901410124047212 1.3112456216401998 2.0165083519397733 2.1365966953537834 2.1855924217523715 2.239835637728961 2.261441609330454 2.270762882056041 2.241165676225044 2.068378034050736 1.5618912500163926 1.4506632412101346 0.8766090224457768 0.6548153132156918 0.5436500524009859 0.3819179945208539 0.4024549119830581 0.5323908761478335 0.5508012245079779 0.4309043677750995 0.356360095873397 0.4721341083375304 0.4438001047443955 -9999.0 -9999.0 -9999.0 -9999.0 -9999.0 -9999.0 -9999.0 -9999.0 -9999.0 -9999.0 -9999.0 -9999.0 -9999.0 -9999.0 -9999.0 -9999.0 -9999.0 -9999.0 -9999.0 -9999.0 -9999.0 -9999.0 -9999.0 -9999.0 -9999.0 -9999.0 -9999.0 -9999.0 -9999.0 -9999.0 -9999.0 -9999.0 -9999.0 -9999.0 -9999.0 -9999.0 -9999.0 -9999.0 -9999.0 -9999.0 -9999.0 -9999.0 -9999.0 -9999.0 -9999.0 -9999.0 -9999.0 -9999.0
4.013022375693028 3.80222338874688 3.572413037696652 3.4255289442490056 3.2720470497644034 3.1187169174518576 2.998220281059977 2.8497967926123207 2.758187362673992 2.737999054159322 2.6993604975058934 2.742911607956513 2.8740323667846903 2.9909313027500826 3.0025176799123487 2.988346015231245 2.8570275677512607 2.596289149237919 2.4276414832371094 2.504718750129589 2.8261414660649 2.9947783134228043 3.0270101328711267 3.095983777904752 3.277574469332761 3.479064272948816 3.71546042863368 3.925855925239969 4.162913314760193 4.405875325751932 4.462924122185356 4.349801951536088 4.167231992310862 3.5598257481531204 3.136250748876993 3.04778264386763 3.061773109690576 2.9993752593704848 2.962074944873871 2.9467673996184907 2.935538854129818 2.880217943194173 2.7286877094276774 2.5528806021792274 2.466480336460073 2.416707193572299 2.3807539121843124 2.3799458245301617 2.385497158128106 2.391674171601367 2.350881532633844 2.323888113101735 2.123425781860799 2.0540878722676803 2.251965856701397 2.1949096687164 0.7409877565262901 0.5372923479190699 0.4341206265686255 0.4018112671717951 0.4078605312407327 0.1637996205974793 0.0048703242289109 -9999.0 0.033451252562408 0.690985214861213 1.0831949611659208 0.6121486427080974 0.204404259564883 0.1295640562236091 0.1087532796058001 0.0512916992171451 0.1530333695505491 1.3913671176417846 1.5707870432122792 1.4472167521651338 1.2937555950143924 1.7028605346506915 2.097080888525607 0.9890857974777446 0.9496172313908792 1.6285171949135029 1.990733797476088 2.0811565723111665 2.2092515980667717 2.276396486804092 2.273770599365876 2.2572510190427613 2.2035475059886385 1.8936936284573236 1.5646020462263586 1.5060373965667886 0.6565153124104688 0.5455627510731784 0.4667291103178522 0.4465220557861658 0.4913757554110916 0.4762026282999747 0.4061532860981874 0.4292376726354878 0.5616711080401007 0.5873789184667033 -9999.0 -9999.0 -9999.0 -9999.0 -9999.0 -9999.0 -9999.0 -9999.0 -9999.0 -9999.0 -9999.0 -9999.0 -9999.0 -9999.0 -9999.0 -9999.0 -9999.0 -9999.0 -9999.0 -9999.0 -9999.0 -9999.0 -9999.0 -9999.0 -9999.0 -9999.0 -9999.0 -9999.0 -9999.0 -9999.0 -9999.0 -9999.0 -9999.0 -9999.0 -9999.0 -9999.0 -9999.0 -9999.0 -9999.0 -9999.0 -9999.0 -9999.0 -9999.0 -9999.0 -9999.0 -9999.0 -9999.0 -9999.0
4.013264005243086 3.942965689572948 3.762007892099629 3.5988213942794047 3.4142262485882378 3.1805263501018253 3.046521446836408 2.956106551830557 2.843806409855372 2.795726854199664 2.812095384658273 2.897666843763257 2.991257231384866 3.0094135772358523 2.929505469333062 2.7258594150963904 2.5124890300416145 2.419764754166052 2.445221741893685 2.607117862097403 2.823261048761231 2.957518112705518 3.026588511325736 3.1129799168057297 3.2856239010864443 3.4727712374636712 3.728679570335969 3.940211352553726 4.158293700861915 4.3290430295779485 4.358254703598475 4.2716447333528205 4.073222174111192 3.752291435073645 3.3905322113937406 3.248266936517725 3.212523899669048 3.1009396660702024 3.0097420762135263 3.1348825925520387 3.07704042557864 2.993873148968913 2.9549178932375195 2.806541064771615 2.662678236646646 2.518647296406862 2.4091086406544733 2.388703369008113 2.4306457869530647 2.491648931811266 2.5293840768201017 2.535305305513263 2.497911224848958 2.404470424346146 2.447608360417846 1.5169062763618306 0.8033734943949496 0.5941241058316237 0.4914377230435647 0.3580728925820857 0.293353432345658 0.2410283743792188 0.2430949478853702 0.3618548738542341 0.5120841145298755 0.4882414593979915 0.6281454037410223 0.7519007949311436 0.463091133511633 0.2027413616568192 0.0789867168963642 0.0125700999910143 0.0343079050451248 0.2567457504314668 1.210989183384723 1.3483786003475675 1.508455889030353 1.9169178047552715 1.7271625738871788 1.4707219323301468 0.8784053274188801 0.947719008136916 1.953208697332828 2.087776461286189 2.11577247254144 2.253232165248793 2.275977708566054 2.214548666933116 2.175613313398625 2.0759611535721056 1.6802720704323222 1.572780474244344 0.8584883636343563 0.5995027468473507 0.5943309905188863 0.5263020595312343 0.5154448315563052 0.5551072161358189 0.5570866581981783 0.5961587963045616 0.635254408999605 0.688516736549196 0.3098812874158945 -9999.0 -9999.0 -9999.0 -9999.0 -9999.0 -9999.0 -9999.0 -9999.0 -9999.0 -9999.0 -9999.0 -9999.0 -9999.0 -9999.0 -9999.0 -9999.0 -9999.0 -9999.0 -9999.0 -9999.0 -9999.0 -9999.0 -9999.0 -9999.0 -9999.0 -9999.0 -9999.0 -9999.0 -9999.0 -9999.0 -9999.0 -9999.0 -9999.0 -9999.0 -9999.0 -9999.0 -9999.0 -9999.0 -9999.0 -9999.0 -9999.0 -9999.0 -9999.0 -9999.0 -9999.0 -9999.0 -9999.0
4.0543008886508725 3.999836167449022 3.931926984586 3.783444040511046 3.5404403498073265 3.2485957476519696 3.094743277326842 3.007849696015493 2.9433257123656102 2.9043656528720625 2.9366921524238254 2.999933399920379 3.02129195155358 2.9033498744603152 2.5321797840914417 2.4824442208324022 2.470785397506569 2.4757683119118634 2.61165917022855 2.7531936507597554 2.8637047325128946 2.9581112668705805 2.991221250933103 3.142811942024906 3.370756057025989 3.5016675560560584 3.709303709265179 3.94496293505531 4.1151744471367016 4.260058074692398 4.2677317260909655 4.200109518896885 4.02435270728617 3.905545831218053 3.640309853041255 3.4549519580633623 3.428466721241095 3.3806447988145814 3.355302203580831 3.443259923763272 3.3003427021301395 3.0332239047320333 3.000000517790685 2.993775033137283 2.8760197455398853 2.676731631202966 2.5012767186797795 2.455019581145364 2.5205249842721087 2.595639179570134 2.6646278621956547 2.6969870886976306 2.619079778228768 2.557011501760467 2.445609450945656 1.0986117335297256 0.8349695261245668 0.6786056101203702 0.4708171059360508 0.336218190573546 0.2276591657242511 0.2001139533525323 0.2326215199774134 0.5913759531894038 0.8010323939202252 0.4041651498435115 0.3461531155372199 0.5691304853188309 0.652397920741026 0.442008892050698 0.136681460126441 0.0724709658744288 0.1214023658407611 0.1706998837580404 0.2893064576781509 1.0739432252475398 1.5033328708557967 1.663112043602168 1.616775145280462 1.5644146068959652 1.0743580230414511 0.9370386894538748 1.3666623437597134 1.9793359300668716 2.1131090475806102 2.281784802351915 2.2760825006282355 2.173522636494435 2.08295639816064 2.049923224721921 1.819390654594413 1.6793098632766907 1.618453062573067 0.8952182520030758 0.7607592968433483 0.599643761632422 0.5455164593690527 0.5797442808454079 0.5966948604639484 0.6082148874074361 0.6871990385658755 0.8049469038935462 0.7098414776862754 -9999.0 -9999.0 -9999.0 -9999.0 -9999.0 -9999.0 -9999.0 -9999.0 -9999.0 -9999.0 -9999.0 -9999.0 -9999.0 -9999.0 -9999.0 -9999.0 -9999.0 -9999.0 -9999.0 -9999.0 -9999.0 -9999.0 -9999.0 -9999.0 -9999.0 -9999.0 -9999.0 -9999.0 -9999.0 -9999.0 -9999.0 -9999.0 -9999.0 -9999.0 -9999.0 -9999.0 -9999.0 -9999.0 -9999.0 -9999.0 -9999.0 -9999.0 -9999.0 -9999.0 -9999.0 -9999.0 -9999.0
4.271831685577662 4.025726858360038 3.992270860422108 3.870601246148523 3.646655249714952 3.407832744669967 3.213487136902839 3.1138450585560613 3.021088659674991 2.996402466944025 3.025010117559998 3.058451366639596 3.0234775792349837 2.6048945800515533 2.458773507609606 2.6254795480044733 2.792463067359136 2.8342047904007925 2.8609487028708 2.87516784015509 2.929765544829793 2.989789782783482 3.015650717344373 3.1998863108661677 3.478816571725562 3.614077849021068 3.719856624706754 3.9115181077242345 4.0751480559483975 4.221027260217042 4.26044694688207 4.2226107662456815 4.072248185518236 3.985585427330735 3.806358886110875 3.628364837153337 3.602300606733833 3.608285995993034 3.646048590274874 3.736200108680009 3.578821360040785 3.248107544878802 3.0884725681725103 3.1141293432789365 3.008374329096783 2.811649369526298 2.653791124431418 2.59290045923605 2.634050178709096 2.700580538561079 2.7508845017912065 2.785604836397447 2.721621370750128 2.5500372993444484 1.5350895525834365 0.8938720818914625 0.8463770249190234 0.7933207996692018 0.5771636308988829 0.357152799604512 0.2624646885453329 0.2176539733134685 0.1843073581392391 0.1763756247779201 0.2880825684724445 0.4995980544353812 0.5402222973472695 0.5264545461215808 0.6849984200367653 0.6814181428366821 0.131755997858888 0.1814100896948608 0.2262553341813301 0.1952084226167426 0.1750525273194073 0.3186558202499307 1.3178574990835457 1.6105580457544055 1.5974706844422546 1.528645797508588 1.016130742616469 1.050635611614563 1.132205193156513 1.5901832608068462 2.24402165083069 2.35411219537574 2.3408589042407524 2.163944502329348 2.0602635295350518 2.009529409668027 1.898998268036494 1.8219007978400563 1.8483295139047835 1.6197148122831413 0.9225433104468592 0.7643514796796382 0.5976379986576138 0.5002648690790367 0.3984791853565542 0.4870958655084857 0.7931503708272513 0.7882443019278969 0.7560562812564428 0.597518677286867 -9999.0 -9999.0 -9999.0 -9999.0 -9999.0 -9999.0 -9999.0 -9999.0 -9999.0 -9999.0 -9999.0 -9999.0 -9999.0 -9999.0 -9999.0 -9999.0 -9999.0 -9999.0 -9999.0 -9999.0 -9999.0 -9999.0 -9999.0 -9999.0 -9999.0 -9999.0 -9999.0 -9999.0 -9999.0 -9999.0 -9999.0 -9999.0 -9999.0 -9999.0 -9999.0 -9999.0 -9999.0 -9999.0 -9999.0 -9999.0 -9999.0 -9999.0 -9999.0 -9999.0 -9999.0 -9999.0
4.708630437785543 4.192477272393028 4.002530645856753 3.906795489353594 3.769921963389852 3.646626085591138 3.568867688774169 3.4387667669896067 3.2956273194636543 3.199457969105186 3.194832187225078 3.177977751821717 3.0691592164131647 2.6914983790458886 2.6479522120872847 2.8822549693692228 2.967458838491709 2.9745028725402296 2.957849653184897 2.9422786383680397 2.960952530240888 3.023627223209661 3.084501563970841 3.3678106311392213 3.683910544769925 3.8361001419150806 3.8184241087135273 3.88975035118721 4.082290425680779 4.2300797351875925 4.340340888831128 4.380825644200115 4.257024700517806 4.035513318484706 3.890115208663469 3.770740203468199 3.789278736734323 3.818510836421796 3.9436469922722512 3.987975883240415 3.8820973686235374 3.608706736924467 3.4301147653394013 3.4116065079257134 3.1986508276562486 2.910131529285958 2.796363979961924 2.7773601932800385 2.817892667832532 2.823868968245716 2.842206118279882 2.873715260729062 2.817144082696492 2.536714163691622 1.0702275445406633 0.8792036776374532 0.8616729139626724 0.8148176909663365 0.7073401057878486 0.5026445930732049 0.2990748199776939 0.2190417000951354 0.2027900116153171 0.1686872869522615 0.1272848059806997 0.2890097124958048 0.474694832377257 0.5707816600214726 0.7599999904632567 0.0260906683909463 -9999.0 -9999.0 0.2747204323224069 0.2441199090154542 0.1915419973382071 0.1626040323119697 0.2845870487321558 1.579221626072337 1.5629431452565767 1.3773028646341967 1.037566035086059 1.1882901597032376 1.172659193889023 1.1854828699709044 1.7369304596518744 2.2917623458045875 2.2943364712609435 2.171309852379053 2.112761849208237 2.0716306307241346 2.036728315936497 1.9419580190161017 1.911041520187701 1.909944361414682 1.0425924265989543 0.9389917207385564 0.6616983944231487 0.5310786777318978 0.3981968771467012 0.3907621198716898 0.5749994121927814 0.7578773047415726 0.7639286478708918 0.6082282269715804 -9999.0 -9999.0 -9999.0 -9999.0 -9999.0 -9999.0 -9999.0 -9999.0 -9999.0 -9999.0 -9999.0 -9999.0 -9999.0 -9999.0 -9999.0 -9999.0 -9999.0 -9999.0 -9999.0 -9999.0 -9999.0 -9999.0 -9999.0 -9999.0 -9999.0 -9999.0 -9999.0 -9999.0 -9999.0 -9999.0 -9999.0 -9999.0 -9999.0 -9999.0 -9999.0 -9999.0 -9999.0 -9999.0 -9999.0 -9999.0 -9999.0 -9999.0 -9999.0 -9999.0 -9999.0 -9999.0
4.99901483820428 4.684761636572556 4.139504637402543 3.97613214052653 3.909857108632077 3.921127642689285 3.888153381335907 3.709599906768674 3.546396979788329 3.4341928281101075 3.3837370095623305 3.309980312879216 3.1852456510937115 2.9451232322783945 2.85479533508519 2.992045788887313 3.0113080772554754 3.048455892716412 3.014432191000884 2.981690496021924 3.008600398277281 3.1311422212576416 3.3694405316185447 3.668239039520776 3.913401435493404 4.000290871448792 3.925320915689309 3.973568249864062 4.154137459343121 4.315376641770874 4.5111318548847406 4.612735620629066 4.531058186710341 4.249457312517941 3.9777144619590232 3.916830372070337 3.96731709015602 4.000819185449447 4.046440493473394 4.056818556891796 3.999605537093164 3.889925748979525 3.747492948914783 3.724581175768753 3.5671160166001648 3.109302836437485 2.9894376102597944 3.019833727526981 3.0191897664364054 3.0169809121667988 3.024648842455445 3.013677984946964 2.9278739149387105 2.6265456363049897 1.0152693075070551 0.9043316910023612 0.8753220584115398 0.7992885803044504 0.6735739428813623 0.5405956050445687 0.3820161054417271 0.2764594997205801 0.2298979018298975 0.2122468045797119 0.1956663971835208 0.2550486042635566 0.2345023278419848 0.2394056323738283 0.5693022637933747 0.2430244629152992 0.0015928504828602 0.5203577746853089 0.6440618710068299 0.6494629881755515 0.6551436097546531 0.1701591225598436 0.0909824021752921 0.2875015108436035 1.2532289836981638 1.081410575463249 1.005887323490139 1.3203491550134856 1.2848799075641857 1.2118541844007364 1.3578424294429052 1.8043615115768348 2.0807145236273965 2.183160060094485 2.1853080759238863 2.168088762611091 2.128010260223119 2.051182300573293 1.9260508551258704 1.883939736829156 1.706486103993135 1.0198824017937622 0.6842213681407336 0.5639437914503403 0.481173403737593 0.420361714227105 0.4874236344731741 0.697796581606486 0.7822913322883547 0.5989243924654284 0.2386727361626737 -9999.0 -9999.0 -9999.0 -9999.0 -9999.0 -9999.0 -9999.0 -9999.0 -9999.0 -9999.0 -9999.0 -9999.0 -9999.0 -9999.0 -9999.0 -9999.0 -9999.0 -9999.0 -9999.0 -9999.0 -9999.0 -9999.0 -9999.0 -9999.0 -9999.0 -9999.0 -9999.0 -9999.0 -9999.0 -9999.0 -9999.0 -9999.0 -9999.0 -9999.0 -9999.0 -9999.0 -9999.0 -9999.0 -9999.0 -9999.0 -9999.0 -9999.0 -9999.0 -9999.0 -9999.0
4.976423536181185 5.008177895422843 4.679077857706579 4.107724985527315 4.000964500289736 4.0217370051867904 3.98146710065661 3.8237672890399255 3.667070994929448 3.5770223980371343 3.519595858630974 3.454161391515751 3.345385475028106 3.166245583271292 3.0671060849377376 3.0704734339529938 3.087452901188424 3.134831799095916 3.1644878774342677 3.2249809091292363 3.387837340151098 3.5384889172986664 3.7446118294493935 3.991499344440416 4.1562563676101245 4.191036011916057 4.068610595229518 4.036464461486474 4.1991316730043415 4.442572484322313 4.623508475090628 4.680286417627059 4.670420534561604 4.472789097350322 4.115417532069195 4.0647207611467575 4.131254184498245 4.189439029556254 4.213071382104533 4.278722780477461 4.28019097786286 4.079504319337854 4.016215457345601 4.072090348307716 3.97333903597513 3.531233037125701 3.2928930772809366 3.225929082152992 3.197291166275887 3.1934619736963814 3.2154788469100946 3.137074248960104 2.980803312193016 2.446921532655445 1.1571151396475765 0.9457471659700168 0.8574690221726451 0.7361001336384139 0.6088710700582946 0.500679639982784 0.4206747213918795 0.3452309892755562 0.2717699948171798 0.2526042784378895 0.3194973911740824 0.6592823635265571 0.8616765752006704 0.8140912315246037 0.7484133114773839 0.7006234984417351 0.8435914575619518 0.8070427334729718 0.6800652240091174 0.6601838702393075 0.6844019838659505 0.5611751947060521 0.07242524157484 -9999.0 0.353036392071571 0.9491183474021274 1.1745782660002932 1.4183352404243474 1.3090422596428737 1.134925650087179 1.1977456791502572 1.6190951357062242 1.9580981337165824 2.195915300405011 2.252709062886522 2.1964081151955 2.195824432397046 2.4019154809146697 2.2726076386847414 1.8910646745361115 1.76319314744429 1.087003134259532 0.9656180219374348 0.6035836014818526 0.4975571901532422 0.4532541348784839 0.4678169927148358 0.4993665389517122 0.7794486599672665 0.8509392544701979 0.4552714063806684 -9999.0 -9999.0 -9999.0 -9999.0 -9999.0 -9999.0 -9999.0 -9999.0 -9999.0 -9999.0 -9999.0 -9999.0 -9999.0 -9999.0 -9999.0 -9999.0 -9999.0 -9999.0 -9999.0 -9999.0 -9999.0 -9999.0 -9999.0 -9999.0 -9999.0 -9999.0 -9999.0 -9999.0 -9999.0 -9999.0 -9999.0 -9999.0 -9999.0 -9999.0 -9999.0 -9999.0 -9999.0 -9999.0 -9999.0 -9999.0 -9999.0 -9999.0 -9999.0 -9999.0 -9999.0
4.753703616298193 4.961839847046547 5.006054172695759 4.767411818394852 4.383232845166907 4.190894955306059 4.02222648029484 3.8833717574301954 3.727937178935953 3.644342074532741 3.6219533377456568 3.605568316050465 3.597337929988414 3.571654415590751 3.425726430643981 3.259731362926481 3.210437733880539 3.279506290809289 3.4393838480650016 3.701058259379192 3.8635514845055976 3.874783217740796 3.9683058911530207 4.165268104567128 4.228039771385667 4.22620764257548 4.056859173957333 4.07039016228163 4.34166353775967 4.6097409556465285 4.707088369537641 4.72939521791133 4.728656879885408 4.659331807709212 4.404496998505636 4.275788506135758 4.294920307075458 4.329243608820336 4.386084161591636 4.467888382157344 4.504886688797496 4.319932013877488 4.1652787074677615 4.157611007533157 4.1240702381862056 3.828865852292185 3.551879925447464 3.419412757537853 3.344528360492357 3.340103635176347 3.318992157088573 3.176970755325107 2.878046180992368 1.8569909958494677 1.3842150843825896 0.9732089472000888 0.7979846714556236 0.6978948938098789 0.6512706616696327 0.5838364098913489 0.5672978025022648 0.9831889772625088 0.9838968624700642 0.978961536304655 0.9712290774837834 0.9645566629990784 0.9286474842051192 0.8814738476886476 0.8567415742725644 0.9480032321065748 1.008778950819179 0.8484113979753471 0.7160607300726349 0.6661407779479913 0.653074436062588 0.5183679840925883 0.1515423169492177 -9999.0 -9999.0 0.4295588261485603 1.3901715010246432 1.4912995159112583 1.168532038149101 1.0676734752970602 1.2656644099354657 1.3539473072345976 1.996472113085943 2.2091976414032595 2.3027202421800013 2.1536015990058317 2.1895842455862904 2.429942826945707 2.338696042771021 1.8736919495014448 1.751942306154874 1.6428547008777017 0.9905182565110444 0.7699246087143676 0.6404433930820228 0.6005282293379695 0.5310503836849909 0.5174517596969251 0.6006302550062642 0.7732322294975819 0.6810105831664804 0.3952948609475828 -9999.0 -9999.0 -9999.0 -9999.0 -9999.0 -9999.0 -9999.0 -9999.0 -9999.0 -9999.0 -9999.0 -9999.0 -9999.0 -9999.0 -9999.0 -9999.0 -9999.0 -9999.0 -9999.0 -9999.0 -9999.0 -9999.0 -9999.0 -9999.0 -9999.0 -9999.0 -9999.0 -9999.0 -9999.0 -9999.0 -9999.0 -9999.0 -9999.0 -9999.0 -9999.0 -9999.0 -9999.0 -9999.0 -9999.0 -9999.0 -9999.0 -9999.0 -9999.0 -9999.0
4.811464195664772 4.837001015229762 4.971681169986774 5.003647476603709 4.902525868524005 4.46608733786967 4.134607591070818 3.98180649329376 3.82073815236425 3.698552119478542 3.7067759409843 3.7602570466580887 3.805395028156923 3.865852486240904 3.770782354568397 3.4896296192285665 3.3815757137838944 3.456221278147721 3.6408152778190512 3.822731549254974 3.9138798659212193 3.921096161684705 3.970375052076431 4.068269507804062 4.0837940147582 4.069636893164615 4.090631751123542 4.285508955729516 4.616707018598344 4.83213062576389 4.842836204037456 4.782378216578136 4.762863112105958 4.715535442017155 4.540066332424451 4.505063787561371 4.482762057166286 4.472931793576695 4.504188710498718 4.557236879694681 4.550997512324342 4.426707259617968 4.256826437130447 4.174258730975956 4.131948790108488 4.009756326093714 3.8367106889096014 3.646656606829808 3.4760620595208493 3.39695446391356 3.335477224507029 3.0189082412728627 2.252597646394217 1.8079029503629165 1.466141107586337 1.2817008715658007 1.193841504447023 1.1274766721460134 0.9128801743576958 0.88857531782696 1.0119988619264082 1.0165880444987971 1.000574875977282 1.0000045874089496 1.0000036560929106 1.0005215335060234 0.9803571057742674 0.8942565925144346 0.8753666967416927 0.9702517775515472 0.9951049864423052 0.8898600457957779 0.8096773216134453 0.7591312264761461 0.6359363249757122 0.4224034303458985 0.1804452096363077 0.0438074004834032 0.051534239801992 0.155593409704055 0.632787255842391 1.3855200875926208 1.1256667667530846 1.2846378859030194 1.3877869114524206 1.2515227044796533 2.01247629312752 2.2229434686748486 2.356322257145657 2.377761775109983 2.224137611044932 2.227756907263307 1.915819837552574 1.83437097621345 1.7270949658014565 1.6927535066216954 1.6305134609963032 0.7808381930100516 0.6925537420250467 0.6305944247669399 0.5722907146405004 0.5645785801865864 0.5925693174620632 0.6612523503242502 0.7473937644410309 0.6694161514839038 0.1124876237337381 -9999.0 -9999.0 -9999.0 -9999.0 -9999.0 -9999.0 -9999.0 -9999.0 -9999.0 -9999.0 -9999.0 -9999.0 -9999.0 -9999.0 -9999.0 -9999.0 -9999.0 -9999.0 -9999.0 -9999.0 -9999.0 -9999.0 -9999.0 -9999.0 -9999.0 -9999.0 -9999.0 -9999.0 -9999.0 -9999.0 -9999.0 -9999.0 -9999.0 -9999.0 -9999.0 -9999.0 -9999.0 -9999.0 -9999.0 -9999.0 -9999.0 -9999.0 -9999.0
4.864491274762523 4.823584915815113 4.836077568650277 4.956389490143468 5.003779309713094 4.908804763629501 4.44492693000809 4.144692403896161 3.982754975018427 3.852989246981308 3.882584529798426 3.897469183157764 3.902670105602998 3.947572918588323 3.9487197679620167 3.693541037110879 3.542424384200504 3.640339071236976 3.7559794365749446 3.8169956927578905 3.900363805663014 3.926308885667196 3.962017425020103 3.999979406484621 4.07291273154468 4.26115970050002 4.478071783165926 4.67059216146615 4.868504537838072 4.984780624259115 4.983030184423976 4.867764695137723 4.76377709281277 4.690452809109303 4.590202102172107 4.60113747426727 4.626487514575562 4.632744632706295 4.636531546092982 4.615114833437089 4.577877187351009 4.501868878849604 4.37955504215266 4.281358917512337 4.20699721431516 4.11376264516713 4.009595914509551 3.898558443170609 3.630713980969481 3.386158863750822 3.079303641139275 2.577270712481082 2.206256855609086 1.930011769423132 1.6420226164780594 1.4217459041729086 1.288942512850631 1.1702765286673815 1.0658060033483827 0.935788298974558 0.9718079776367832 1.003859704787117 1.0006107562604645 1.0005988650921294 1.0041120005429245 1.0070234458445346 0.9996236073929892 0.9411104688620628 0.9096669929891176 0.9539864186812008 0.9714686216302107 0.9062105385452404 0.8410390491566397 0.8161230776401321 0.6973694049293457 0.4250227592619444 0.180534176111632 0.0750369271320224 0.0756895128317912 0.1701624440547653 0.2103806515520382 0.7140137909764601 1.187539280572257 1.3860846224763534 1.364612603541877 1.2311737960923517 1.5176242282608945 2.084053967276956 2.547190160692792 2.4160829626158677 2.3023858159875785 2.123678765383468 1.8922326252006632 1.8510060260601888 1.7675625969673958 1.727787207539088 1.6827519786818426 0.867328386765166 0.7174365963816731 0.6247317391626466 0.6115808318315274 0.6542092657866099 0.593695931606455 0.5739202919044794 0.7676903805159391 0.7594151903034854 0.5375483424769859 -9999.0 -9999.0 -9999.0 -9999.0 -9999.0 -9999.0 -9999.0 -9999.0 -9999.0 -9999.0 -9999.0 -9999.0 -9999.0 -9999.0 -9999.0 -9999.0 -9999.0 -9999.0 -9999.0 -9999.0 -9999.0 -9999.0 -9999.0 -9999.0 -9999.0 -9999.0 -9999.0 -9999.0 -9999.0 -9999.0 -9999.0 -9999.0 -9999.0 -9999.0 -9999.0 -9999.0 -9999.0 -9999.0 -9999.0 -9999.0 -9999.0 -9999.0 -9999.0
4.9142805173235695 4.740791671954774 4.657511513490148 4.657178195407835 4.816628887651158 4.988816210099759 4.920040151516607 4.581546710311816 4.312305575937059 4.1384331541129225 4.022325493870188 3.9243734105699417 3.907186737598935 3.930967068233224 3.946316401588041 3.802877749329133 3.6593392923829566 3.795292315104666 3.8600021122702106 3.8799321554543167 3.922640436864437 3.959675648085784 3.994833944310016 4.077397047924367 4.299784658632962 4.646014533603185 4.850052481621236 4.893948277569415 4.9155277833115605 5.008690367039277 5.094146205232015 5.203477547794097 4.929927658664779 4.748039182588327 4.687058651854049 4.707956233066684 4.751501942352931 4.780321991826049 4.77491760888414 4.733068769292966 4.670330462109008 4.594435897832169 4.5328147472499465 4.494392020664792 4.439963638423634 4.3319623337599 4.231393921436645 4.138992109868102 3.851176580353952 3.2134309207377125 2.905800888777362 2.574766654260212 2.3169172561266937 2.016564783993043 1.8055160588414136 1.543003129143727 1.3442327423976266 1.206915646825644 1.112444841069243 1.0422477490125024 0.9963979852336302 1.0022802545546332 1.0074828751806173 1.0266001931816455 1.039421358456247 1.0235837113776531 1.0004790974904776 0.983178039262724 0.9663211744812268 0.9800676344561198 0.9824859043469372 0.9283297475250528 0.8216126104240644 0.7270395172164349 0.6521443055383768 0.5383723821839315 0.2945499470872911 0.1007215143098336 0.0661880002439137 0.1625512998582336 0.2275514752023946 0.2162847884300157 0.8947061159965892 1.4674222725495074 1.4571359472493204 1.5298170637055346 1.6632859703114524 2.1009114522753816 2.5190877987072406 2.383822116172311 2.28141527501432 2.01736563317805 1.8848394899090384 1.850774853766948 1.8279668700190248 1.7742562668396098 1.7064869934008993 1.5900029907045727 0.813668536544771 0.7630041670503788 0.9814528330804652 1.030781739023446 0.716595813897715 0.55270419495222 0.5930303306973697 0.5358806586949708 0.4464262448579696 0.335080709784179 -9999.0 -9999.0 -9999.0 -9999.0 -9999.0 -9999.0 -9999.0 -9999.0 -9999.0 -9999.0 -9999.0 -9999.0 -9999.0 -9999.0 -9999.0 -9999.0 -9999.0 -9999.0 -9999.0 -9999.0 -9999.0 -9999.0 -9999.0 -9999.0 -9999.0 -9999.0 -9999.0 -9999.0 -9999.0 -9999.0 -9999.0 -9999.0 -9999.0 -9999.0 -9999.0 -9999.0 -9999.0 -9999.0 -9999.0 -9999.0 -9999.0 -9999.0
4.975887419602671 4.720611541785932 4.615926826758014 4.48000123206485 4.370012606789213 4.756486437526797 4.977231089886379 4.94102259179049 4.693128534778247 4.495046519997742 4.334086125257977 4.0453499746983335 3.9284773286697656 3.921974560496989 3.920587374808396 3.807349917701786 3.725770369940006 3.8446963350180527 3.9375263162214593 3.9714698224764615 3.991002768523753 4.004382957956616 4.071862029505638 4.196700179282198 4.428643564234554 4.755417058229416 4.936928884698518 4.940858787762598 4.905524848776244 4.986018204554825 5.437910396476805 5.609736243975837 5.252765192942374 4.944320939374858 4.843453578988674 4.850593015714773 4.89801884195517 4.942954126458131 4.935500480959956 4.87860229975795 4.829582068902622 4.811734783388305 4.772598758864517 4.752072289753442 4.7210163670884215 4.575585529859278 4.441301778311927 4.365263375899221 4.076781615785962 3.0562043467296744 2.7330825028903023 2.48528940360481 2.3425926850775243 2.1291455020428747 1.9070314808860864 1.613570350330709 1.3894196995660557 1.2417566900582349 1.1705119081749524 1.1423321074073578 1.15823882620964 1.1595665136782594 1.1674100700180332 1.190420777781778 1.1567783391577866 1.0732972821467732 1.0083986149768982 0.9976297090474564 1.0095808297166946 1.0165800819208088 1.0043303235969336 0.9266247568206568 0.7213531930699758 0.6542691431444569 0.6607904807408043 0.6617243392821363 0.5052246908410468 0.2651202357948927 0.1532480595760736 0.2213992155136676 0.2890213929570789 0.2198538401096374 0.2455234392667569 1.1792245115302509 1.548801874993435 1.5869288203277514 1.491798447999187 2.093649925819611 2.349218866602398 2.3396477396909248 2.1492706483768327 1.949590438745379 1.9160329720729543 1.8978575344847592 1.8527043062123736 1.8094134676446252 1.7889737803998251 1.7507691266284224 0.9267258644438392 0.8196005744577154 0.9366493100124108 0.965810444762318 0.7117522236022626 0.4698588562322727 0.4885955120559118 0.4730283083253681 0.4330022391915094 0.4270172112272534 0.1539006608038149 -9999.0 -9999.0 -9999.0 -9999.0 -9999.0 -9999.0 -9999.0 -9999.0 -9999.0 -9999.0 -9999.0 -9999.0 -9999.0 -9999.0 -9999.0 -9999.0 -9999.0 -9999.0 -9999.0 -9999.0 -9999.0 -9999.0 -9999.0 -9999.0 -9999.0 -9999.0 -9999.0 -9999.0 -9999.0 -9999.0 -9999.0 -9999.0 -9999.0 -9999.0 -9999.0 -9999.0 -9999.0 -9999.0 -9999.0 -9999.0 -9999.0
5.00925030000646 4.806372828113272 4.680619869595066 4.477256982635425 4.335039116729398 4.44449944624973 4.838483672030879 4.977933423598193 4.962430776764206 4.752525722055402 4.4843569415098985 4.215781865942015 4.001777111330559 3.952568842916867 3.916342754851559 3.802988136276311 3.769852877581698 3.869648028362181 3.958341755647489 3.992395908041982 4.00413106113838 4.044669928628444 4.144675268727928 4.265712808148614 4.483225245676337 4.760292617377354 4.968742909492385 4.992199156743803 4.948866458754154 5.042827595678429 5.755512808272195 5.771391732383086 5.464811006942512 5.141056197831442 4.987472755945911 4.97290074985127 5.017844706398481 5.0816703060976 5.068323788302957 5.016076716810929 4.989083334224954 4.996011105678864 4.988914260315859 4.965612226570546 4.901031853843217 4.710120959939165 4.460910496903208 4.346319833982344 3.964434141422593 3.028298676588855 2.675724649565359 2.4109137443771385 2.305438211959604 2.1405615029854896 1.9239235798523675 1.6154084236845123 1.4258311324400683 1.3052658752706592 1.270841421034763 1.3447799836164809 1.3483941549475942 1.3332455196435078 1.3754791753562294 1.440397006546915 1.3301298281433986 1.172744471665146 1.0681768705212815 1.0446538765715 1.0427519995187846 1.0293779243100023 0.9847393041324732 0.8099060629084449 0.6768346796725869 0.6567967599868464 0.7529160212847796 0.850118047759727 0.7698192083745268 0.5452659004242681 0.3703609963896041 0.3735720449969675 0.407339833600256 0.40290202938587 0.8411070740848843 0.8854316039067263 1.0033930070758763 1.1691730702060958 1.1341159912688945 1.1798662205851622 2.0559637985858954 2.1153688728937863 2.196284591208829 2.062542374322067 1.975068373580381 1.9331584011854777 1.8800762875343309 1.814064675556983 1.8380388896705648 1.861556424013674 1.5293499874150815 0.895463220537998 0.8864703741530459 0.7682335534537922 0.5488915426786785 0.4499712222852328 0.4737924121138714 0.5491575761864712 0.5104869156198214 0.4808640017867088 0.4338181485175391 -9999.0 -9999.0 -9999.0 -9999.0 -9999.0 -9999.0 -9999.0 -9999.0 -9999.0 -9999.0 -9999.0 -9999.0 -9999.0 -9999.0 -9999.0 -9999.0 -9999.0 -9999.0 -9999.0 -9999.0 -9999.0 -9999.0 -9999.0 -9999.0 -9999.0 -9999.0 -9999.0 -9999.0 -9999.0 -9999.0 -9999.0 -9999.0 -9999.0 -9999.0 -9999.0 -9999.0 -9999.0 -9999.0 -9999.0 -9999.0 -9999.0
5.038818443517528 4.905675211971857 4.750029103522369 4.573227030408752 4.377128828193226 4.38719048388421 4.641409235892684 4.889869304037283 4.985646107679494 4.970486156417272 4.728267119757509 4.365809729391437 4.080680312640837 3.998918598875731 3.976335373689433 3.885705685365222 3.857272495218022 3.911403287957868 3.956625842994768 4.007790631411687 4.0675801662004 4.131718777315622 4.230867761171101 4.357018768018838 4.541690915254268 4.772103191140858 4.999155300828829 5.029820411876456 5.026006983261457 5.33815729150601 5.922958359642293 6.000846440081904 5.754235989126797 5.411995791611562 5.186964272077745 5.133758446818644 5.206277071580431 5.270014877930094 5.248657189917762 5.222567111321877 5.111447659384425 5.076668680802548 5.082814680362579 5.021357396778221 4.972997076798615 4.619129678132258 4.389030134294212 4.170262232135965 3.736430749621885 3.221929024393919 2.926324334748088 2.53694114491206 2.292814579890768 2.059115271431311 1.8240000382794568 1.7014170431979148 1.5132425578701163 1.403233565896613 1.4517477916939323 1.6054802760896945 1.5655539138274883 1.429883117661294 1.4615827025208796 1.5237726380887044 1.4415258770696362 1.2313364818106187 1.094793255055624 1.0742853579229217 1.057572084462144 1.008054345405222 0.8690072705866712 0.7888604085459839 0.7228054956755757 0.7518642165182665 0.8761208138028558 0.93639753598693 0.8944117949658438 0.726350994180526 0.4724689287186138 0.4595516584295853 0.5629728232910608 0.7110420361457017 0.927086069682798 0.7815343383163743 0.5979521221063784 0.6301817574730111 1.0128650698129138 1.1129782443256409 1.4654766085116582 1.977467903598276 2.167470576200859 2.2445197197734688 2.000436752845569 1.9238884042521325 1.925318026029256 1.863041876115048 1.7608054660175785 1.7220865546267303 1.6473981602340817 1.548901669211999 0.9438871096253028 0.6582647705697094 0.59083729623676 0.527296272108052 0.4636055615603442 0.599718355203894 0.6139264096994546 0.4653774734065113 0.437512818381342 0.3008901321380949 -9999.0 -9999.0 -9999.0 -9999.0 -9999.0 -9999.0 -9999.0 -9999.0 -9999.0 -9999.0 -9999.0 -9999.0 -9999.0 -9999.0 -9999.0 -9999.0 -9999.0 -9999.0 -9999.0 -9999.0 -9999.0 -9999.0 -9999.0 -9999.0 -9999.0 -9999.0 -9999.0 -9999.0 -9999.0 -9999.0 -9999.0 -9999.0 -9999.0 -9999.0 -9999.0 -9999.0 -9999.0 -9999.0 -9999.0 -9999.0
5.125942553125101 4.996264091530366 4.822455934257562 4.6301780101555625 4.449911333592441 4.432550155844433 4.546512521518062 4.750706003726565 4.915562951121024 4.984968191374841 4.970907019403331 4.682900059618408 4.244588364730713 4.008244148175134 4.001797533426922 4.050938158578315 3.9856165394687855 3.967520658667216 4.02574154168942 4.199610277677124 4.297262935073553 4.344384531514431 4.430022476465854 4.55018291034256 4.690612060661062 4.7950837941729 4.923909235760821 4.99152282999662 5.041768868914829 5.57034425750868 5.921534578929856 6.008172593677857 6.004552473229859 5.682806133785941 5.430198540661744 5.360857658513924 5.428466608004376 5.470066671434728 5.423533620051108 5.330870830372128 5.213977752128763 5.147709754939108 5.217153445770096 5.131009339960682 4.829893519713091 4.609435109235139 4.384627639233835 4.01197763583073 3.5842495081557937 3.1816979407631907 3.018191217848312 2.739333537684144 2.297609814827977 2.000027542627219 1.8506210080467391 1.7970778004502244 1.6422221954811032 1.5038015530743705 1.6017542767144672 1.7785846093184234 1.7751039639630857 1.599135865797231 1.5480505606595631 1.5433394464412684 1.4412838684534328 1.205440194692495 1.0782192129937809 1.0526619613933286 1.0410965609902787 0.9517135628564108 0.8641218191713546 0.8569975185166551 0.9074992468886548 0.9221223437490362 0.957218015514798 0.95256220136101 0.8827688924423294 0.6811860056869369 0.4349196708809219 0.4470877326462539 0.633602720041677 0.7831601555939147 0.9817469219969448 1.0225015143805924 0.6450806542641616 0.5954870416575235 0.7285044592871796 1.1278868903726469 1.2472242066242658 1.6960215732831272 2.0461220593848197 2.2742643027188985 2.23363696152798 2.020008427530094 2.0930491622477074 2.177424368262264 1.961281767545699 1.7235341173854712 1.697342767231096 1.6717914840562202 0.9358541481327451 0.5603524498864688 0.6395300452799197 0.6146633519806747 0.4433377034264337 0.3983060027976109 0.620455831036446 0.4259982693038666 0.3340724107685933 0.2951094146208097 0.0019778992222377 -9999.0 -9999.0 -9999.0 -9999.0 -9999.0 -9999.0 -9999.0 -9999.0 -9999.0 -9999.0 -9999.0 -9999.0 -9999.0 -9999.0 -9999.0 -9999.0 -9999.0 -9999.0 -9999.0 -9999.0 -9999.0 -9999.0 -9999.0 -9999.0 -9999.0 -9999.0 -9999.0 -9999.0 -9999.0 -9999.0 -9999.0 -9999.0 -9999.0 -9999.0 -9999.0 -9999.0 -9999.0 -9999.0 -9999.0
5.206988005761913 5.053518998513337 4.9157613338786685 4.698007605957527 4.537245396740636 4.499393011941601 4.570816368040377 4.738814682285887 4.836691822021682 4.90498907993336 4.976382450983472 4.965996146007734 4.586329931307071 4.023209764933304 4.024844269167486 4.087761804737043 4.008356578597776 4.019377686155108 4.190574998605324 4.368604581961158 4.4282859596367325 4.463855841841337 4.62329047610234 4.79579191204531 4.783257719938209 4.785291653578113 4.838917029003516 4.905574214899978 5.002727697765419 5.542041339934181 5.834082174232552 6.0014052939108335 6.02253939166126 5.829440869280295 5.6270122777136855 5.616075095091002 5.683863007381616 5.673532131121787 5.600000127388607 5.492313745362235 5.343033983257184 5.254161922704832 5.384731386773109 5.39411997009079 4.767325599580108 4.710771246875837 4.541745157257849 3.972083712485295 3.3737921902096 3.064780572244022 3.0064886057822005 2.7632051332860623 2.37410003874131 2.0782233891455744 1.950344256523628 1.8624837061883637 1.681218647520143 1.5433302660274764 1.659067575089716 1.889240658493512 1.9245730970329304 1.8266649573489475 1.731334000569983 1.6273830381404069 1.4612317890093331 1.1762028885702305 1.0717067097124893 1.0436975300322648 1.0080412848364042 0.8903868362647052 0.9056087933530004 0.9954567763466872 1.0107621415617225 0.9993096718203444 0.9814150926882806 0.9520511763503012 0.806851569337618 0.5483821843789212 0.3261319820266166 0.3490809164503133 0.6183074963083588 0.9851416423752504 1.1771743555817298 1.125289255968861 0.8633945205650523 0.6844993887800236 0.4874921737678538 0.567023799444344 0.9596079701512916 1.0384432004791682 1.7652904386742605 2.076200560028857 2.308526372287171 2.289938552624013 2.441659436724569 3.062164530008011 3.19363925460522 2.2019698933978984 1.845592346615368 1.730628675615427 0.9586063021799984 0.5808012057691201 0.6194088235442173 0.6245129244285319 0.5121430161231966 0.3196906693759845 0.3744298344219935 0.4401574373007357 0.328146814603826 0.3678329089572539 0.5056240368790738 -9999.0 -9999.0 -9999.0 -9999.0 -9999.0 -9999.0 -9999.0 -9999.0 -9999.0 -9999.0 -9999.0 -9999.0 -9999.0 -9999.0 -9999.0 -9999.0 -9999.0 -9999.0 -9999.0 -9999.0 -9999.0 -9999.0 -9999.0 -9999.0 -9999.0 -9999.0 -9999.0 -9999.0 -9999.0 -9999.0 -9999.0 -9999.0 -9999.0 -9999.0 -9999.0 -9999.0 -9999.0 -9999.0 -9999.0
5.2201199593973024 5.068231833692001 4.963704402639337 4.811923859101034 4.63363078466209 4.60135993909952 4.698379874564743 4.842499956086096 4.829682253939178 4.756400989692428 4.686302522954193 4.949372823893599 4.961361905108396 4.322660364883112 4.045242662680412 4.067960439542357 4.044400422125113 4.097996431352647 4.181578129241082 4.286569303608676 4.333254995669742 4.437101008847209 4.637421379248837 4.811425904381616 4.773459197011638 4.738817440309511 4.795661594090218 4.882874933658768 4.97809776057879 5.283973236727355 5.604035707967836 5.896311313381609 6.008539827372684 5.976806363824602 5.868956388519705 5.89562337555491 5.894366640428496 5.833208928213383 5.751982213370171 5.70901970176341 5.590924476684364 5.509671265165792 5.678290090257828 5.6245394176060834 5.060361689788527 4.768963253709469 4.40244721025741 3.9622633970578103 3.389101906397743 3.0635624938043216 2.9778480677076624 2.7830689090913463 2.493059522539684 2.220345045377522 2.063010671208274 1.960847581338812 1.741875328593527 1.5908158395930443 1.6837292553115637 1.9383697299623568 1.9857985481081728 1.9677469407385728 1.9257891402295209 1.8099582779846728 1.5605300449532706 1.2786780040081571 1.1630120435273652 1.0783724206279417 0.984718979668372 0.94311513557625 0.9952357402640392 1.0271753013596614 1.0240832877387411 1.003818178092006 0.9972837549873266 0.9547965205444738 0.8170870518050412 0.5660445304553235 0.3451436929954045 0.3446372592385275 0.5771038325062336 1.0476807063901914 1.4865914249503598 1.278858989452657 1.0184539968732629 0.743616994320919 0.4854464955201656 0.515923760005892 0.7487771844028388 0.9434279776898876 1.3871669632234769 1.6621539266600052 2.1319228706095545 2.3131376460856976 2.2710427270068867 3.130228064409224 4.060682388314737 3.8778646205313017 2.9684379214754766 2.1063807363238083 1.1467476930801273 0.9702124477733124 0.6803813306255193 0.2799968877481805 0.2859834213096044 0.2944442214779092 0.3333590075814494 0.4177295345118074 0.3627114221796813 0.3349318723284489 0.5569903682274684 0.4551248128795597 -9999.0 -9999.0 -9999.0 -9999.0 -9999.0 -9999.0 -9999.0 -9999.0 -9999.0 -9999.0 -9999.0 -9999.0 -9999.0 -9999.0 -9999.0 -9999.0 -9999.0 -9999.0 -9999.0 -9999.0 -9999.0 -9999.0 -9999.0 -9999.0 -9999.0 -9999.0 -9999.0 -9999.0 -9999.0 -9999.0 -9999.0 -9999.0 -9999.0 -9999.0 -9999.0 -9999.0 -9999.0 -9999.0
5.218440817118318 5.089961977290194 5.003040892417975 4.92675529631948 4.730535055881486 4.684368792048851 4.870709762490333 4.943967398177552 4.825397696335825 4.573492066720185 4.381578193683629 4.541137504357856 4.933733685602862 4.97570008318508 4.653993529635061 4.254384784184381 4.119681117523706 4.120255526777033 4.1508686533156185 4.166232136304114 4.174290786443852 4.267930337152547 4.433096309399272 4.590063588979431 4.621762346762653 4.669812571281753 4.775507784385728 4.921399267564106 4.9996387629316414 5.217776554561503 5.3941868175592855 5.718051603889138 5.9683980780266985 5.9773239037025165 5.820623705282835 5.95960497515568 5.997701069314106 5.967208617443518 5.879253981685896 5.814918112237383 5.793620624959354 5.840314854898594 6.029903845365757 5.885285301194569 5.310397366520951 4.789514855065049 4.26721923189003 3.916717835864399 3.4047218470817686 3.085037108198122 2.9620780957920805 2.8450066892288493 2.628257849950736 2.345686929131736 2.1551185605563514 2.040686701277383 1.826903574770068 1.66607194712859 1.74835020565991 1.980277794804118 2.005937792621629 1.9997851904204205 1.9724354733511076 1.8993810410680487 1.7262938578743772 1.5090548911928816 1.4467057152577902 1.2773862109504002 1.0354492531976978 1.0192868566624302 1.0585176646174768 1.0774981882135406 1.0428532325832005 1.0007257229633622 0.997881749096664 0.9652658144725064 0.8696599781273594 0.6731601977177311 0.4570961842050216 0.4049606104253638 0.6265944779540794 0.9848828015063956 1.4084206391544316 1.328338508792943 1.0686179982554338 0.791027068689666 0.6045859997110331 0.6174560964499891 0.4569010964369353 0.4450848732161517 0.996983993842942 1.037900011211401 1.1454720603484585 2.1145403454045693 2.179279116338672 2.134156064102542 3.889979168749632 6.878712575500067 5.366724403966678 3.5480867938549707 1.7163379117013091 1.0411436363611022 0.8595884066026981 -9999.0 -9999.0 -9999.0 0.3373577871438172 0.3456795450702944 0.3097003947157349 0.2491119791805199 0.3767702301443194 0.521579462698312 0.2675707726531501 -9999.0 -9999.0 -9999.0 -9999.0 -9999.0 -9999.0 -9999.0 -9999.0 -9999.0 -9999.0 -9999.0 -9999.0 -9999.0 -9999.0 -9999.0 -9999.0 -9999.0 -9999.0 -9999.0 -9999.0 -9999.0 -9999.0 -9999.0 -9999.0 -9999.0 -9999.0 -9999.0 -9999.0 -9999.0 -9999.0 -9999.0 -9999.0 -9999.0 -9999.0 -9999.0 -9999.0 -9999.0
5.257853960075407 5.146195304209212 5.066537042894346 5.025034900877402 4.940551651390929 4.825874386949873 4.9777084682476405 4.986940268172582 4.792697285020832 4.548684822075316 4.392224897543295 4.402076696002326 4.623004361576762 4.940746164243077 4.990156972080763 4.659002585936904 4.225130518021252 4.165471782808379 4.1757660976526205 4.185166382380065 4.234470088181283 4.339878667939304 4.435227135331034 4.523079475925625 4.597061953551212 4.695763372590983 4.830019332684854 4.966512556397536 5.153021595615339 5.35479117625458 5.505152559927929 5.631570087732738 5.856402629840528 5.90718806729731 5.732584687014436 5.90324039088165 6.032735893658101 6.057215163552344 5.9976931247099055 5.925074872240928 5.913917357889402 6.073032525191039 6.203715421858494 5.993711240503228 5.423305735728802 4.691534086266037 4.116941558635865 3.8729443838890623 3.444281699483385 3.1427447588393846 2.970563403953758 2.8689853293376784 2.655767125454674 2.3935747757192134 2.19054490190959 2.0411915837831405 1.8210110858311133 1.731894763675697 1.858443347546531 2.003782621395071 2.009251201977135 2.001724757734576 1.983748153151217 1.9038387558572456 1.8440987131387063 1.7301547566323623 1.5524744373018282 1.4068892809422169 1.1721395657257707 1.1335258647975976 1.1680999707211157 1.159575624524373 1.070733536005728 0.9992156111309872 0.9916707675767767 0.951466473489564 0.900184433637736 0.8025695579106386 0.6614478572100189 0.6413195040107338 0.8185371062752771 1.00873512096257 1.271370130172261 1.2496576605725056 1.1141692115860409 0.8798658141314841 0.7435491755237617 0.7066573507896703 0.44311366482279 0.375056113515392 0.4420814904828656 0.8564112378659046 1.0424877022507173 1.3375510506271917 2.035573382109937 2.02195164341596 2.1858501044118834 4.440402150427572 5.497435436895353 3.663034337575208 1.7879123322096029 1.1462245153135515 0.8701739748671916 0.3954734299872416 -9999.0 -9999.0 0.4454014068055839 0.4028116132319743 0.3357499474819128 0.3449253902612307 0.356920638562017 0.4147861331407255 0.4421435391520569 -9999.0 -9999.0 -9999.0 -9999.0 -9999.0 -9999.0 -9999.0 -9999.0 -9999.0 -9999.0 -9999.0 -9999.0 -9999.0 -9999.0 -9999.0 -9999.0 -9999.0 -9999.0 -9999.0 -9999.0 -9999.0 -9999.0 -9999.0 -9999.0 -9999.0 -9999.0 -9999.0 -9999.0 -9999.0 -9999.0 -9999.0 -9999.0 -9999.0 -9999.0 -9999.0 -9999.0 -9999.0
5.308943476824138 5.211121860163408 5.144036690414181 5.124302334556297 5.117374727672804 5.0652960014473125 5.029153913711164 5.0082389946760975 4.831982507189932 4.627621506201151 4.453590425146264 4.389063511818059 4.346146944162831 4.547764109505326 4.910111112973188 4.980003998626239 4.732914636360982 4.503853270627712 4.354223415481659 4.354832295703206 4.484992769117936 4.59761296772477 4.622874269573276 4.6476143339214 4.717699013149129 4.824224109302428 4.965457226157155 5.1679405665198335 5.417988078855732 5.585551718802081 5.609621846755646 5.617700095552453 5.684834077073338 5.884321398031289 5.956466031810821 6.027909370823449 6.148764014009118 6.174292910302977 6.101720992030349 6.039781311046575 6.061645996916977 6.323753103139376 6.403481385685078 6.0074358669853165 5.366634063797196 4.488028263629038 4.014745925221506 3.8209381919788417 3.591217642136198 3.266894372387731 2.997681097305424 2.865604419346337 2.610830820446616 2.342981104956228 2.150623822652888 1.990472124857364 1.7950146383693306 1.7814415164837745 1.968223236796325 2.0095886038425164 2.008367097966106 2.001208659184557 1.9629241619435844 1.8866435280429965 1.8650660102870775 1.8213451889106835 1.6584163313138205 1.4089638080698352 1.237378360659791 1.21351853781761 1.2372370161507769 1.2351508583751898 1.1076085626065937 0.9967637064904168 0.9600504010158488 0.8972396541556045 0.8915634530193164 0.8817568653832132 0.8420171494734521 0.8696275966533407 0.9491647223016024 1.0135921660256662 1.126557664474166 1.1348537383108916 1.058406654713314 0.9782114397007506 0.8544283482488098 0.6951975088887159 0.4633775377897065 0.3705010634618454 0.3422962547646354 0.4153732981650525 0.8539078178406903 1.0672189290939662 1.8426893869486671 2.034071921414112 2.066531608824641 2.218669961253086 2.653563945946204 2.127210581925712 1.7991010080014649 1.4032586601858348 0.2629039543954805 0.221117687225712 0.4113840257911243 0.6634107962285442 0.6306252439353102 0.5366283913054523 0.3864942301577234 0.3530858382908912 0.3727993500457383 0.3817917536841297 0.4144314622045548 0.366633156903735 -9999.0 -9999.0 -9999.0 -9999.0 -9999.0 -9999.0 -9999.0 -9999.0 -9999.0 -9999.0 -9999.0 -9999.0 -9999.0 -9999.0 -9999.0 -9999.0 -9999.0 -9999.0 -9999.0 -9999.0 -9999.0 -9999.0 -9999.0 -9999.0 -9999.0 -9999.0 -9999.0 -9999.0 -9999.0 -9999.0 -9999.0 -9999.0 -9999.0 -9999.0 -9999.0 -9999.0
5.316809941869002 5.260021575582064 5.201654494179646 5.16154939112154 5.142813670691662 5.119402906588668 5.114165838034956 5.106116746130773 5.0023197927364444 4.788635318473496 4.593140814453545 4.40464177410847 4.270195418584128 4.297752526909363 4.629271339438345 4.920778159250572 4.990987342551817 4.923817488684696 4.684939254905926 4.592201665758054 4.640933733596175 4.662443166991032 4.6783743873337365 4.722659499641196 4.83326983404467 4.973384975140196 5.1036330206293945 5.340412160479302 5.519747076869175 5.6241241427352 5.622072847577025 5.612684400694735 5.6363898469997205 5.791657314464543 5.999177748112846 6.101747710027336 6.252967029515835 6.295574983453374 6.25710302826751 6.236752411958992 6.338749807995534 6.576345452449199 6.627093390672471 6.037495395204608 5.024146692646163 4.180926787742225 3.9299248605447543 3.868595965755852 3.7238375432500455 3.477417657490784 3.084459866108818 2.8857731685498056 2.6260018675983803 2.313008624309095 2.122122337273286 1.978439877398307 1.8334717881796443 1.8499515830832431 2.0007420234061737 2.0105371938638137 2.0055682386195963 1.973013051613537 1.8825456989372156 1.7895843390107409 1.7592782164984635 1.7352998616032596 1.6300839286948154 1.4491201102880784 1.284238533026769 1.2298400304772488 1.2270422952830102 1.1972191431156922 1.128437066685637 1.0130837438426532 0.8729564472494329 0.8284506837601655 0.8652199384127668 0.8907003702667325 0.9000028927700956 0.9383110112069633 0.9814963718959316 1.0004184359156256 1.0097411831264853 0.9448537206034536 0.8869753399885748 0.9571451667782755 1.0124937297828445 0.6208809407531836 0.4729270335538983 0.3905025765104947 0.3211011210760908 0.2815729800571606 0.4424319947051952 0.8378698499151989 1.2300666215716674 1.8918436168936523 1.9592303026642368 1.932410702405642 2.18073599186875 2.122408737451651 1.8656207608425872 1.6386605937531038 0.1332532668145181 0.6890807725989065 0.8114583747319952 0.7301752610575499 0.6448023411393746 0.5750779530218048 0.4952448201818429 0.4584291696328344 0.4377981069176735 0.4821721922799487 0.4510192826708413 0.4534070257487912 0.1816736518650684 -9999.0 -9999.0 -9999.0 -9999.0 -9999.0 -9999.0 -9999.0 -9999.0 -9999.0 -9999.0 -9999.0 -9999.0 -9999.0 -9999.0 -9999.0 -9999.0 -9999.0 -9999.0 -9999.0 -9999.0 -9999.0 -9999.0 -9999.0 -9999.0 -9999.0 -9999.0 -9999.0 -9999.0 -9999.0 -9999.0 -9999.0 -9999.0 -9999.0 -9999.0 -9999.0
5.290264014581046 5.274237325317673 5.219349093646154 5.157302370619592 5.105628989057544 5.103751799062927 5.123194644148576 5.165466554983958 5.127739430340973 4.990638134176317 4.781160778000589 4.575822955181484 4.3983752485355945 4.399335385673595 4.533919729033485 4.7495170503577135 4.942676209302559 4.998012110356415 4.9613170206066 4.7945254210350585 4.74535089371206 4.733642820226717 4.745059115380362 4.817928273846669 4.967585305166344 5.09671697438527 5.2258867259297785 5.340130527587127 5.482984337241627 5.57299655889376 5.601669989289713 5.606521564463458 5.6330063491620255 5.759331725145112 5.963181728736651 6.1349088341704405 6.316308328080152 6.367481596125472 6.4269194444794495 6.514989908017777 6.594511755886018 6.617581903639199 6.52444524060844 5.559573747593587 4.407609886230515 3.933644569030405 3.851028295328773 3.876140108640449 3.83909217642836 3.5777878249875985 3.213221077039912 2.944460336520196 2.764922825354309 2.4825874235078627 2.196544770018823 2.008742698897588 1.8769936198616488 1.8815570533057897 1.9929995213863645 2.008856101365984 2.0069868990802657 1.9364352625342631 1.7846971315565905 1.6439949374244949 1.5651232000598083 1.5719039450351515 1.5454786352738294 1.4567841514511377 1.3077815570265183 1.2187844603979456 1.1607128574619932 1.121408122574184 1.101529996950895 1.042802015967666 0.9136682375098474 0.8632268211624179 0.8643719188029171 0.8686008959133458 0.9011333580224946 0.9483828877416782 0.9890234718810712 0.9962059966195156 0.9328036434213364 0.7898610648748035 0.7790600176746489 0.9402957385986472 1.1285096528728265 1.1806251661604263 0.4856676262282834 0.4101216508016683 0.3265487850641347 0.3004219326992297 0.388064724490232 0.6690933236462844 0.7534803101288234 1.247111305915931 1.7525708522408645 1.9037568063667965 1.9747630564363048 2.10881792697536 1.991071972289287 1.8632522563552445 1.399116785425126 0.7871443496955853 0.7638646025897897 0.722322489195134 0.6643809429657522 0.6548614101252584 0.6935634445984404 0.5286074620281834 0.4208697656184884 0.3501213410156369 0.4459006661928834 0.4820831291300527 0.4935011508952974 -9999.0 -9999.0 -9999.0 -9999.0 -9999.0 -9999.0 -9999.0 -9999.0 -9999.0 -9999.0 -9999.0 -9999.0 -9999.0 -9999.0 -9999.0 -9999.0 -9999.0 -9999.0 -9999.0 -9999.0 -9999.0 -9999.0 -9999.0 -9999.0 -9999.0 -9999.0 -9999.0 -9999.0 -9999.0 -9999.0 -9999.0 -9999.0 -9999.0 -9999.0 -9999.0
5.280448936301092 5.282243024281565 5.207662417852225 5.087764799823844 5.0832643830971 5.108226244933247 5.204676744680662 5.297596952686321 5.234548472450338 5.069554143349204 4.941773187670479 4.769576165784567 4.633695122631007 4.575319518419209 4.634388591968664 4.749654170526092 4.851852955932203 4.968022068453779 5.016814620560684 4.999031019375254 4.899894421344134 4.851387294165885 4.89050517335608 4.980963436167375 5.14552834929405 5.31765093129528 5.358528880826605 5.370354150583713 5.4371372353092 5.531917924946422 5.58699150268767 5.604992583059765 5.637111439197412 5.742492282619076 5.922853404279339 6.230946619509959 6.4344288151089 6.51905899345478 6.652160286677891 6.790511747456039 6.743585299303965 6.567271182411119 6.112882657339329 4.987912165210698 4.177390923757817 3.871093964614991 3.834032722008476 3.849508386497957 3.8229909004644993 3.5857750143707645 3.2221482189324 2.9460506556380834 2.8865257319028204 2.7644830761087995 2.4481519682018837 2.105284425183066 1.96052804597892 1.917021687213876 1.9853402130767093 2.024167761251962 2.04293421754882 1.9929193000715129 1.8064680951648215 1.5980687861316816 1.4997481652595472 1.4455857298016206 1.4182366026365063 1.345885876339414 1.2436174183265127 1.1525020627132014 1.0790909343148298 1.044220411633308 1.0408530390578563 1.0073899187715114 0.9632535340672568 0.8955718874374989 0.8629550226437902 0.8407946290036258 0.8589827735124332 0.9257006690851328 0.991160430057912 0.9985907991147244 0.927205651612788 0.747908598579607 0.7252069956991257 0.879938909587531 1.0972969779656276 1.174418056427773 0.7159026756730809 0.4421011169133838 0.379136953219953 0.3750139609601024 0.434126491058948 0.607016858963388 0.5000055182683537 0.8647980436552248 1.4958675898079887 1.8844551014811637 1.9607663904561063 2.0139881140952958 2.0995022893751067 1.946198758980728 1.7707455108242276 0.928609453226892 0.7735851319081624 0.722036290386948 0.7265205459390731 0.9968271596636632 1.007381338015667 0.5129452611045766 0.2997907054179655 0.2193703255982031 0.2992944448783401 0.3962654976737852 0.4754642248199007 0.423529551979552 -9999.0 -9999.0 -9999.0 -9999.0 -9999.0 -9999.0 -9999.0 -9999.0 -9999.0 -9999.0 -9999.0 -9999.0 -9999.0 -9999.0 -9999.0 -9999.0 -9999.0 -9999.0 -9999.0 -9999.0 -9999.0 -9999.0 -9999.0 -9999.0 -9999.0 -9999.0 -9999.0 -9999.0 -9999.0 -9999.0 -9999.0 -9999.0 -9999.0 -9999.0
5.39011983727476 5.374801376454318 5.24053918709715 5.097007359510804 5.124934799216568 5.251194690302972 5.409470473383686 5.459550012876401 5.341362273963744 5.111565547028971 5.015890980988267 4.939535262241295 4.895456921696852 4.881277402040772 4.8820083656236335 4.879614211720545 4.897668358860575 4.955779536708954 5.045288603144136 5.142062171681395 5.185177503205513 5.323205055614948 5.329535807717493 5.300215431194726 5.412368973679676 5.528514082615907 5.549180337894734 5.499777103700112 5.493016652700296 5.537231459890153 5.583661332146553 5.606319769770536 5.659894342964678 5.802110661875145 6.0531717639046585 6.532836346530814 6.720069770167148 6.780783943881032 6.89125220287609 7.028123362075645 7.012129844778638 6.498860799888892 6.000776301289204 5.137191394839761 4.5092418063341455 4.016365155915489 3.9311399409169767 3.8829902186033554 3.839066916133894 3.732570644507678 3.349103699268704 2.9526373058698807 2.9153123022789926 2.9309266992797776 2.827326325568409 2.391362625615908 2.0703633039734437 1.9898465248895625 2.0129401238154667 2.040848338000834 2.064700126647949 2.0349971405470555 1.952428972362482 1.7691809056136547 1.6017432901414268 1.4643490682373157 1.349175558096282 1.2576132797444473 1.1821440943474464 1.101088410517236 1.0238066783198174 0.975008222681378 0.981098698507832 1.0018418266836937 0.9953432137157529 0.9226395706121796 0.8480997317934651 0.8036186439158728 0.7979084621132342 0.8798060949139712 0.9947564185972404 1.0183182376643334 0.9904135715169023 0.8401537138321536 0.7680364310047864 0.8168218177463383 0.971475469907493 1.0919817699912246 1.1215079425655026 0.5430355996641558 0.4631522667646239 0.426795398645702 0.4328535225539622 0.5775359553121706 0.5089307503360806 0.556577609497813 1.3646323159057208 1.7681261179668972 1.931713031525815 1.9495578967439648 2.0390028223003807 2.0995671177259574 1.9075063677497688 1.812318605012872 0.926687360783642 0.8146289394278106 1.0326064597410065 1.1062350693931864 1.107238633838207 0.5889898102711244 0.3828767767639055 0.2259684030071623 0.2447287786775382 0.296078654584782 0.3989935876614739 0.4585471854924318 0.3405310483149593 -9999.0 -9999.0 -9999.0 -9999.0 -9999.0 -9999.0 -9999.0 -9999.0 -9999.0 -9999.0 -9999.0 -9999.0 -9999.0 -9999.0 -9999.0 -9999.0 -9999.0 -9999.0 -9999.0 -9999.0 -9999.0 -9999.0 -9999.0 -9999.0 -9999.0 -9999.0 -9999.0 -9999.0 -9999.0 -9999.0 -9999.0 -9999.0 -9999.0
5.594027330554859 5.539076072212402 5.438947771434029 5.322435875954583 5.413598673810125 5.5634583685117365 5.6759394913302055 5.634747892539426 5.448307816275074 5.176707352875281 5.057664827136966 5.037848877174097 5.031297536654158 5.045646338611801 5.048799578180832 5.037145052319319 5.029913376975925 5.045382199637116 5.169042611641967 5.275865281648716 5.529279943575139 5.862350112543952 5.908091560608536 5.70881503996053 5.629018915549064 5.651463531306994 5.652619685975719 5.613427132370234 5.584340757679774 5.586654554263291 5.611977977378692 5.645943680582644 5.750881140244535 6.014235926891468 6.5208715101620935 6.859952750458444 6.9434534624128 6.966940648604496 7.041439913279991 7.121444094569591 7.088056290395802 6.551523880706673 5.9030181736455765 5.328790209925038 4.918635983009227 4.265992881510049 4.121324166552562 4.017528561672174 3.988988391867804 3.9427089339154575 3.684241079794554 3.1311253449397194 2.979138457072506 2.994140420723949 2.9826580158744616 2.697780540707752 2.335691594985464 2.110678343827137 2.0342810527382085 2.0291204794488498 2.050702709232084 2.045804910883376 2.0057196198730125 1.957911408208184 1.8216192064610124 1.6561140025957408 1.4495917769388005 1.292419083159905 1.204121299431683 1.1180213361275289 1.0209350407193023 0.9452758831839604 0.9495627779123154 0.9905811881964868 1.0004188981638793 0.9657945095219704 0.8822150155896291 0.7871529365837158 0.7547696483946896 0.8269726842609649 1.0192431391642474 1.1338115698547675 1.1100436362547703 0.9716596341082826 0.8452084560386095 0.8532819154029399 0.920785544938468 1.0245069738037296 1.1027828879364534 1.123923741904921 0.5264444505847167 0.426573766242164 0.3978233753219702 0.4632524479716425 0.550897442885782 0.4783208448846704 0.4827986816313123 1.3482605697491217 1.8767958379733924 1.9296787254621817 2.0348276140124497 2.2172490893169465 2.1422505305330657 2.0138192616249926 1.794549836323935 1.038938064808978 1.058701577831358 1.0484167755116864 0.936636827916534 0.6744796525732988 0.4412844977095174 0.2967180568417336 0.2735234855078142 0.2826683881068257 0.3506739568579022 0.4854252286097842 0.4782661821245923 0.1142635756897411 -9999.0 -9999.0 -9999.0 -9999.0 -9999.0 -9999.0 -9999.0 -9999.0 -9999.0 -9999.0 -9999.0 -9999.0 -9999.0 -9999.0 -9999.0 -9999.0 -9999.0 -9999.0 -9999.0 -9999.0 -9999.0 -9999.0 -9999.0 -9999.0 -9999.0 -9999.0 -9999.0 -9999.0 -9999.0 -9999.0 -9999.0 -9999.0
5.969664456925472 5.908292067443969 5.860806389282246 5.79911227064051 5.842476401652544 5.917589811648867 5.923156713163733 5.820949343775379 5.624065627786268 5.326476412710913 5.142484604475141 5.116573384386736 5.155639493743127 5.2275358778230006 5.252416232980817 5.241007992467736 5.234222243197097 5.24590231258285 5.330696012784885 5.500089521066087 5.722361321739307 5.952779317227851 6.003061025947922 5.973875124833454 5.89440540487475 5.843750437287052 5.790664257151972 5.740151978434879 5.699854807372038 5.696956168856381 5.721753113360011 5.774546891285554 5.942798571144505 6.429402786791166 6.935355231653683 7.1683520242177465 7.098630829100741 7.078275715593572 7.115006658015298 7.123682512555277 7.059056542507581 6.465238773851777 5.827996194700901 5.502740302824281 5.142211214900319 4.483681354951309 4.261782842966398 4.175933195580989 4.056069027060936 3.996538110050839 3.8429503797453535 3.386427922682236 3.0728466276545 3.0077975491965603 2.994010749981497 2.769383592441127 2.4880794594904443 2.2569413071249538 2.0971635047968022 2.0415510205484053 2.0514487056559374 2.06714099042475 2.0435750205092478 2.014666513088626 1.992677392360799 1.886490644303176 1.6864870458171035 1.4766950955992162 1.342278633976736 1.2252573942353229 1.1033106229492955 0.995261973330836 0.9556256590144712 0.9679144405861942 0.998390674458619 0.9954209788472576 0.9597001566851496 0.8688368455566341 0.7378817128861994 0.7862658077831218 1.1581696279503595 1.3604750003323514 1.2899140435084189 1.1177295965828038 0.9839711100254744 0.9249492030721116 0.9585388842087038 1.0075711765493365 1.0589224633093786 1.1032118675272509 1.0562354322873635 0.4394043669076114 0.3584429700836825 0.3836346678147554 0.5532584900057795 0.387582291696779 -9999.0 0.07684652616188 1.1329310991221473 1.9605065854183712 2.2476816783987466 2.2471221560318173 2.217939847790105 2.1209011057532 1.8896806978641776 1.0606579661743487 0.9631172629854166 0.9492874624713524 0.8511665430479969 0.6688330177591194 0.5538684906328477 0.4825827919451981 0.3376531148021816 0.3124232081016229 0.342390400995717 0.4579378065125488 0.523464223196255 0.5250208007307655 -9999.0 -9999.0 -9999.0 -9999.0 -9999.0 -9999.0 -9999.0 -9999.0 -9999.0 -9999.0 -9999.0 -9999.0 -9999.0 -9999.0 -9999.0 -9999.0 -9999.0 -9999.0 -9999.0 -9999.0 -9999.0 -9999.0 -9999.0 -9999.0 -9999.0 -9999.0 -9999.0 -9999.0 -9999.0 -9999.0 -9999.0 -9999.0
6.181705950478857 6.116295414616188 6.090243038046331 6.073196980738529 6.065849708364544 6.06561062319 6.0474451795941455 5.986851973061306 5.791338126853553 5.511106378546042 5.267475732855065 5.205436950148926 5.272861723110607 5.376121276940468 5.443639675934374 5.423181388385821 5.43187026024358 5.474088786607944 5.547902465712644 5.654486080901445 5.777904560994216 5.878333130495228 5.984672036912613 6.009059847723071 6.007822181304222 6.0003557649467885 5.952738230145076 5.905526237318265 5.879587963151446 5.911929650396783 5.963389478439712 6.006698503483987 6.219613292803089 6.643943081886542 7.207586121760354 7.373848950980338 7.2855544219818205 7.181911297613162 7.128832663545623 7.0937829205435445 7.024852170637688 6.467324179297044 5.861631335594454 5.579377006691742 5.204145805507402 4.760245450092457 4.4731211325071225 4.316774234755821 4.159137449882056 4.015636914942304 3.848544358208053 3.5355161689162404 3.2479916687088872 3.070980681649324 2.9809611670630263 2.7546592562740315 2.520447031493981 2.3239087515327976 2.16032947299452 2.0913906454758706 2.1052255070565127 2.175958797549773 2.161166362543238 2.09697409303218 2.046864172145768 2.0015728497297767 1.8655898297068307 1.6685462635960344 1.524367845116379 1.387000467371443 1.2444873306267024 1.0929922314051264 0.9721468231123094 0.9553217787575514 0.9940007646800308 1.0012481086791023 1.0112057031593136 1.0199903293319832 0.930016098118538 1.0748154787754751 1.6144538584883903 1.5147837961986834 1.3419378749476214 1.1574677887590283 1.05350155587597 0.9999658385283644 0.9946916187463408 1.00021678560063 1.0069361139475024 0.9977389360963324 0.9853426661334118 0.9590702818905854 0.3621377849792088 0.3644601623421818 0.437057195019352 0.338189642122302 0.0891096339225134 0.0201769682962309 0.4699949151624846 1.8663691131780025 2.363655043777317 2.329690731263041 2.268570882357327 2.258482391571502 1.901756534010333 1.6120395630720987 0.9358664439987388 0.9047891172852692 0.8626633844022776 0.7204629626452848 0.6936467309247742 0.6454547957041477 0.5380071682112644 0.4410162409544507 0.3286636549295439 0.3506923130311244 0.4722922120990955 0.5486244682597262 0.528578560004632 -9999.0 -9999.0 -9999.0 -9999.0 -9999.0 -9999.0 -9999.0 -9999.0 -9999.0 -9999.0 -9999.0 -9999.0 -9999.0 -9999.0 -9999.0 -9999.0 -9999.0 -9999.0 -9999.0 -9999.0 -9999.0 -9999.0 -9999.0 -9999.0 -9999.0 -9999.0 -9999.0 -9999.0 -9999.0 -9999.0 -9999.0
6.3025404578968764 6.152564846810253 6.110538041283792 6.112031658173161 6.14114953238409 6.169243043841824 6.163156277159853 6.108284988735829 5.954255947819867 5.676433349635594 5.426837164410072 5.331627852444241 5.382883152853864 5.466037310843102 5.499130687821513 5.530862297468236 5.594576081551448 5.681483544551306 5.753719718784385 5.8147018514699145 5.843938121799223 5.852327714201249 5.877993520136924 5.987979169532413 6.020522268188021 6.0582660469458025 6.13580751565702 6.143715809098351 6.17848224144976 6.298149629064046 6.452396394646579 6.403694027175673 6.436668864106886 6.685697905771392 7.178894186662128 7.357129607730004 7.331309391161771 7.229582690956892 7.127033838696911 7.019703595012172 7.0006965074223295 6.629569525406022 6.007905188856356 5.605939623937481 5.1007661526749 4.872673871321918 4.59426187947166 4.361952288691187 4.155735400540622 4.004561351640451 3.782123976525801 3.5492656068652924 3.3324403992347604 3.138202950893469 2.943343706231718 2.7019532063761944 2.5097232671883614 2.337237762947145 2.195606316097842 2.1418457414412906 2.1848587422437027 2.296328451313124 2.249451668461756 2.143609600970165 2.0844950507881848 2.0231981051769217 1.9356640732156691 1.7357931562959583 1.6624867701335138 1.5740017378265116 1.4204509779811705 1.2259628744916264 1.029278631410699 0.9678105851319876 1.0120699376706184 1.0795673601438796 1.1878848711268353 1.3121065959569154 1.4664355361479702 1.9256040706021689 1.8091525523534224 1.275490522897793 1.0862800652968372 1.018320011781538 0.9973646043846428 0.9904810381671266 0.9806465051995362 0.9540172210054524 0.9439096225275072 0.9384192031177656 0.942814465627621 0.9561091712064655 0.6822526506068006 0.3828973651663777 0.3950628457526494 0.3967033052962701 0.2846505124510469 0.141070972589006 0.2907108559986521 0.5444851772040749 1.9928934645450151 2.3658037207184908 2.5050728330116576 2.494428465967866 2.1216215124743183 1.7312736293072677 0.994171278673342 0.9501999850663776 1.0289716461044465 1.002332159060577 0.9291849390650858 0.8486487183354205 0.7307466333911974 0.6046398453858121 0.3849854070046152 0.3480529781910672 0.4733980317596408 0.5038399161074717 0.5741488215954033 0.4499367180861146 -9999.0 -9999.0 -9999.0 -9999.0 -9999.0 -9999.0 -9999.0 -9999.0 -9999.0 -9999.0 -9999.0 -9999.0 -9999.0 -9999.0 -9999.0 -9999.0 -9999.0 -9999.0 -9999.0 -9999.0 -9999.0 -9999.0 -9999.0 -9999.0 -9999.0 -9999.0 -9999.0 -9999.0 -9999.0 -9999.0
6.431016250158765 6.21288370545568 6.134649568839223 6.166121214258434 6.228295041694981 6.279352053963576 6.291428815472706 6.278523284945726 6.176460443159004 5.939780438160677 5.710254498188519 5.653119038743183 5.620403095252388 5.564029200263041 5.570699891053256 5.613156524622396 5.719150482281842 5.827048999969311 5.943949009947191 6.039078452919044 6.002547341231472 5.869454184313581 5.801028345518894 5.8859569701200645 6.082239262571192 6.423389658321802 6.439879355677396 6.2247987505099065 6.221267245525397 6.466758564425009 6.675833856133675 6.645689830370441 6.54820015212208 6.759423228312144 7.143074968244954 7.312838181355 7.304360684563662 7.189904375111607 7.063040006816987 7.002194927197862 6.911683249111594 6.592142853570379 6.171781886881723 5.635295929381567 5.068939565506016 4.90912690974709 4.5373814857184325 4.271457077644991 4.080054949921438 3.9444728503225615 3.68783645129242 3.473947464829392 3.281543667017496 3.101907613828 2.9085449987956435 2.693834468073522 2.5283987326684967 2.3606013741679632 2.2236065185153584 2.186612338895079 2.221565611964696 2.2859550050050546 2.2482810543090035 2.1390076668164117 2.081882385514195 2.030682177812 1.9485303347323943 1.7636169384044658 1.709364830653952 1.7064653118642863 1.5970033730168218 1.3647214507404226 1.135975732616871 1.0555184926063244 1.1486330753435878 1.258218929291531 1.4169774979018952 1.602579115968025 1.848207116917401 1.960196967279181 1.2237175526605102 0.8756149487587236 0.867058832950636 0.8835148520925088 0.918337071259423 0.9349545141781984 0.920023406545347 0.8929820684863992 0.882905079021675 0.8929847932275272 0.9057380507414512 0.927256534395876 0.9425907219808478 0.4309028846986226 0.3990659293584271 0.4505913195436144 0.649148066203856 0.389939653818206 0.269723795105945 0.3325610391838137 1.3250906985737323 2.0209200375679592 2.3991745492066725 2.4723930099631795 2.30796659230851 1.989021978878224 1.5801752183944802 1.044857247815267 1.0318666955377616 0.9747077655967964 0.9525573388448604 0.9055123548844942 0.7806522787167882 0.7268141639661744 0.6069640211269268 0.5037802780077366 0.5062375726011646 0.4595794255159988 0.484987210915503 0.5831077531021163 0.4051219514840147 -9999.0 -9999.0 -9999.0 -9999.0 -9999.0 -9999.0 -9999.0 -9999.0 -9999.0 -9999.0 -9999.0 -9999.0 -9999.0 -9999.0 -9999.0 -9999.0 -9999.0 -9999.0 -9999.0 -9999.0 -9999.0 -9999.0 -9999.0 -9999.0 -9999.0 -9999.0 -9999.0 -9999.0 -9999.0
6.624093495233382 6.412258097784191 6.333142918679211 6.375178540044498 6.438704003055121 6.483434320479775 6.488868514403996 6.4819159992773 6.431341213568355 6.291199775205479 6.130515575071302 6.025738834910461 5.929760412790248 5.793481274508674 5.701891308842246 5.738998245177694 5.837909290123139 5.947111215125825 6.092618188138465 6.199428510629485 6.2251956159282935 6.040209437197812 5.9033513202353305 6.176525484669482 6.705905344095247 6.977067037079024 6.897384865679603 6.3222899236410885 6.178046978204943 6.356012043207606 6.667690926243597 6.726236829695869 6.779328947293326 7.022760530115068 7.241853916577435 7.316605152847195 7.269197936275574 7.117082699836147 7.008233437012255 6.91718020189075 6.747648328948146 6.498117793965279 6.241059993807856 5.857459781267689 5.132335057347057 4.896538545415384 4.4848581282857385 4.186982158630583 4.007305144375749 3.848273466140217 3.6027261943258435 3.3749883425976828 3.197980549904321 3.05413831272737 2.933787556214289 2.791645079507304 2.6219197552962026 2.418540341681278 2.257196894066764 2.215988684212272 2.2405057128990675 2.2469953638395763 2.217711838714841 2.1311794813202027 2.0646171832888043 2.013972762425717 1.9777905755823235 1.865153148567196 1.798838663191262 1.7783346944550142 1.717260409238183 1.4899620993791642 1.2648662621197793 1.2501079700475692 1.3864451111648188 1.4751446949231928 1.619620656938823 1.8124569891436413 1.9488636051156392 1.717868367042438 1.0891572951580155 0.9228689041577836 0.8798796165821764 0.8843995201648134 0.8969711295424906 0.910177439598715 0.9083353316027208 0.8807460075887037 0.8675839545305319 0.8705234060216709 0.8874388832365108 0.9004897123755378 0.9237950562245658 0.9372629431107604 0.460001968436757 0.463326606551164 0.5321278908364042 0.4350870575327465 0.3733295321016813 0.2012495804443607 0.1930850229304467 0.69154446675952 1.962319774715361 2.2336396774548124 2.3031433721725088 2.0736128108183127 1.7365115852647213 1.1335781171321448 0.963086573664494 0.8815656682936542 0.8970965790798708 0.9707451547545358 0.9301085948889186 0.9042147660911932 0.6855705630084561 0.5794958421635875 0.6687322045895079 0.5835197310315088 0.4457700178487148 0.5446957870637534 0.5787738735833159 0.2434045882681063 -9999.0 -9999.0 -9999.0 -9999.0 -9999.0 -9999.0 -9999.0 -9999.0 -9999.0 -9999.0 -9999.0 -9999.0 -9999.0 -9999.0 -9999.0 -9999.0 -9999.0 -9999.0 -9999.0 -9999.0 -9999.0 -9999.0 -9999.0 -9999.0 -9999.0 -9999.0 -9999.0 -9999.0
6.831644438253724 6.688450194363846 6.652938943485913 6.706580260015494 6.742900086678188 6.745214309288453 6.749235079923836 6.752198011726613 6.734113998856965 6.655523599792018 6.469363248616776 6.240345290664321 6.045095854696064 5.959851976055612 5.90351763064354 5.935682060522955 5.996232211673173 6.10878809188172 6.2472972758583545 6.350461360940164 6.398285072383214 6.335838728907936 6.480667142026698 6.871196710065805 7.024897510708427 7.012064011487356 6.997525147830926 6.873545942146546 6.204193237959917 6.2902684571866025 6.622465337950653 6.83335269235624 7.034506333818596 7.21939352953909 7.343762359581634 7.358502621269447 7.231771159502394 7.057330886750254 6.909619068031581 6.754155331541232 6.610051239861878 6.424357884249403 6.240673029576773 5.944560992762017 5.215580954513318 4.840810270284106 4.507803848710369 4.155110565375916 3.9537902924291375 3.745421282758157 3.5018030430693083 3.294674430362398 3.124113086789648 3.0183719266361018 3.0014084663680523 2.962981281429487 2.8151952320866416 2.586044293159991 2.359967459052309 2.2824943265021167 2.2587168792423613 2.244332949272362 2.2080875201574357 2.1345857248786144 2.057585815443168 2.013247365869527 1.9991221692887653 1.9593710888454945 1.903858723578752 1.8693354603293912 1.805122457229237 1.6179065390199368 1.3842707446661389 1.412547834179521 1.5365108544191863 1.6598389800058575 1.804835047977722 1.96341706988904 1.9620550942853725 1.4851699809717278 1.195993939891835 1.077146320403419 0.9768555321961434 0.90420171155363 0.8953123656778861 0.9032588687834486 0.9057318213580224 0.8833070292688809 0.8546192054103653 0.8555803186773303 0.8817137523793586 0.89557613550662 0.9072032481917236 0.9458246500198544 0.9599876926541924 0.5049485349187905 0.5289041485787019 0.8886899993185087 0.3847275703817017 0.1826274737833247 0.1737966606049112 0.3231528991464426 1.0380371328188842 1.904298889119884 2.107895633554153 1.7897118306502855 1.5763822309520492 1.3564435027793995 0.982468000410863 0.8961767790611096 0.8956252016357624 0.8897852606104655 0.9063006537520129 0.915780245530162 0.7725846311817411 0.6312769348361952 0.6529510961178705 0.5087504887932889 0.4016785464373462 0.524086827584677 0.5852638728559345 0.5826582292189482 0.2624011869249247 -9999.0 -9999.0 -9999.0 -9999.0 -9999.0 -9999.0 -9999.0 -9999.0 -9999.0 -9999.0 -9999.0 -9999.0 -9999.0 -9999.0 -9999.0 -9999.0 -9999.0 -9999.0 -9999.0 -9999.0 -9999.0 -9999.0 -9999.0 -9999.0 -9999.0 -9999.0 -9999.0
6.9808517614868855 6.89014570964517 6.8757557272677605 6.918276195501864 6.923793524694531 6.916594778936921 6.94012127298799 6.982896095877541 7.012945442157909 6.950955878611902 6.7417126630820725 6.474884317980435 6.237261626642449 6.118457916485982 6.118606751656343 6.225949625591262 6.393947423107543 6.45688422127979 6.444552350810186 6.496655863708519 6.565756599416373 6.612195002141272 6.734000052475406 6.926166330299065 6.997884784814207 6.996602888777742 7.032714948212563 7.116737292978206 6.815318633144715 6.573555029832719 6.822562235329917 7.033693859396896 7.223637735706554 7.289594753565169 7.322314121387345 7.316305041725728 7.128172161718124 6.953119691088139 6.748304753092307 6.609280058219464 6.455540756241278 6.301571241161749 6.129409614870059 5.771654985555791 5.156254379947559 4.780430706054382 4.488292518419685 4.180626457785042 3.9316660203180023 3.6506267408743054 3.397996876822287 3.24780155984901 3.085144635024225 3.019796693731285 3.016361320276983 3.023013487258575 2.989695683477426 2.7867769610187167 2.56261066457428 2.416226922320923 2.3174556591472197 2.252288244073087 2.204700821697581 2.149030692054178 2.089410215724401 2.0397584456489177 2.0119234960563905 1.999320905215315 1.958841785015472 1.9074618426861685 1.8804799499508484 1.722223830011526 1.4898860072123048 1.505730196247385 1.661023293325132 1.8050069346037163 1.935148070918919 1.994182297229793 1.9108636791272853 1.5943387214357678 1.3375887352680444 1.1883522599355112 1.033700240004738 0.9009171915486774 0.8681905799374281 0.8856920883226753 0.9018729610948694 0.8803271042971265 0.8376429477623039 0.8414785802955744 0.884455571872798 0.8984781811516969 0.9125806043385764 0.984961796529482 1.0165565830541627 0.9856714169587384 0.920327694450649 1.0672643568029885 0.2927947524358434 0.2556935284627323 0.3334322619915809 0.4829033160025834 0.6556477079005933 1.7209978257575274 1.802498812872699 1.6631584932649814 1.5856487958629366 1.4573327589582676 1.054590446517319 0.9759462189462615 0.9350415115456866 0.8768172866703231 0.8945133071250437 0.9360089938506864 0.8362148154266071 0.8288886578438343 0.6455183800235824 0.4778127448951214 0.4215067395845951 0.4450241066720324 0.5302443426738678 0.6147932278055647 0.6276711346127494 0.3741462647136732 -9999.0 -9999.0 -9999.0 -9999.0 -9999.0 -9999.0 -9999.0 -9999.0 -9999.0 -9999.0 -9999.0 -9999.0 -9999.0 -9999.0 -9999.0 -9999.0 -9999.0 -9999.0 -9999.0 -9999.0 -9999.0 -9999.0 -9999.0 -9999.0 -9999.0 -9999.0
7.024932109916772 6.999517134381083 6.977647323634801 6.959893096809439 6.955626413697643 6.970677255831782 7.004622760621793 7.050549935475784 7.125987740137894 7.102900295923711 6.941454272038866 6.699162844824376 6.456282992772335 6.388212953292552 6.4742978293311095 6.607744600090596 6.653346619809382 6.64263414260841 6.582868079204748 6.575710779649741 6.632660611187914 6.730149408407668 6.843641246900455 6.941375915043786 6.99823147005216 7.241208896676685 7.416898413152335 7.493395336958144 7.370379750613122 7.055261915104882 7.117526365346484 7.312077419939753 7.3063635736717245 7.276364246142335 7.181393308677647 7.091082773621259 6.99659333617171 6.812375744597336 6.578861989630986 6.394198880357936 6.260641813283069 6.123927174991115 5.897358279221511 5.487983696390833 5.047856058525741 4.677703477429901 4.355731021983566 4.122182485934437 3.905733174141002 3.5734324801885395 3.367202775281887 3.272394749312076 3.1245789945219578 3.0464626138099025 3.0578304881529226 3.0984324444592657 3.017162013340303 2.91066340933106 2.76396875852811 2.5639210165647723 2.3918527709791504 2.264334859096273 2.2158033197284563 2.1812536269502374 2.1324922838334714 2.0975155198978497 2.0801962008625727 2.0368171314519365 1.9949819152686497 1.9102188060530017 1.8614138383340075 1.7199048171838025 1.5908086916805488 1.6240344682311223 1.7764050226824364 1.909585733244172 1.9969175259979437 1.9928711405697408 1.8530612812660412 1.61435659824364 1.3766752391087944 1.2029986444198624 1.0212022293397367 0.8561686558396528 0.7947425487500666 0.818253234747848 0.8744891808301748 0.8514232272598984 0.8217362849771986 0.8332912185190224 0.8918161047429183 0.9118889077592688 0.9460292623611796 0.9981444953649302 1.010565382707839 0.9702825968505046 0.8742064885525329 0.8149892333232513 0.3542954272971856 0.3386326448784353 0.4411320897085442 0.6986686719069048 0.6831846738684603 0.8451010275790325 1.6498038917071698 1.6199915491978174 1.6082102222048338 1.7318571401517218 1.4257337572544124 1.0225662226574035 1.0120256405270325 1.0262799214823797 1.066816900924552 1.0028573795329927 0.9379311749836792 0.8658162563261793 0.8018622022837402 0.6026203582682321 0.5228668572232341 0.4087108174716748 0.4115217222315667 0.5596161676155592 0.6767778205146701 0.6477772984077452 0.3920424055679118 -9999.0 -9999.0 -9999.0 -9999.0 -9999.0 -9999.0 -9999.0 -9999.0 -9999.0 -9999.0 -9999.0 -9999.0 -9999.0 -9999.0 -9999.0 -9999.0 -9999.0 -9999.0 -9999.0 -9999.0 -9999.0 -9999.0 -9999.0 -9999.0 -9999.0
7.173933566373924 7.160409095086866 7.143145299013401 7.0619710623177125 7.009248108831788 7.024346278722849 7.066034970484116 7.118348129264859 7.233070838531819 7.233705041473968 7.023409059297308 6.9283159103273135 6.725054363489682 6.67773082324305 6.825355195946225 6.943189888917247 6.977192122716952 6.912217819570477 6.769621664573169 6.688822894253619 6.769024801049231 6.883408779806434 6.97053114181967 7.084775554858826 7.360798020936271 7.664977963772721 7.878565855416969 7.910505927410558 7.779336598139081 7.621464357137915 7.674063119353844 7.617894884964482 7.3959826071596755 7.137436711256505 7.019225186113621 7.019978041434503 6.973536341850806 6.6864430224012175 6.372421276060625 6.179316234450913 6.067208686305992 5.90030966101375 5.536554400497883 5.194647559398485 4.937574574425893 4.500645189859474 4.168380444700626 4.000040250211459 3.797533614145299 3.5227473899609367 3.3909004870610167 3.3270277676152498 3.2002508027767917 3.058726533615564 3.0429585873268765 3.0548637618295205 2.985904890011793 2.965358237533561 2.9136478815750984 2.7506052311143234 2.464629407863691 2.2967180485191623 2.246719138988192 2.2260705411070028 2.2052839533139963 2.193838906302491 2.139605047081953 2.0580713763938405 2.005781549957396 1.935173593374804 1.80539117040793 1.7248163311147753 1.6840731621019955 1.783671763039464 1.9072764960357624 1.9926565723426528 1.9961109317650385 1.9496415459232128 1.804069124284877 1.591236024243066 1.3480767063578003 1.1926517344846532 1.0215894495215485 0.8103615390989869 0.6962889213666132 0.7208866123274073 0.8002969096727119 0.8220213729855 0.8259955439112467 0.8617422925605474 0.9180043940643972 0.9525308489761836 0.9839661539682464 1.0069155048093883 1.0276491905744658 0.9645671018039692 0.8341018069878953 0.7725647937009994 0.6735928740592105 0.4237059819882698 0.4403183273126623 0.5271234900532256 0.4082014507006923 0.4926771641861526 1.4923464134490974 1.6589477601176807 1.6083502926611315 1.7733895539334148 1.7648914981212562 1.1411633208876442 1.0195682049322534 1.1290125004639862 1.132683720946444 1.013987321766462 0.930322354445554 0.8105669805051792 0.7824536313276466 0.8456728612521657 0.6441355963430638 0.4366730624896307 0.3520413421959947 0.4524585127434198 0.6752395848684665 0.7199020795785758 0.6437140122221214 0.4436027425947375 -9999.0 -9999.0 -9999.0 -9999.0 -9999.0 -9999.0 -9999.0 -9999.0 -9999.0 -9999.0 -9999.0 -9999.0 -9999.0 -9999.0 -9999.0 -9999.0 -9999.0 -9999.0 -9999.0 -9999.0 -9999.0 -9999.0 -9999.0 -9999.0
7.376339650883314 7.3767952978236355 7.370912188661066 7.293364147139551 7.177857969895077 7.1401265653755175 7.154426878468541 7.213004235747746 7.431256642058088 7.585329995116261 7.343674570482732 7.179981396903349 7.035479602864559 6.988326194209616 6.979380363693787 6.976855879153381 7.012881384738657 7.085673545091414 7.022148898277074 6.961252269646744 6.998926345279116 7.091504473851829 7.250537401749678 7.484817444310718 7.792909273243474 8.092244326196967 8.148751336852602 8.109535882406814 8.08666343967177 8.007611075069585 7.951366075469195 7.775931251067098 7.291796923403562 6.989473341561664 6.984388095980316 7.00789469161532 6.937995886243013 6.639391125960506 6.286701953604945 6.075817262768625 5.955433042802221 5.644332202961788 5.273700862815298 5.052408761740947 4.82076179060963 4.364167396989073 4.050812623747635 3.971000754838915 3.741618361457133 3.5086193777346337 3.4079119618803544 3.3526804453403307 3.244169433774352 3.073411319988685 3.0159561940047466 2.9999672715230425 3.024540193888549 3.0735238590994247 3.017673494889612 2.895898258510416 2.6080021208186976 2.3822321570121865 2.311338192661016 2.3004439319481778 2.3191706855150827 2.274709287364985 2.1837258107738835 2.054346781865195 2.011019045351223 1.986773673114448 1.8708556626408728 1.7989125883894486 1.854109640079188 1.937816089989328 1.9964561219880728 1.9977061959420517 1.9677154808554744 1.8850567505133689 1.747996362693444 1.5803528830515985 1.3698421203710875 1.1866321035774614 1.0065309764178596 0.820737241109966 0.6394816637039185 0.6753131885560236 0.7711789887865068 0.8209894407343189 0.8606457198214934 0.919578707453922 0.97290302740251 0.9973168147069242 1.0095496456501118 1.0750189194499875 1.131726566183478 1.033918921132706 0.7933351554224586 0.6561748248551322 0.612028544200554 0.3771526334880732 0.3028241584787504 0.3893533158286629 0.305571456427484 0.6927343249885237 1.432788045095733 1.7160727469736134 1.7066079314937783 1.7161795217982034 1.7980848229825448 1.2610449165401991 0.9266649335983376 1.067822888899251 1.042966263146961 0.937590281538065 0.909067952923773 0.8308294440070289 0.8531342239344271 0.93909864870603 0.8423574814148229 0.6481996357917548 0.5077326120930613 0.535805820458727 0.5960199997324589 0.6975649921841329 0.8062406696755813 0.7667048635008098 0.4813549996603414 -9999.0 -9999.0 -9999.0 -9999.0 -9999.0 -9999.0 -9999.0 -9999.0 -9999.0 -9999.0 -9999.0 -9999.0 -9999.0 -9999.0 -9999.0 -9999.0 -9999.0 -9999.0 -9999.0 -9999.0 -9999.0 -9999.0 -9999.0
7.63985108261312 7.605341938888122 7.532854068172695 7.446138978179115 7.356670942222868 7.294888531559553 7.270638289131331 7.341270246424102 7.635647033232077 7.871877901876333 7.743638517843317 7.495511376980039 7.250498815932028 7.065609092485161 6.983736097712809 6.913335484004932 7.014359221888708 7.298389185972724 7.412449930858415 7.328968025892406 7.396017725641714 7.618060708440086 7.68383120974725 7.852907615392786 8.11171109034988 8.267960245198896 8.253390317752267 8.190740411215312 8.13783689091279 8.039744002904547 7.871969662901906 7.430242150640821 7.0206329463377575 6.926820289783515 6.926478437217929 6.9265794650172365 6.773322668788937 6.50305901127687 6.232975149639 6.004853220109082 5.721516480235173 5.413103479599243 5.209275485416542 5.022098061336766 4.751966264641687 4.372029697876282 4.071783418929006 3.988678880059112 3.772419190980082 3.535231081745114 3.419935344529073 3.3474196700649568 3.243809520559455 3.1527875538631047 3.1060352680788896 3.131755845163468 3.150899035828355 3.123568043554907 3.0594503471000625 2.9852432111045224 2.7590618363293897 2.548784500551724 2.4433795590630147 2.435697961779824 2.3898223117100903 2.292754987124374 2.1781697638604345 2.099085794934468 2.038820580310125 2.0142484157606884 1.98945777369199 1.9831559088440516 1.988118024770956 1.9996171131756304 2.0003554515131 1.965101116197108 1.882067672319517 1.780582821123788 1.6541218668088202 1.5110844422525704 1.3244635224752417 1.1811468298585646 1.0505303858020152 0.9804718493161724 0.7586451031039376 0.7602269324924407 0.8238837907171694 0.8831091423148585 0.9423764415871982 0.9930736316828624 1.0136304068401143 1.033941418977698 1.0903789576113474 1.1674936911155194 1.1866722921739732 1.0629653743295715 0.7195936653410856 0.5785705957814159 0.532282659234634 0.4750557608592687 0.2804717639176467 0.4164825848525533 0.5834357097592473 1.0595992730518864 1.3514636206639954 1.5981130569788613 1.637173964589233 1.6495335466315206 1.7416804574634843 1.6293204101689192 1.1202501082855576 1.126217177439948 1.0243335675501126 0.8800174703533069 0.8782061869363272 0.8666363405500681 0.8826625373229601 0.9834049597796904 0.9313476263344568 0.734142070239369 0.6746295727955327 0.5866895669322361 0.5516044113732987 0.5799321486297494 0.85630579037938 0.8669934453293997 0.8450779019038617 0.2614315540599219 -9999.0 -9999.0 -9999.0 -9999.0 -9999.0 -9999.0 -9999.0 -9999.0 -9999.0 -9999.0 -9999.0 -9999.0 -9999.0 -9999.0 -9999.0 -9999.0 -9999.0 -9999.0 -9999.0 -9999.0 -9999.0 -9999.0
7.976370410837648 7.852916314533738 7.718159172368706 7.6366744507036515 7.621006468500348 7.586416765962872 7.463952419139595 7.478783935017899 7.663457709706001 8.01221438498677 7.999655178524232 7.782224945950795 7.496643451432392 7.207608385201706 7.066961007178933 6.965557565733084 7.190878159258942 7.465148528695626 7.583592574121682 7.601634985944879 7.766614628742106 7.919939207629665 8.018381334765808 8.174014770860872 8.293795473016212 8.29450076035812 8.259432648205907 8.191598708770156 8.062043638714426 7.865676686144183 7.48662958946868 7.083297189072456 6.925894100866943 6.878617650738725 6.898218028162949 6.868107839363137 6.601560370243833 6.3106350289529765 6.070278850688995 5.815945178568418 5.392227349084321 5.237181254523594 5.167466446333048 4.976472416520203 4.704638090215535 4.351457742453331 4.071202485385367 3.995025435484325 3.780801465146276 3.5751391301065305 3.4317158088940407 3.330067933535144 3.236257571884645 3.198629017605265 3.2101114662728825 3.2685210816186028 3.231810550609503 3.160043120539736 3.0696185636310345 3.001533453945161 2.8485882018651125 2.689333599477888 2.603043486389511 2.5447256859492136 2.4400109405553256 2.2576337703289493 2.186842200202412 2.1419012879482398 2.083123441762836 2.0450603552795914 2.027204075309199 2.00981878023599 2.000325189440691 2.0003644209213265 1.983557841128567 1.8693515901714888 1.7552147170512788 1.6704076692586054 1.545770652991488 1.4019519829344125 1.3295453239041914 1.258918200422177 1.1716166673693598 1.0963568373921018 0.9507444841179312 0.9115816559950088 0.9400969366983628 0.9909889026878346 1.0207781329948038 1.0696322762516868 1.1147209365009916 1.1505098241498777 1.1920913750983075 1.2222797150951925 1.204901917132883 1.0134277761344566 0.7276993310391278 0.660893819898375 0.666029435557216 0.7333055644793827 0.4592116423462011 0.2976492718237237 0.4727183598784515 0.5638075332687078 0.317211108062247 0.1616966173883398 1.1784651456825317 1.6129360659070573 1.788482144605218 1.7583581300285709 1.2951946989570982 1.0477737388656152 0.9508304469546413 0.8542269211769808 0.8968910557140306 0.9496834424038608 0.91864309663152 0.9443946457008808 0.9394213889398968 0.7948811391805908 0.7094923955709651 0.6324232374499518 0.5520173616175101 0.5287780697339517 0.8732937705191508 0.9193794882917612 0.9614893416133008 0.8702267374991196 -9999.0 -9999.0 -9999.0 -9999.0 -9999.0 -9999.0 -9999.0 -9999.0 -9999.0 -9999.0 -9999.0 -9999.0 -9999.0 -9999.0 -9999.0 -9999.0 -9999.0 -9999.0 -9999.0 -9999.0 -9999.0 -9999.0
8.058958296291491 8.00731033804722 7.907266931293815 7.865969646158593 7.912141675814686 7.940319311378485 7.845637719325444 7.621937499510199 7.713713665927663 8.008840794785007 8.07335605183861 8.002042649201286 7.745920502810108 7.420282893772885 7.328128480219552 7.443517750644689 7.5306887506468945 7.64435545559871 7.6965496874700285 7.759274815612245 7.874878605106494 7.987812145298249 8.200152123980025 8.406290038586453 8.344238748133542 8.27190478882944 8.16933219451944 8.045225738311954 7.879188621869639 7.55876926649151 7.203098918836475 7.001452909519108 6.88667504997631 6.84473073634245 6.870071509600384 6.860937822816712 6.483807119240758 6.141715547018839 5.933729930928341 5.619281122605324 5.245378862932709 5.146259500299043 5.027388896531837 4.852245537579215 4.6305336149677965 4.286081254554919 4.033135011938193 3.984942404398729 3.782425672294977 3.620651702099918 3.449392973916978 3.301295860877046 3.206292365537405 3.1967299394510182 3.228805252438699 3.2673185065761285 3.243638823659183 3.173076462911148 3.082357283101957 3.009819642625454 2.923547723485864 2.8064897386362526 2.7434675438796488 2.68094334529993 2.513780318774271 2.284937655633045 2.193429385649458 2.16058133387732 2.112242977202468 2.0740095380450616 2.0437823420619994 2.017647778580731 2.0019239716164945 2.0005073874811736 1.9157784426126532 1.8120407504170504 1.75597257022123 1.6633687473990315 1.5355941890523357 1.4373167287170976 1.415133098803736 1.399505922239514 1.3316644969299842 1.2580067643188242 1.0518134080631647 0.9846883610260506 1.0215780037408102 1.0718535590111171 1.128183675377883 1.185643016100069 1.231260907457892 1.2649578659415408 1.2831693886480922 1.2926630523322011 1.264312460587229 1.069043979876565 0.7627763708864209 0.7844676972731427 0.9575777391527956 0.936449597074827 0.8911020638994323 0.262940881753656 0.2081120815720668 0.2165302061218323 0.0549970023266814 -9999.0 0.4630764126307248 1.0747660404462245 1.953639155821112 1.902777904026692 1.2635146509239616 0.8719866180531904 0.6388690153718648 0.7240036902053845 0.9441105484152964 1.0394504315933275 0.985370268939436 0.9452059629074908 0.9364528348125928 0.8410322830307013 0.7031343400324459 0.6372697653517054 0.5582563324613469 0.5264755481628054 0.5520814817346464 0.7560727573936075 0.8443546846568697 0.7535714847133403 0.3555134938673613 -9999.0 -9999.0 -9999.0 -9999.0 -9999.0 -9999.0 -9999.0 -9999.0 -9999.0 -9999.0 -9999.0 -9999.0 -9999.0 -9999.0 -9999.0 -9999.0 -9999.0 -9999.0 -9999.0 -9999.0 -9999.0
8.01814579753805 8.013792120545164 8.01839437947385 8.032875949068435 8.061388160129125 8.083923318643459 8.053984284570836 7.995120195127695 7.958209059199088 8.045774548931822 8.138335205277688 8.109963113824922 7.93618121919347 7.645610345525146 7.591729908249066 7.714688194507469 7.781954766380164 7.807378009855183 7.904574551985721 7.915549735294061 7.966517967526913 8.104317486187522 8.413174790138862 8.642327508955471 8.475119636371957 8.145522013230806 8.006405848773756 7.853083037187599 7.565066293689139 7.2767120786861135 7.069113924390823 6.9410959933301 6.7867885899331135 6.684163084639499 6.668320198660849 6.653599296770857 6.209849961086814 5.959063536174913 5.762941829751422 5.482904117278762 5.19031080617305 5.050379284966713 4.912252190253984 4.788250743337051 4.606928814339274 4.278574501502636 4.03663472492007 3.9922183710790415 3.887016041074792 3.709951397261202 3.49578021372934 3.2691890793600877 3.158226192980564 3.1569689271177586 3.2027505389360518 3.2265244463774234 3.212957038560849 3.189276226819784 3.1155612713458 3.0446797654052102 2.988590507825532 2.9229866560868345 2.870830541157789 2.807254648450624 2.634629455365146 2.3360096344909813 2.184809933426109 2.138983988234732 2.124283573712581 2.1006435786631243 2.070767073450206 2.042732097504907 2.020588749002295 2.015396881441216 1.945059400569333 1.8602559594824235 1.840990552581887 1.7919941429564603 1.658683579341404 1.5801858162727 1.5811801606024427 1.548874063141274 1.4740685558085946 1.3830636005730312 1.2547409594214718 1.1284455232287494 1.1657223716750196 1.2205246151745204 1.2823272238701735 1.3290347958062405 1.3562391898735684 1.35738779108262 1.3212027715184649 1.3060441875455844 1.2645669593137816 1.1174032858785996 0.8466101894928048 0.893508596267316 1.0005932632901846 0.964351440360493 0.8747969048824072 0.753108761137744 0.2270291720515448 0.2166133142719605 0.1926019650694586 0.1436557262383114 0.5218756239034987 0.995829686008949 1.9387187832650823 1.9865896692852016 1.457448738158064 0.9466343931939278 0.7191323033068117 0.8725235538837993 1.1541784210266393 1.1200724636831094 1.0328522165735483 0.9298512037452014 0.9130961733740371 0.8723736841059249 0.7761009282319451 0.7173971053884648 0.6312418338153567 0.5446017748517649 0.5095276470212348 0.509398232514203 0.6694461782801603 0.650928564453495 0.5708846251224317 0.4259550982641399 -9999.0 -9999.0 -9999.0 -9999.0 -9999.0 -9999.0 -9999.0 -9999.0 -9999.0 -9999.0 -9999.0 -9999.0 -9999.0 -9999.0 -9999.0 -9999.0 -9999.0 -9999.0 -9999.0 -9999.0
7.995325088500975 8.040222243685031 8.108917398325817 8.174466546208462 8.226042843321189 8.229954296254173 8.16381462746521 8.127183809732726 8.162504447561707 8.233012703651067 8.210320943272757 8.153064509362402 8.028423882685455 7.864250919232102 7.73912993777773 7.812614125051732 7.877923315706712 8.163822664869176 8.429986854290153 8.378080577198642 8.405660490488186 8.498240472421243 8.776332149210965 8.880742632352495 8.53265276908764 8.000136670925967 7.818813956043556 7.524557048120204 7.221857090896359 7.081267651394883 6.968336244269183 6.724214949163116 6.5513011103939816 6.3195183864638365 6.065337982018487 5.969719722961004 5.853772420057461 5.731042877900896 5.602670977622134 5.397363374135362 5.15182869608497 5.010600782169318 4.867634784003981 4.741798484273647 4.604994800671889 4.315895762523364 4.0858136610575375 4.008642945683003 3.995760261837659 3.865795303238426 3.586312397349825 3.2733653469328545 3.1217817917519053 3.1268473727871275 3.1725368026809515 3.201165013242984 3.233876365622061 3.2384237670559126 3.1771289129967983 3.114633969241181 3.059471405615958 3.006392450296236 2.967163203575929 2.904323384711793 2.7595046748371392 2.44610661576106 2.212672720150104 2.148698169136057 2.1408168202778644 2.129952664064528 2.113173082469926 2.1006206862764105 2.0835814467591605 2.0554809035881667 2.021126465316841 1.9662135774377651 1.9276902490450487 1.8851574939551488 1.8191693944362064 1.773323453027234 1.7427572339150692 1.6882747273291736 1.6037786980267643 1.515153799053406 1.4247939945922468 1.3943777251791238 1.3813320973880736 1.417973187153989 1.4780393461861143 1.4938516269010218 1.4785760121518248 1.4170511369038317 1.331403596184447 1.2454290326548527 1.1523559321601993 1.0341334654522645 0.9507728707936492 0.9651104724867408 0.996731674878372 0.9966778005083184 1.0648376197937302 1.1949747334295626 1.0083095571859486 0.3061301294553394 0.2536860035387354 0.2696435323570212 0.6161578773666958 0.8013115926822671 1.3169543027642538 2.137888341251519 1.8937918066075208 1.2591258217405223 0.9273218640596488 0.8251350002050629 0.9968711072313282 1.0407339835766392 1.0103786250129023 0.941483957420014 0.9047617957798166 0.8443920463436508 0.832922237557676 0.8970844824446844 0.7801043277779062 0.6500856068303045 0.5608590335970354 0.4808195805531389 0.5189805110491243 0.6309454365429775 0.7476634840011498 0.6775241900320723 0.4967813535668988 -9999.0 -9999.0 -9999.0 -9999.0 -9999.0 -9999.0 -9999.0 -9999.0 -9999.0 -9999.0 -9999.0 -9999.0 -9999.0 -9999.0 -9999.0 -9999.0 -9999.0 -9999.0 -9999.0
8.100251767629365 8.142704349325928 8.210002797242916 8.303122869612627 8.391688326492737 8.413333912365752 8.316771407420429 8.214124119097246 8.25500320934887 8.329717447936657 8.384367901471608 8.271280648438598 8.12179039509937 8.030048923529007 7.950461948020432 7.945552029710208 8.111216588142389 8.482193858995268 8.59718785527264 8.6462644776144 8.78872621508998 8.90039175003324 8.93129161759074 8.830105448521534 8.300905282166267 7.901233395609728 7.607650050436188 7.325492359072879 7.109058216779896 7.031691924300044 6.74920739571214 6.424334308273221 6.172308554251579 5.945315958520563 5.811010934514228 5.649298369174547 5.547549200798337 5.535059911378557 5.470396677111859 5.271495030196016 5.057017914302217 4.934909199524991 4.764765681490454 4.643703783566122 4.537468698498577 4.40362215393668 4.2157212214447295 4.119541204412028 4.046180871823947 3.9341850029584577 3.695568649827842 3.4070740824576498 3.217167340792213 3.1864994742136474 3.1875917781465395 3.268354181168316 3.2997300333110595 3.23603533656507 3.1851132792311456 3.137921450328885 3.111433651575175 3.0815649079768908 3.036253197480032 2.998045164251666 2.8997394518195483 2.6304230280569034 2.364378437802759 2.249820757622086 2.2057921432741843 2.1848713383182727 2.1814517754703404 2.2001880639746085 2.2059654506806647 2.1893837271775825 2.132705767393761 2.052594616824673 1.9994807828633985 1.95989870943207 1.9178702865887336 1.9011588259221104 1.8742328220969484 1.8180299164134617 1.7537985638594458 1.7013276793481444 1.6979807212712226 1.7210833162227508 1.6910217965021996 1.6772514127753948 1.6759763652566573 1.6329571899699982 1.544683569877927 1.4549294294223476 1.2788018798904752 1.1189549987697092 1.0379902996917585 0.9482151925294148 0.9607172136408738 1.0142324902679876 1.0499096398075416 1.1220981530531664 1.1905855706547006 1.146162699095 0.9991237633950676 0.3682022297784124 0.2327846401432349 0.221962924101571 0.6473951396281137 0.7285460806805252 0.8278929433777856 1.6893208578294034 1.816924449977189 1.3725239879685998 0.8933318616296803 0.2817988026471271 0.2863343905092205 0.5252996328299303 0.89555762132066 1.0107869956372295 0.9616383084487315 0.856342624600865 0.8842549104751898 0.8847056986316277 0.7810429057238584 0.6884964874156856 0.6483611180480997 0.6183812903940658 0.5661868333280907 0.5906719712266348 0.7475112269959956 0.7633767279648555 0.6701322040846518 0.462174412628014 -9999.0 -9999.0 -9999.0 -9999.0 -9999.0 -9999.0 -9999.0 -9999.0 -9999.0 -9999.0 -9999.0 -9999.0 -9999.0 -9999.0 -9999.0 -9999.0 -9999.0 -9999.0
8.382488838046571 8.308279631450352 8.361745675320531 8.50123034774347 8.61965825545209 8.641077569913712 8.528898790298985 8.358907449590548 8.301361067975655 8.355249832007459 8.464994674882835 8.47032803169008 8.38774238872665 8.32672457439044 8.297741953545804 8.34405222765548 8.466805782688317 8.592950399641095 8.722440267157062 8.883616990285397 8.95242177484919 8.93830801432016 8.76151276727903 8.40304827450319 8.059889094284644 7.765333665068741 7.437541767171456 7.215839078616187 7.097951814191255 6.945028995608678 6.465632902116334 6.114197466239158 5.9287179673569845 5.839754787886064 5.692780308395408 5.471223114178031 5.329851878251113 5.290444288680232 5.207774165720274 5.025257337463862 4.866642554280227 4.695470897830562 4.573398941977791 4.465073186700821 4.397077075073428 4.323827869535172 4.225206670151848 4.106842634336891 3.58553439009625 3.8168612689206167 3.761136925146644 3.5881534987783974 3.4088117398591287 3.31994098474643 3.319544018557373 3.4151265898103795 3.303856146827496 3.1590802631607344 3.11330798635871 3.096664327791547 3.1071068733077847 3.114552134839152 3.1268597180140283 3.0417065894637 2.99756954980582 2.7676489249267795 2.496197373021444 2.361829010302836 2.3013012306379093 2.2809840231776723 2.301461158045772 2.354019583628088 2.3985921819114 2.411521448341596 2.3898004349140307 2.2748920108045647 2.0889966404962177 2.001366409131601 1.9944404326741416 1.9905422004803917 1.974796220848152 1.9429526522097345 1.9067942890859804 1.8969173460458515 1.9327034850510976 1.978689081330716 1.96241890102254 1.860458070247996 1.812338199950492 1.7162355513923573 1.5652045891597184 1.295167973917829 1.0004128592020145 0.6121141619350351 0.4830349558224063 0.4355445084007798 0.6425012784524231 1.103607931032028 1.1576942219055626 1.1656033971266817 1.1845987049989644 0.9988071077791264 0.6186614409460771 0.4137510985793454 0.2177245001548311 0.1726897365718415 0.2815055962146013 0.4071623626349164 0.6075431463489593 0.998028897180912 1.3970079930073058 1.6587941388496512 1.066863662254329 0.2752284629311327 0.2552499097472933 0.3197708116846541 0.7631508950535169 0.952414493129383 0.9934020792838428 1.1737885021304018 1.1360387248725594 0.7877364058436919 0.7321478584712846 0.7031896993453464 0.6849404018095424 0.6836861385840309 0.667316724451121 0.5907753628489841 0.5843631020607265 0.6914103914930935 0.7698787551232591 0.7737369396821728 0.4335440037128015 -9999.0 -9999.0 -9999.0 -9999.0 -9999.0 -9999.0 -9999.0 -9999.0 -9999.0 -9999.0 -9999.0 -9999.0 -9999.0 -9999.0 -9999.0 -9999.0 -9999.0
8.596011645089352 8.477673321411366 8.540259001576755 8.731945482301676 8.854183819587835 8.832226343839622 8.713363757720986 8.556406031987002 8.409857649305987 8.41983007636714 8.550918682794762 8.700279867178745 8.768513040704413 8.786884698597584 8.776215391012247 8.81512169367124 8.872837679414348 8.93708187163475 8.9772869665582 8.956921029403441 8.791251901808627 8.502127904275708 8.217954682351332 8.036400209147452 7.907691081062402 7.508284526300555 7.176362855328391 7.070880096921387 6.993071480597289 6.584387533676059 6.104603791773923 5.93595265757506 5.833643024674053 5.748564875848509 5.580024826464845 5.29358777906806 5.107919852211572 5.009506408857304 4.948469287248279 4.836645923583877 4.6769656734003 4.549933813213453 4.42147026852984 4.302720408791312 4.180323097750186 3.70010453869533 3.537361705507098 3.479612197877936 3.4515627096070185 3.534071485231125 3.8140158200531857 3.7404104760188144 3.5977250613649723 3.496940906614476 3.522053866323008 3.5149505541565054 3.333078626414614 3.1339911959392968 3.0600020989759606 3.0303880093147986 3.0563843320159982 3.105442601362872 3.1278197550821787 3.0594818361264537 2.9927762531091893 2.775166593032291 2.540157284414711 2.445835242510938 2.398857879968604 2.403636588575066 2.4515468034631107 2.538967873093844 2.6205699072993958 2.679503925976721 2.7045349908552945 2.4873537232257923 2.141169970882098 2.013824210519199 2.0160073982831617 2.0525104498927624 2.0623939874555197 2.0335990409207256 2.015423198774789 2.02371409385056 2.0678975222749227 2.066994274448584 2.012445288861292 1.8614374720669404 1.784381627717323 1.5862734400611376 1.2315584508116817 1.0092134036908085 0.7608026718309934 0.6712526888524823 0.6011645337047855 0.5751535465752877 0.6673904560166278 1.0422008255140272 1.262149302679647 1.2697703199396255 1.2975181286898736 1.2025332140012923 0.7589943066647753 0.568567854477386 0.3303994322970151 0.1988232735661264 0.2251354747998586 0.4161419691512977 0.7467924095292504 0.9762868335394008 1.1357318432934866 1.6969987883413844 1.6791690997915392 0.8184811454215561 0.3120492557123724 0.3899658831315786 0.800368619300988 0.9719669006977631 1.43687545183366 1.5700234028038942 1.674920329059768 1.269648066121159 0.7835656915436531 0.8459022910716163 0.7408714570402485 0.6622806729759592 0.5807868872869755 0.5300998321703733 0.4553223774797887 0.5150202837788472 0.7511133554013274 0.8546124566722559 0.8423320813792474 0.435923837417375 -9999.0 -9999.0 -9999.0 -9999.0 -9999.0 -9999.0 -9999.0 -9999.0 -9999.0 -9999.0 -9999.0 -9999.0 -9999.0 -9999.0 -9999.0 -9999.0
8.767001563689071 8.623905212238563 8.718809779513848 8.891795474326852 8.921933494950627 8.922464877520461 8.876288802112994 8.776506296796828 8.729911602774875 8.756765166425781 8.916872813411446 8.990922535176075 9.0354050891571 9.09887871952714 9.049402095498785 8.977207209364767 8.994118415594816 9.080122556075924 9.032047221310645 8.733554509562437 8.232520722008125 8.008856741579109 7.715657028960283 7.580953394384626 7.437728858815461 7.118006584704304 6.94169005771203 6.83727436128424 6.5786426325824445 6.142781455081171 6.001545836562391 5.93169882306211 5.76118726902691 5.620275281656303 5.420870652326319 5.169710024837875 5.001069295625617 4.935340429904941 4.844830042543846 4.690749570394543 4.424402091429389 4.298717246632336 4.028995010168536 4.090063740217637 4.081976524418981 3.67760111192892 3.5796140468124102 3.547667098074683 3.4726836751036707 3.523984923376992 3.848915520305603 3.853366801695617 3.7629737749073873 3.684210232684325 3.675883114890405 3.627638023916437 3.410191245794584 3.1500132888698587 3.0105038389712675 2.974160774285862 2.998857532444497 3.041657153506428 3.0562017998531688 3.0170278132305093 2.959941219934112 2.757237389804687 2.594273808733927 2.5197425937437923 2.509383467448985 2.535712306154519 2.6039034767042257 2.7082991152066604 2.778907827380788 2.8121963060002133 2.8976007205009204 2.7561646442808807 2.1990988788426646 2.063175598693611 2.114121771057646 2.198261330331825 2.2353792897299014 2.1809819690635504 2.1074638666033483 2.115184848781912 2.2162084637111907 2.1535941461873964 1.5420748246532296 1.4566397650921257 1.5575839411375565 1.5496301137173356 1.269719648601222 1.1381300638263585 0.9548839228140976 0.8449177025089256 0.6977619122777848 0.6270759428561395 0.6470578006534785 0.8377608664862426 1.3212925905711717 1.360267007904237 1.4312892811672349 1.3894309879049316 1.0483284838437987 0.8966599321568689 1.0629475574918807 1.2287495596814446 0.5571688092863031 0.5838587674249767 0.7332954561839312 0.9390755004247996 1.018057512990105 1.2587567009619078 1.74427429404903 1.4810625371604966 1.1007249595114152 1.2012004260774478 1.2231155360509351 1.2620625611129592 1.4365875151695886 1.500449291787438 1.7364313344705986 1.6793493955646623 1.6401590716036447 1.5860833783953034 0.8416469975944401 0.7155382089091079 0.5146233766469964 0.4574569160786047 0.4810562242591387 0.5296379528158404 0.601996893041446 0.8344138108112789 0.9623144663218204 0.8674390571672126 0.5385755243754937 -9999.0 -9999.0 -9999.0 -9999.0 -9999.0 -9999.0 -9999.0 -9999.0 -9999.0 -9999.0 -9999.0 -9999.0 -9999.0 -9999.0 -9999.0
8.914041696797131 8.825840872839398 8.90484079557578 8.909195366614625 8.920752252060211 8.94488970533668 9.022005628760768 8.963970537359529 8.946792128879645 8.994251189629802 9.094025108899324 9.18446171296972 9.245624269227177 9.23980431715056 9.129587932170612 8.984883849025136 8.98880726397892 9.102985514033264 9.039045385104558 8.36983189479579 7.977424441146699 7.665516246681621 7.307059713252203 7.241178294913254 7.182642868823939 6.934093084914919 6.793015880606581 6.62920105437196 6.392679561140191 6.12597203237556 6.013998122249228 5.969319308479934 5.793436469022138 5.583111741583374 5.311526737071043 5.064501951438498 4.957859947423182 4.865750519343713 4.5868932464610825 4.344217647306154 4.2645973156060375 4.236792623129421 4.011818818065123 4.014369192410575 4.091979083491003 3.960378061572693 3.711262941564264 3.606647035756541 3.505362534096897 3.5097748285972723 3.8415592860199945 3.9343625388200687 3.896446476186024 3.853194838089338 3.821414892236686 3.758018336548109 3.5660545997677806 3.248749068639561 3.0424564839296133 2.9769656639228845 2.9874583379109216 3.0033552249779323 3.011379515569109 3.0055589605734325 2.9935002178822314 2.847302243480667 2.71177920644411 2.657434801413829 2.651231526546016 2.67686107300279 2.74384639706958 2.8158698558087267 2.806784173147548 2.8152582918329023 2.97911221062451 2.9510041734214165 2.4547227928472357 2.240800173965445 2.2644970679760963 2.334308517291159 2.3746559902743813 2.378577790660929 2.3571711640421844 2.2788381039641497 2.231707312722875 1.9868065149239904 1.597364421952681 1.5073005134621735 1.576694929221168 1.595652724798815 1.398730289829872 1.2336821474480604 1.072533783741449 0.921841953668745 0.7962754372423013 0.6990634574394227 0.7173370162686985 0.7971900885799132 0.9282474903539316 1.1268551747173 1.2757610647605635 1.2940065902975404 1.0837577096604216 1.0051903067449006 1.0547057402607314 1.0307424430229402 0.6117210740018585 0.5765126697813652 0.6303460563277473 0.7203173573042392 0.8371643392220606 1.0162525878102333 1.3798048018775375 1.8460893436918964 1.5752443000161012 1.3092436403271 1.210298261565115 1.2300359546789768 1.4595240432214631 1.4362407945332496 1.5410816109403376 1.6836833256858983 1.6939065734192118 1.650973794405929 1.574924234054417 1.5302268954067668 1.4468834000471948 0.6015867465639474 0.6925852105950469 0.5994130115150782 0.5401902193525916 0.6738334464389236 0.8843066198244756 0.9225961128521132 0.8494369146256393 0.6682658984402425 -9999.0 -9999.0 -9999.0 -9999.0 -9999.0 -9999.0 -9999.0 -9999.0 -9999.0 -9999.0 -9999.0 -9999.0 -9999.0 -9999.0
9.011625993905962 8.994426368473157 8.984367292112857 8.94300009575502 8.938423459989249 9.097245092815433 9.306100415168572 9.192290758512618 9.014053410340122 9.156609087844569 9.347007382555375 9.340119687535646 9.339513952930954 9.325818448335548 9.21812541057783 9.005247919905823 8.859791339037685 8.710869524522789 8.528633322798033 8.033988189708293 7.854095012623787 7.545309107268554 7.269859998593924 7.223309741850032 7.092935810730291 6.869774309332262 6.686319999537855 6.5115835699504725 6.336820242367082 6.2038863750176505 6.0422420624988735 5.919469350265399 5.633399661443916 5.015777898288826 5.036783287634634 4.974919466131055 4.773008873172152 4.439159738928738 4.395694586094656 4.281382507652547 4.201081777469045 4.229591540172836 4.060456831075978 4.015143835552256 4.062533212635561 3.978365808784245 3.830610255456796 3.669842115132691 3.554052551438231 3.545822266104368 3.739630041156033 3.9899629729831583 3.9825381042635897 3.951162363848172 3.916424976039377 3.8607418136405687 3.744080469065939 3.5167856815178133 3.238324046219254 3.095801189006408 2.9990233525543144 2.9904428416082807 3.0016660298149 3.0281755263846017 3.036150002967249 2.973457266061568 2.890001997029657 2.84822268172002 2.8103317491090136 2.804744976570066 2.8553642377120747 2.8608617207778244 2.761756942480338 2.7741916427043583 2.992860223471991 2.9694899617505888 2.5998005639535973 2.388828558652522 2.364699828807818 2.4124096677163163 2.4898706676461044 2.490575222837773 2.48370366158451 2.309351874927744 2.037997103264107 1.9837658248240075 1.9787508477166296 1.6024006548065153 1.57413890088369 1.5611185745856984 1.397145129969231 1.2422611561364312 1.13174919274473 0.9737854136650924 0.9082280678740098 0.8367711331525122 0.8170053020446916 0.8219888981488099 0.7687679390918503 0.7675625979196473 1.0617744984023276 1.0978532453530676 0.8293212427473686 0.6323311630203722 0.3986121839104007 0.4977919868890919 0.6715812061426807 0.6348945202667131 0.6339164416657765 0.691584861768168 0.7469951308543799 0.8602490463841019 1.0537447419143589 1.674639880759191 2.0006942798504066 1.910440038986312 1.2797563645794283 1.3254277174642954 1.33812716868454 1.378594458627476 1.4734611202231207 1.5358590391275402 1.6565838258079932 1.6274634849428788 1.5765301827458988 1.5873706294722596 1.5772721895314383 1.504140433105682 1.4287292931658773 1.2047101501095738 0.5779397844183758 0.6299431456972593 0.7785509016931352 0.8711585412240366 0.9108286493274282 0.7983938354729884 0.5592799653199081 -9999.0 -9999.0 -9999.0 -9999.0 -9999.0 -9999.0 -9999.0 -9999.0 -9999.0 -9999.0 -9999.0 -9999.0 -9999.0
9.108167203692716 9.08764351658268 9.092365172360672 9.14443112935922 9.218590658738862 9.378620626050576 9.648020478781644 9.784570510326269 9.684856003295463 9.593155576009009 9.469408091383006 9.352041300821698 9.334402810216794 9.31139781777995 9.238814125259688 9.00607443987277 8.35948358168081 7.975898066319946 7.976803111149294 7.927460313888592 7.711713417273829 7.4119226322635345 7.229382964018305 7.116282758435403 6.964659657343841 6.766758095053541 6.568421179687304 6.36609156685605 6.231592804536005 5.889476321991691 5.667874252898765 5.37443655215197 5.17697475868669 4.81744221610717 4.762651152539855 4.615790842394244 4.425824686131405 4.361065789902956 4.33752095546576 4.3332570851860215 4.27930775437482 4.1864030610154455 4.022486900979785 4.0014669624613015 4.045217268795228 4.00476706452374 3.883067509787314 3.737805266479519 3.618106806262319 3.5793359631116437 3.663739698464998 4.000012678041315 4.005100076491916 3.996623684136463 3.962954904795588 3.923403880117805 3.870583757509324 3.7763047725946937 3.606407814039496 3.3738739880198407 3.138627604567726 3.0060953132203205 3.061580880567837 3.2054889207070354 3.2122220009144677 3.094566762024753 3.027976658284697 3.0020879238865303 2.963416523316515 2.921787477218679 2.9119224544018807 2.898108062513332 2.8171976294869365 3.0045086629261637 3.021067908732807 2.8295410973683968 2.671621628849877 2.514772500701469 2.49495908783543 2.5426909398393707 2.533253646477228 2.515921235399791 2.5264456985503485 2.4810755558556306 2.2210398607332937 2.0909823842440294 2.095319751152697 2.007338171541083 1.655929753795392 1.5305006461860806 1.335603266307009 1.2924773778622936 1.2593435699013709 1.0590430117547844 1.0495337027523075 1.0363523963630903 0.9150538218594828 0.8754352173736814 0.9032313216794294 0.8617228777012957 0.5371846776928081 0.2744894073450825 0.2754042311220559 0.3768958978674315 0.3374341189486396 0.4769868041239651 0.6254218357015273 0.7791226516310773 0.6789315111999419 0.6668882739329969 0.7511241066677286 0.8731167511783969 0.9621755931563738 1.1196072774144068 1.9662197364813343 2.064711386109873 1.8422158543433904 1.410152661340501 1.1775428215374952 1.2905711321750404 1.4583071625938846 1.466770015576892 1.52273935418689 1.59657621467628 1.636846496037179 1.6092329232789124 1.5893774439131485 1.577782348448218 1.5290494108736206 1.4787959015279406 0.6592405469803508 0.6388950708711179 0.5000031025349937 0.5989920510302267 0.7603896753311192 0.7931001459209754 0.7328736650256604 0.584426614310195 -9999.0 -9999.0 -9999.0 -9999.0 -9999.0 -9999.0 -9999.0 -9999.0 -9999.0 -9999.0 -9999.0 -9999.0
9.174794917658769 9.199787601004104 9.29543634048634 9.48326893362517 9.512988234819437 9.561571016066976 9.833870895292446 9.87797773896848 9.78188812376023 9.54452285886012 9.334840432379064 9.239255224067968 9.191144109299811 9.179335243551224 9.107285411443984 8.726135785596782 7.987494331127677 7.800485155527341 7.741805659249097 7.639576698498205 7.412497010944289 7.19018656545869 7.043755595305729 6.965766940570242 6.7875558654325 6.5380912069291055 6.283918165715996 6.062736374739966 5.914184337548139 5.76551951013581 5.558480165950287 5.368479038623349 5.284739523604863 4.819173729858256 4.670646578202819 4.55639395767819 4.432911118439765 4.365774226158423 4.313519032523296 4.37842020706001 4.544122102309895 4.187900211426403 4.020765219995615 3.990958100561466 4.047968310438824 4.029638796933785 3.933897339757201 3.8025082456125503 3.705652122105573 3.647716769605839 3.6685576302669016 4.010105100236356 4.13447018016912 4.085572463227975 4.000106894755815 3.976513878209001 3.9722968548014896 3.957678149566733 3.8884218062242857 3.718412297502444 3.49695245030994 3.346823367363177 3.429444610705062 3.523161596006664 3.409638406208472 3.2469249902518427 3.145323145151397 3.077207187367345 3.0085720203288178 2.953778242041968 2.9387778563739486 2.9811679936994824 3.108797176531218 3.4411763837888456 2.735601554016414 2.7103831005494072 2.7293076181145044 2.6544417978231603 2.6609009914990485 2.601962201755296 2.5405024100610154 2.5663670558163467 2.574687927969657 2.5885780600522144 2.479447454492822 2.259198061689072 2.2555359060506768 2.3467257888207262 2.018510653253397 1.80281750238235 1.608403757047159 1.6365970577486328 1.5445476370652942 1.316848587538576 1.292084343171011 1.303931296391274 1.148149364747188 1.1196409964407947 1.1043467894637915 0.9807038343471594 0.4517137214672478 0.3539102239129134 0.7334802509373141 0.7033754860658937 0.5822054352869046 0.6121983436215026 0.6262104817587056 0.9089285869907257 0.8933045259224133 0.7504003821641765 0.7814961011939664 0.8255269984811353 0.937166383304616 1.090807847989213 1.3389747574877655 1.984121548299126 1.8720513874488427 1.421675024090316 1.2957534214430682 1.281658832024562 1.3092511591850944 1.393521974264485 1.461841478909547 1.5096945506692458 1.5861540740427675 1.5794018867488455 1.563712973687345 1.6081163736196578 1.6065399958529365 1.4904569804997516 1.3806575702196513 0.8486682527255852 0.3308324219737033 0.2958678105560439 0.405691277005418 0.6769602857109043 0.7454243351271288 0.7537035167667604 0.63138524224476 -9999.0 -9999.0 -9999.0 -9999.0 -9999.0 -9999.0 -9999.0 -9999.0 -9999.0 -9999.0 -9999.0
9.223338323430294 9.278144938161835 9.370695847731044 9.475368380569916 9.539085409892223 9.647097194763528 9.742183391544726 9.754902399215208 9.559978105553109 9.329005201194937 9.185326056752375 9.116136697244317 9.042073663726368 8.973036700587555 8.72749557801355 8.10723469819975 7.832063074486705 7.638022527989235 7.481890980006206 7.301307475249825 7.141015835647666 7.021378763342433 6.845287545007597 6.474514649585959 6.4030203838224935 6.299749091685097 6.199919200544183 6.061627429985356 5.943843820083853 5.850287608971055 5.593087535290522 5.443989420513404 5.322370705206254 5.174143910351118 4.719167556380183 4.6530884216643855 4.504247372428825 4.385430410690419 4.329534839480058 4.468914721192979 4.598961198573872 4.270790467507116 4.094394885413174 4.025479237530333 4.015202160487321 3.985457008707853 3.966941085734948 3.922468423233429 3.8518164456829496 3.7979599758068794 3.712638132501324 3.897181020358652 4.282693875913265 4.241182752097794 4.128602267640232 4.045399326672035 4.0026445389091005 3.997284563819682 3.996610263267439 3.968411344145328 3.885827509698887 3.8387413706693785 3.7273326752856 3.616740587752576 3.4263031120314107 3.241704185507293 3.187339117029895 3.116008095823009 2.994955744163308 2.751508649262361 2.824339935821804 3.1343042746599474 3.130286875209496 2.8403530295091186 2.740283861474261 2.7359164716448547 2.795490091910533 2.8108532347999624 2.783236543150933 2.6509255243616554 2.6079136940766814 2.6605467246602057 2.642899978414277 2.66360840823475 2.626881641228126 2.4863060637054586 2.521654482594225 2.5326706209062406 2.4623499137331746 2.315942228604153 2.2247733193979964 2.201045576613342 2.1660513131886616 2.203363802262166 2.2430954917340498 2.201388355985452 2.1238276062094936 1.9206084835570607 1.7962493996348248 1.765695585695362 1.7147822431513509 1.558674976171075 1.4670262758832795 1.307252247033015 1.2948958558948322 1.381102046203472 1.3773093198114104 1.4294950603339749 1.4605705371548503 1.0767317585254526 1.0429238664978762 1.120119499890923 1.222956689941004 1.2959734216296497 1.4134776907246829 1.6490389042948783 1.8428196396186995 1.5805338000758278 1.5094178291528413 1.3875656941724688 1.3439652518618266 1.3744712363010336 1.4478922115669377 1.470654998037931 1.516688575754613 1.5918430083903132 1.6601244854333983 1.693814633290007 1.6175884489827657 1.468248914570688 1.4143927210630254 1.3023366314046632 0.4047800294382861 0.3225414255153456 0.3440951615124268 0.404336181087255 0.5727228208186739 0.800048891198935 0.8346837951066677 0.5915905445016602 -9999.0 -9999.0 -9999.0 -9999.0 -9999.0 -9999.0 -9999.0 -9999.0 -9999.0 -9999.0
9.37435239140078 9.42979434272326 9.492334997066406 9.56225107551397 9.645532203479217 9.700868346471191 9.69830527513379 9.617172108438368 9.407319713634458 9.177641710257426 9.06833088300564 9.021325310689328 8.903837496817317 8.633837708526473 8.184639091986528 7.913393593783433 7.74521805045345 7.51995806921644 7.350317363401446 7.1911004646891925 7.042565771541264 6.8348354066765165 6.664285173769949 6.473217568767433 6.403401483081404 6.324009329176103 6.190456018087321 6.156797228111431 6.066402606315645 5.928188879699327 5.778058974936098 5.497047172606303 5.382124546320823 5.265515884322698 5.060299909562582 4.948331808043996 4.838452577424489 4.43986980771838 4.391838448842957 4.534584507404995 4.642763063858898 4.449634088824483 4.16798477139281 4.087505202328039 3.92248591040201 3.87873144101814 3.962859606212868 3.970649510856621 4.001208174785871 3.955986071412624 3.83195813250721 3.923686019889281 4.401069253097293 4.384927468981586 4.287241235494683 4.2037692886263125 4.094186259612332 4.026552248895773 4.032363899679837 4.007762878833017 3.990646170228649 3.928347813626901 3.7425406568605935 3.341675302351569 3.197442296992775 3.0823618343726977 3.097045331656598 3.101930234444887 3.067772686018289 2.934936218160371 3.1115509352544306 3.240111966673945 3.07597429284458 2.896847685531774 2.8530483031155853 2.8709264687179825 2.935541937565572 3.050486905220125 2.949602012203324 2.765375808886608 2.7727040101831264 2.806166515218254 2.74632433565368 2.7538459024737345 2.672635623582453 2.6237160602575478 2.707855083802972 2.652541287368545 2.5835912358524755 2.592588337596185 2.570558067761078 2.545846537544793 2.584819497825685 2.6671971856622587 2.500263001427747 2.304089158367652 2.210844469050591 2.0254545104655364 1.8994042343888728 1.8775167371276724 1.836198058713971 1.7651828743459057 1.671325810283283 1.5508323395177213 1.599434596114068 1.6364636086538558 1.5567712130769538 1.5863527940429876 1.6594997948296752 1.7513952564062192 1.64233073338852 1.6734593174289023 1.640625566628917 1.5745124803314905 1.5565513223544791 1.6064732338638357 1.7844073383639452 1.704406553868672 1.6682187323637456 1.6091067616592452 1.5063936133095086 1.370678996113719 1.4288215277117595 1.448897935838375 1.5409416908492588 1.7470199047294943 1.9273064730506533 1.7315777995777202 1.4342897061762625 1.389803444508934 1.4651722334360326 1.4667247701688495 1.341366391404579 1.337797847176343 0.5330506246195289 0.3820529182697616 0.4003737091089706 0.6935295203480052 0.822147695137504 0.7455315380412422 0.2838340066671422 -9999.0 -9999.0 -9999.0 -9999.0 -9999.0 -9999.0 -9999.0 -9999.0 -9999.0
9.644915739711855 9.76352441341057 9.871023556084204 9.893489058477565 9.868954256484988 9.799638753822537 9.700204157234085 9.526744339324686 9.311010411562666 9.109598365209433 9.03615609012442 8.887755133989371 8.691324804474952 8.478201234639567 8.117669912147946 7.857213429645272 7.646329814211224 7.466192031975015 7.385663055274613 7.263144516108423 7.12946250425243 6.868064705773402 6.719961296271569 6.595239425609369 6.464804921858735 6.37405657924813 6.2157902333380965 6.162503077772559 6.140337759718831 6.018598991962272 5.870403463631136 5.6182400416171365 5.46177429975476 5.324913164331272 5.182921191167575 5.071748132805064 4.971046365877466 4.662055503723686 4.564243001929609 4.594343433882565 4.662499714582856 4.624822429141213 4.224932589746987 4.122296752878637 3.925288065384207 3.876471472036883 3.948166415392576 3.979328002495341 4.066010601985202 4.104265536655456 3.979534074169053 3.978988126444764 4.490098180552934 4.492495569657256 4.430753886575109 4.357328247719244 4.201211466007369 4.046470677868574 3.974703497664908 3.9334517677000376 3.975875080525098 3.8049194633030896 3.503855800986744 3.347039686705444 3.2420475917383405 3.074027441519997 3.0875142038835013 3.154779765546992 3.1844761680003346 3.242086974329628 3.303518716840101 3.2110979673040565 3.081676113450361 2.990338398152373 2.9859265291979606 3.05702626753722 3.154243321005042 3.1625620769258083 3.037488029797716 2.9640406904269865 2.9447141085794137 2.937111083070973 2.8889694373085915 2.8786200954269563 2.788489358390541 2.850982793741744 2.941233220460614 2.7966585820151604 2.735798397201961 2.709754765624426 2.6928756259172184 2.7053172540269785 2.7841502598451298 2.6984552517425358 2.5200049971716534 2.339367996419048 2.218703045740646 2.05357589912834 1.9585409660792363 1.9417845970671344 1.878636852531301 1.8080496492811864 1.6842827346841285 1.571173211698663 1.6261002798710456 1.6060061774022234 1.539035267181999 1.6671011515494885 1.8450938285566316 1.908752009324092 1.9526662724603123 1.7765968198623812 1.73272868653617 1.7341470636594003 1.7881086286063066 1.8094312083225497 1.8753867028646607 1.884445748251988 1.6743113606287197 1.5449197494875722 1.459232020829459 1.486907967508128 1.4938878035174965 1.4788387942158496 1.6544046793144522 1.7873006960265263 1.812005122123869 1.504051366060176 1.4034616572888807 1.3508801568962268 1.396375646119348 1.409331877303468 1.38408227270148 1.404658858941061 1.294514459011894 0.4605507971339019 0.3615009418280829 0.3331707881039562 0.6701010832362598 0.8124231201126983 0.7613811581011546 -9999.0 -9999.0 -9999.0 -9999.0 -9999.0 -9999.0 -9999.0 -9999.0 -9999.0
10.01430212973048 10.072659027447644 10.124966699944991 10.10701702396667 10.04647001072864 9.946133373830104 9.79262194889099 9.591758430911629 9.366889876034092 9.161941853423611 9.014705033698096 8.68074284877517 8.629413585078487 8.725347802723412 8.29089845673141 7.752018890475312 7.661653664023744 7.627340059807297 7.609451014832167 7.560278951775553 7.335646505459268 6.977471950332902 6.801129693630522 6.712687025832504 6.626406289942093 6.460457554151825 6.30464822125285 6.230501104489988 6.267539417090806 6.123251605724141 5.95301818898372 5.738234594063764 5.511872820974161 5.432689863553302 5.3056964067558425 5.265026786735065 5.230562996227557 4.778259194211245 4.685855641991647 4.681422476351711 4.759447086508076 4.761597402991249 4.291056304890272 4.182828544123582 4.006081009737654 3.948550613021743 3.964605426520109 4.020872748869488 4.123206919900869 4.196104101360802 4.1281426411846205 4.081997146009272 4.412600266390214 4.5375088097990925 4.4724475392216405 4.394355604066947 4.24322688704473 4.058570791323009 3.787134429740539 3.7276698854514185 3.758742792216034 3.7305626115769943 3.603252473852636 3.4456775482495745 3.38481241730151 3.2215986002631958 3.1876728871860327 3.2792361428494003 3.3957764429117807 3.576271915039269 3.307277910359285 3.2174289053921714 3.172916746454621 3.164987311179299 3.1576722494439275 3.2110664717835555 3.2662228772015234 3.106282055431793 3.1445975401004347 3.2106632367792707 3.1253965578557263 3.1037060970500234 3.15039954177345 3.2445092285637003 3.13131479985634 3.1122939366173163 3.064005401200051 2.9344443115525234 2.900439082553565 2.925242317948012 2.836990275269931 2.826336116944836 2.860229084903797 2.686762497353869 2.5305481197587665 2.3419461492865614 2.22131684705159 2.169414142402996 2.145313244503201 2.103603749416515 1.9702559289643145 1.8861892067841688 1.73456391588013 1.6445725764686416 1.6811151438142158 1.6727390770425874 1.6827491516710038 1.9048113856390296 2.086338987856272 1.9905373458744635 2.145990875677501 2.4266802556244444 1.9631723331297863 2.016606500406047 2.013555215450124 1.9783674831475797 1.984010472201608 2.0601546604462184 1.940756283061032 1.4048943967913352 1.3116497441564856 1.4821353388215357 1.5685339451571183 1.6102771972037306 1.698373225121078 1.6405853768038106 1.2412324130823809 1.2230022339396147 1.3780151482540488 1.3368922624189252 1.3060066257652856 1.3295424832311638 1.3734769726830636 1.4008512163666205 1.3795901035231086 0.7269045410984742 0.5247641983008227 0.3516284270668647 0.3853833300302947 0.7093899528964742 0.8907083050638356 0.74853352440045 -9999.0 -9999.0 -9999.0 -9999.0 -9999.0 -9999.0 -9999.0 -9999.0
10.383778794467222 10.384177466485015 10.297989574303015 10.159331706281977 10.09476107987263 10.042730596436323 9.82770847943266 9.565466954988583 9.175968727552815 9.010906326314752 8.752286826820622 8.459256170878946 8.636643352181398 8.861232652080174 8.50622441911826 7.935470916789459 7.837781231224785 7.765633559528146 7.716580373384815 7.673983750133608 7.551555474917379 7.275558713751348 6.924092930747364 6.793131573540727 6.809970693254779 6.65578933140641 6.445297340532354 6.526307361169953 6.64222709061199 6.311952091814854 6.120896651426067 5.744501517436891 5.603148992614252 5.693042050724037 5.552898144544178 5.426705441346528 5.393925137027885 5.200000883007011 4.750237938247555 4.788466512593471 5.020847313246395 5.04234422268974 4.582651844045618 4.377961306311136 4.274266813858356 4.158672547902633 4.136943360295004 4.192001663237715 4.312380802691349 4.380786633366844 4.3518759294148985 4.345827958287591 4.391108326131707 4.383090627951469 4.327461197357147 4.2840360615891 4.2420007055750215 4.113869824083392 3.962609208512048 3.813404382563244 3.798869893657377 3.8035754778123327 3.6536362878973434 3.5350280104999383 3.505683109142081 3.485658347800448 3.415883826848023 3.495655283830841 3.957872653555071 3.8664016603166775 3.430484048802927 3.3306634134056163 3.367794273523984 3.439112313624765 3.330078545970385 3.364014827805061 3.517440344601063 3.3497175190344874 3.3374705341379203 3.4519676804880235 3.369995850716453 3.254717765364821 3.388475818724225 3.516221827468144 3.3011777132616515 3.210401733684663 3.2678074526329417 3.1308607798344137 3.157817353139305 3.1056884364805706 2.8991307331941165 2.9346602473801298 2.965298218518312 2.6871979611643715 2.557228473057865 2.3356854885275027 2.306422566320407 2.369137418525511 2.3504363130185038 2.276662360997827 2.0915807592280937 1.9677153068529425 1.834737982261862 1.729156370615798 1.7886271890354313 1.854029792366883 1.9446514943920683 2.3339295035923118 2.3519933236521986 2.1173611318510046 2.2060599508839416 5.832859264021776 5.469879119099883 2.3692264656318214 2.2634809293840314 2.2578133776945872 2.1868869309480337 2.135751082674928 2.074971897539063 1.5556334152995044 1.3709451553996788 1.648492171590726 1.7030076513128771 1.687614552789272 1.6281523065590622 1.3733364420447551 1.113951080806071 1.0644049673153584 1.0860037990579567 1.2791777805418052 1.2394507495714673 1.176256801033046 1.2354426346850382 1.3960849532207262 1.4646844415151112 1.4696003294258273 0.6361472417233304 0.4240381514260828 0.3660563171095722 0.3784202233416981 0.8032329443765436 0.7708277199663055 0.6509559287928396 -9999.0 -9999.0 -9999.0 -9999.0 -9999.0 -9999.0 -9999.0
10.627834834522687 10.59981907339486 10.403509622767665 10.07722809027396 10.011382535206865 9.514842239594994 9.003623842247347 8.919000021394481 8.968081392796304 8.910306807711436 8.74437026107547 8.517372203512526 8.568571896194747 8.669692730708176 8.35982412612843 8.167259164334164 7.975146546902129 7.814783584446798 7.744448149440673 7.697476758195065 7.6126740835953886 7.4670521207526575 7.227303954614259 6.9705560244493965 6.945656667804832 6.895339521718324 6.617492951991038 6.606672462203214 6.5671114136736914 6.42283449171447 6.281562849409481 6.061700588629684 5.768841657366936 5.846357034037381 5.8827657739758665 5.642899197139802 5.578317966814244 5.508056940464504 5.388239727851248 5.244760517525299 5.214188527628584 5.204452924727656 5.2218103648504846 5.004739066332961 4.6714483506647415 4.544534111318334 4.550953222175584 4.656862381156893 4.622496620206376 4.576322052190297 4.510780114316551 4.48282321285606 4.476763888881521 4.427120610700035 4.406886722469965 4.380742202514449 4.322551837475123 4.141487551712626 4.07795817699142 4.004263438139295 3.912822606550189 3.876322337456512 3.783825350873741 3.6920471984309775 3.6566774959279855 3.737309633422813 3.7282687859752928 4.207880917738646 4.117383633325526 3.904308679561203 3.774668868770145 3.5892576145737776 3.588565153619969 3.65890459417405 3.598812425758597 3.649586227986416 3.829839470538807 3.556954004703766 3.453499586730243 3.550553985389352 3.5167983281417103 3.3269306380075685 3.455656814311085 3.62217773563566 3.3905372913909098 3.275333135007117 3.416282992849736 3.45751473225985 3.3238607286858075 3.1780595796103444 3.0508884974463686 3.0967177425232437 3.01040115553054 2.6884082749714717 2.5648314622852606 2.486011612889778 2.6153639264359305 2.6225531159181883 2.549360527115605 2.4040388056139106 2.2148360729474046 2.0895814260910157 2.0892063509681127 2.018342897901129 2.0244717408701325 2.1370172796362343 2.425071597121839 3.122298150324119 2.9843079301872377 2.55154578827662 2.6738170348683994 3.4176026743437578 3.514393160991372 2.6122711643017174 2.537187949665541 2.472975458555364 2.3616280806331886 2.22671261276846 2.102342281911696 2.0446924960446498 1.9942450681764052 1.8691928266985884 1.7890146905250115 1.6639803050077642 1.4947512215107437 1.2945689700150156 1.1599930522377706 1.0863541252717137 0.9569925969543704 1.0840789079086266 1.1932003741637471 1.11046842669114 1.106838481276452 1.218603364167494 1.4959418797862585 1.5855955981372376 0.863594926189716 0.4939535608473446 0.4921782854022137 0.4498249379024405 0.4753754545223185 0.6392643938449538 0.7120611252947316 0.3619416285954078 -9999.0 -9999.0 -9999.0 -9999.0 -9999.0 -9999.0
10.780429043550557 10.61149364146878 10.111587165040698 9.63714666636558 9.520442619669009 9.32829038236149 9.057598916960336 9.013559825300334 9.022016085303926 8.925036043356698 8.742984272706748 8.511122230987786 8.501193833292826 8.551039461967015 8.356887929521456 8.222848254758382 8.052471487762892 7.947993270744158 7.864999950595845 7.786375762006864 7.645117719285761 7.519626130770916 7.443046467780984 7.247912711545817 7.169124236023644 6.962891168633759 6.661983176334568 6.587103126854996 6.387880049639298 6.262415049535094 6.194492128384555 6.189848247308904 5.891482989314083 5.839977112379577 5.92227825902676 5.618097505274327 5.531502445135587 5.487343278737913 5.500391168987012 5.5023905342457455 5.411938449099138 5.372362543559939 5.451573067164258 5.306436991200615 4.716428057799599 4.566206389372097 4.606614735193279 4.7113863487204535 4.661625070953887 4.613779543745331 4.567172820189636 4.554542169111856 4.583209152179983 4.554494169505363 4.537345562346485 4.4181257798319935 4.2979127087430085 4.095932604085509 4.108494724417572 4.277794448083398 4.1236451237900695 3.882373316720616 3.8651005857828897 3.874728345542601 3.858532728608608 3.9211431331939233 4.290979014628285 4.794262069592135 4.084130487944821 3.944517637319432 3.921981738303847 3.854880223242788 3.8581309500725336 4.0147930088442205 4.103932245269178 4.081222754483219 4.058319450825463 3.841047863263389 3.7039459358360793 3.829951251932639 3.791014526047436 3.5391718241936605 3.5921226507761634 3.701768967813502 3.591003623284976 3.3923136573178847 3.400893829334647 3.4824905667037958 3.5013284949072325 3.335038088485348 3.2458307270039928 3.188662118499529 3.106337227062414 2.8900868129069552 2.717368139969331 2.68001120615856 2.908188220985192 2.9218577974751847 2.8657944338853074 2.757523704780594 2.5708675931806213 2.422797694814651 2.444725251077376 2.508897062498588 2.5882784558904515 2.7494002141245315 3.2963250895435494 3.4693980546441656 3.291275915522232 3.0051010756137018 2.9092107105200533 2.859407918349754 2.966951477441568 3.0408414367731464 2.657818319620583 2.5768095342415123 2.4773360222369982 2.2725113219842425 2.1338417064228192 2.176904750271806 2.354861913314335 2.2257075801777697 1.8302148630710868 1.5594875279400715 1.506665191478035 1.4488271249433278 1.3417865109593428 1.3181622184835264 0.9760140944465924 0.9034232018574192 1.004828806924988 1.0746820626147908 1.0657120107597784 1.131917016140627 1.1988483920625153 1.458421804113673 1.469670348784599 0.7417989882601987 0.6390616505134895 0.4045735349571075 0.2487971702225947 0.4556916199876232 0.620478204927038 0.4065362335674912 -9999.0 -9999.0 -9999.0 -9999.0 -9999.0 -9999.0
