ncols 150
nrows 121
xllcorner 288400
yllcorner 4893820
cellsize 50
NODATA_value -9999.0
0.4329368054933025 0.3203664559032107 0.2458293822984974 0.21516526386439191 0.2667666783059732 0.3709120400120132 0.1557495733183716 -9999.0 -9999.0 -9999.0 -9999.0 -9999.0 -9999.0 -9999.0 -9999.0 -9999.0 -9999.0 -9999.0 -9999.0 -9999.0 -9999.0 -9999.0 -9999.0 -9999.0 -9999.0 -9999.0 -9999.0 -9999.0 -9999.0 -9999.0 -9999.0 -9999.0 -9999.0 -9999.0 1.354150680990464 1.9952022259573665 2.0247305266383755 2.0464748248958338 2.2470829182403196 2.411146017026817 2.260409423398699 2.1632241568039134 2.181157412215388 2.0093927825959628 1.64702808605387 1.69254868645098 1.7928345300028612 1.6197774379480974 0.8196870377611127 1.0191235362357192 1.0889432007983009 0.8324931168744745 0.540450540322987 0.4831815773733918 0.7521781629856381 1.1074490132711872 0.2183153559044074 -9999.0 -9999.0 -9999.0 -9999.0 -9999.0 -9999.0 -9999.0 -9999.0 -9999.0 -9999.0 -9999.0 -9999.0 -9999.0 -9999.0 -9999.0 -9999.0 -9999.0 -9999.0 -9999.0 -9999.0 -9999.0 -9999.0 -9999.0 -9999.0 -9999.0 -9999.0 -9999.0 -9999.0 -9999.0 -9999.0 -9999.0 -9999.0 -9999.0 -9999.0 -9999.0 -9999.0 -9999.0 -9999.0 -9999.0 -9999.0 -9999.0 -9999.0 -9999.0 -9999.0 -9999.0 -9999.0 -9999.0 -9999.0 -9999.0 -9999.0 -9999.0 -9999.0 -9999.0 -9999.0 -9999.0 -9999.0 -9999.0 -9999.0 -9999.0 -9999.0 -9999.0 -9999.0 -9999.0 -9999.0 -9999.0 -9999.0 -9999.0 -9999.0 -9999.0 -9999.0 -9999.0 -9999.0 -9999.0 -9999.0 -9999.0 -9999.0 -9999.0 -9999.0 -9999.0 -9999.0 -9999.0 -9999.0 -9999.0 -9999.0 -9999.0 -9999.0 -9999.0 -9999.0 -9999.0 -9999.0 -9999.0 -9999.0 -9999.0
0.4407883015916917 0.3562633456679551 0.2780562481906305 0.2434816382856283 0.2608655197549331 0.31747243930137503 0.21877437707615321 -9999.0 -9999.0 -9999.0 -9999.0 -9999.0 -9999.0 -9999.0 -9999.0 -9999.0 -9999.0 -9999.0 -9999.0 -9999.0 -9999.0 -9999.0 -9999.0 -9999.0 -9999.0 -9999.0 -9999.0 -9999.0 -9999.0 -9999.0 -9999.0 -9999.0 -9999.0 -9999.0 0.7874188486865492 2.005673950806771 2.1235132884979246 2.0731920857305655 2.2697037226726406 2.3258278739440343 2.2378816074639967 2.168080561394256 2.1832204717463966 1.9910616314961584 1.829175568622783 1.8203816564069595 1.863060831134305 1.7998398516951724 1.0056335260533924 0.9942344612039415 1.0194012127911556 0.8066295733612059 0.4473250956991754 0.4485185462454493 0.5845133804488816 0.967476344689562 0.9764602330685768 -9999.0 -9999.0 -9999.0 -9999.0 -9999.0 -9999.0 -9999.0 -9999.0 -9999.0 -9999.0 -9999.0 -9999.0 -9999.0 -9999.0 -9999.0 -9999.0 -9999.0 -9999.0 -9999.0 -9999.0 -9999.0 -9999.0 -9999.0 -9999.0 -9999.0 -9999.0 -9999.0 -9999.0 -9999.0 -9999.0 -9999.0 -9999.0 -9999.0 -9999.0 -9999.0 -9999.0 -9999.0 -9999.0 -9999.0 -9999.0 -9999.0 -9999.0 -9999.0 -9999.0 -9999.0 -9999.0 -9999.0 -9999.0 -9999.0 -9999.0 -9999.0 -9999.0 -9999.0 -9999.0 -9999.0 -9999.0 -9999.0 -9999.0 -9999.0 -9999.0 -9999.0 -9999.0 -9999.0 -9999.0 -9999.0 -9999.0 -9999.0 -9999.0 -9999.0 -9999.0 -9999.0 -9999.0 -9999.0 -9999.0 -9999.0 -9999.0 -9999.0 -9999.0 -9999.0 -9999.0 -9999.0 -9999.0 -9999.0 -9999.0 -9999.0 -9999.0 -9999.0 -9999.0 -9999.0 -9999.0 -9999.0 -9999.0 -9999.0
0.4559303580734483 0.4484940547956094 0.3971622340845858 0.2992030184940411 0.2526631619028034 0.23611266615756502 0.17212981791119403 0.0888560656090432 -9999.0 -9999.0 -9999.0 -9999.0 -9999.0 -9999.0 -9999.0 -9999.0 -9999.0 -9999.0 -9999.0 -9999.0 -9999.0 -9999.0 -9999.0 -9999.0 -9999.0 -9999.0 -9999.0 -9999.0 -9999.0 -9999.0 -9999.0 -9999.0 -9999.0 -9999.0 -9999.0 1.4686264607932984 2.012979205943013 2.082594003033285 2.308457713153457 2.3361584012498335 2.319627111031109 2.3222162263848953 2.1059850670481564 1.9698232429628562 1.9344932562425985 1.8495189148015483 1.7280043523963469 1.7486862524667264 1.1846253894529235 0.9943174969934272 0.9896824243357139 0.8593591755552552 0.4255880363691064 0.35621017384354453 0.4307090296167164 0.8408704904231759 0.9663352886818681 0.4083147152005059 -9999.0 -9999.0 -9999.0 -9999.0 -9999.0 -9999.0 -9999.0 -9999.0 -9999.0 -9999.0 -9999.0 -9999.0 -9999.0 -9999.0 -9999.0 -9999.0 -9999.0 -9999.0 -9999.0 -9999.0 -9999.0 -9999.0 -9999.0 -9999.0 -9999.0 -9999.0 -9999.0 -9999.0 -9999.0 -9999.0 -9999.0 -9999.0 -9999.0 -9999.0 -9999.0 -9999.0 -9999.0 -9999.0 -9999.0 -9999.0 -9999.0 -9999.0 -9999.0 -9999.0 -9999.0 -9999.0 -9999.0 -9999.0 -9999.0 -9999.0 -9999.0 -9999.0 -9999.0 -9999.0 -9999.0 -9999.0 -9999.0 -9999.0 -9999.0 -9999.0 -9999.0 -9999.0 -9999.0 -9999.0 -9999.0 -9999.0 -9999.0 -9999.0 -9999.0 -9999.0 -9999.0 -9999.0 -9999.0 -9999.0 -9999.0 -9999.0 -9999.0 -9999.0 -9999.0 -9999.0 -9999.0 -9999.0 -9999.0 -9999.0 -9999.0 -9999.0 -9999.0 -9999.0 -9999.0 -9999.0 -9999.0 -9999.0
0.4955061763679734 0.5489959739396368 0.4807811114519702 0.3660782710538787 0.2605564140369438 0.2065393526974846 0.154151347694736 0.0877890725071892 -9999.0 -9999.0 -9999.0 -9999.0 -9999.0 0.11599232810587451 0.3149544041473632 0.28339282748671424 -9999.0 -9999.0 -9999.0 -9999.0 -9999.0 -9999.0 -9999.0 -9999.0 -9999.0 -9999.0 -9999.0 -9999.0 -9999.0 -9999.0 -9999.0 -9999.0 -9999.0 -9999.0 -9999.0 -9999.0 1.4502509844625817 1.853645237549021 2.293530536267125 2.433395676140931 2.4742643044578756 2.501210734003187 2.0406229056442133 1.966916202672527 1.9670858984779869 1.6055791015778176 1.359792145248393 1.5540835807866553 1.5823581400245788 1.0244603113255752 1.0562716188759966 1.0082713512924584 0.4336739110169203 0.29454253961521204 0.7327153072682195 0.7348881342727465 0.7838067046624964 0.7828441749056858 -9999.0 -9999.0 -9999.0 -9999.0 -9999.0 -9999.0 -9999.0 -9999.0 -9999.0 -9999.0 -9999.0 -9999.0 -9999.0 -9999.0 -9999.0 -9999.0 -9999.0 -9999.0 -9999.0 -9999.0 -9999.0 -9999.0 -9999.0 -9999.0 -9999.0 -9999.0 -9999.0 -9999.0 -9999.0 -9999.0 -9999.0 -9999.0 -9999.0 -9999.0 -9999.0 -9999.0 -9999.0 -9999.0 -9999.0 -9999.0 -9999.0 -9999.0 -9999.0 -9999.0 -9999.0 -9999.0 -9999.0 -9999.0 -9999.0 -9999.0 -9999.0 -9999.0 -9999.0 -9999.0 -9999.0 -9999.0 -9999.0 -9999.0 -9999.0 -9999.0 -9999.0 -9999.0 -9999.0 -9999.0 -9999.0 -9999.0 -9999.0 -9999.0 -9999.0 -9999.0 -9999.0 -9999.0 -9999.0 -9999.0 -9999.0 -9999.0 -9999.0 -9999.0 -9999.0 -9999.0 -9999.0 -9999.0 -9999.0 -9999.0 -9999.0 -9999.0 -9999.0 -9999.0 -9999.0 -9999.0 -9999.0 -9999.0
0.6109590812646024 0.5918919986887252 0.480849796974163 0.3563350327309549 0.2696801746276472 0.2092922513403861 0.16847256960480822 0.1183180886755823 -9999.0 -9999.0 -9999.0 -9999.0 -9999.0 0.2435023639933182 0.5042355056690742 0.5111300226570885 0.17432699337685809 -9999.0 -9999.0 -9999.0 -9999.0 -9999.0 -9999.0 -9999.0 -9999.0 -9999.0 -9999.0 -9999.0 -9999.0 -9999.0 -9999.0 -9999.0 -9999.0 -9999.0 -9999.0 -9999.0 -9999.0 1.1948977144975688 1.9632450657276665 2.384899592828476 2.288432207748528 2.124114220228072 1.9536105249601028 1.9494228863192316 2.0024488167143946 1.5651039738938402 1.4686907316164342 1.6813180985441285 1.7838295420251191 1.5147394109159948 1.2059966221747092 1.0021954012262342 0.511074296126245 0.6394366377996452 0.6501354053742132 0.707829875159786 0.7586456051128718 0.8207666016271613 0.10931398125585631 -9999.0 -9999.0 -9999.0 -9999.0 -9999.0 -9999.0 -9999.0 -9999.0 -9999.0 -9999.0 -9999.0 -9999.0 -9999.0 -9999.0 -9999.0 -9999.0 -9999.0 -9999.0 -9999.0 -9999.0 -9999.0 -9999.0 -9999.0 -9999.0 -9999.0 -9999.0 -9999.0 -9999.0 -9999.0 -9999.0 -9999.0 -9999.0 -9999.0 -9999.0 -9999.0 -9999.0 -9999.0 -9999.0 -9999.0 -9999.0 -9999.0 -9999.0 -9999.0 -9999.0 -9999.0 -9999.0 -9999.0 -9999.0 -9999.0 -9999.0 -9999.0 -9999.0 -9999.0 -9999.0 -9999.0 -9999.0 -9999.0 -9999.0 -9999.0 -9999.0 -9999.0 -9999.0 -9999.0 -9999.0 -9999.0 -9999.0 -9999.0 -9999.0 -9999.0 -9999.0 -9999.0 -9999.0 -9999.0 -9999.0 -9999.0 -9999.0 -9999.0 -9999.0 -9999.0 -9999.0 -9999.0 -9999.0 -9999.0 -9999.0 -9999.0 -9999.0 -9999.0 -9999.0 -9999.0 -9999.0 -9999.0
0.63470587142058 0.536932148431981 0.390005439881842 0.31971801091404817 0.2745548137952549 0.23841957764121352 0.2126400733971702 0.1950846367735439 0.1516851775245177 0.0875773321844856 -9999.0 -9999.0 -9999.0 0.12071287694635072 0.34895254692042743 0.3526438091266005 0.1618719667380043 -9999.0 -9999.0 -9999.0 -9999.0 -9999.0 -9999.0 -9999.0 -9999.0 -9999.0 -9999.0 -9999.0 -9999.0 -9999.0 -9999.0 -9999.0 -9999.0 -9999.0 -9999.0 -9999.0 -9999.0 0.6747957757601322 1.5801863000215222 1.4606235104164231 1.6394080354854632 1.9201439422063904 1.9283879424534724 1.7796972789802832 1.7796424288973793 1.6267291635293086 1.597473047236042 1.6909559279673678 1.8195277038595001 1.9729873549023889 1.1094788936672377 0.527806399672025 1.0035878873291137 0.6271582243160427 0.5994923174651303 0.6704417181021924 0.7975873588188471 0.9065716404735795 0.7567862131915466 -9999.0 -9999.0 -9999.0 -9999.0 -9999.0 -9999.0 -9999.0 -9999.0 -9999.0 -9999.0 -9999.0 -9999.0 -9999.0 -9999.0 -9999.0 -9999.0 -9999.0 -9999.0 -9999.0 -9999.0 -9999.0 -9999.0 -9999.0 -9999.0 -9999.0 -9999.0 -9999.0 -9999.0 -9999.0 -9999.0 -9999.0 -9999.0 -9999.0 -9999.0 -9999.0 -9999.0 -9999.0 -9999.0 -9999.0 -9999.0 -9999.0 -9999.0 -9999.0 -9999.0 -9999.0 -9999.0 -9999.0 -9999.0 -9999.0 -9999.0 -9999.0 -9999.0 -9999.0 -9999.0 -9999.0 -9999.0 -9999.0 -9999.0 -9999.0 -9999.0 -9999.0 -9999.0 -9999.0 -9999.0 -9999.0 -9999.0 -9999.0 -9999.0 -9999.0 -9999.0 -9999.0 -9999.0 -9999.0 -9999.0 -9999.0 -9999.0 -9999.0 -9999.0 -9999.0 -9999.0 -9999.0 -9999.0 -9999.0 -9999.0 -9999.0 -9999.0 -9999.0 -9999.0 -9999.0 -9999.0 -9999.0
0.7160243078366255 0.5159819019196642 0.3763066710194281 0.3344866173459506 0.307354931332247 0.2913008006015127 0.31059306705449574 0.3431060888194138 0.3314208749847397 0.2738140496079988 0.1973152835971152 0.1135064719864664 -9999.0 -9999.0 -9999.0 0.1265800331028472 0.0810443827123114 -9999.0 -9999.0 -9999.0 -9999.0 -9999.0 -9999.0 -9999.0 -9999.0 -9999.0 -9999.0 -9999.0 -9999.0 -9999.0 -9999.0 -9999.0 -9999.0 -9999.0 -9999.0 -9999.0 -9999.0 0.4124645131308966 1.085139814067406 1.4737952618359889 1.5193937002790248 1.8176430576836513 2.011690768647004 1.907742408010521 1.7749842449057303 1.737103250376504 1.6926171392098321 1.7648466439504438 1.9778960689575753 2.031853346747676 1.1025573216393014 1.2929575250826917 1.1761081810176905 0.6450838187664272 0.4670460547000483 0.5749124861881694 0.7717770333601237 0.9268736668991764 1.2073722138178362 -9999.0 -9999.0 -9999.0 -9999.0 -9999.0 -9999.0 -9999.0 -9999.0 -9999.0 -9999.0 -9999.0 -9999.0 -9999.0 -9999.0 -9999.0 -9999.0 -9999.0 -9999.0 -9999.0 -9999.0 -9999.0 -9999.0 -9999.0 -9999.0 -9999.0 -9999.0 -9999.0 -9999.0 -9999.0 -9999.0 -9999.0 -9999.0 -9999.0 -9999.0 -9999.0 -9999.0 -9999.0 -9999.0 -9999.0 -9999.0 -9999.0 -9999.0 -9999.0 -9999.0 -9999.0 -9999.0 -9999.0 -9999.0 -9999.0 -9999.0 -9999.0 -9999.0 -9999.0 -9999.0 -9999.0 -9999.0 -9999.0 -9999.0 -9999.0 -9999.0 -9999.0 -9999.0 -9999.0 -9999.0 -9999.0 -9999.0 -9999.0 -9999.0 -9999.0 -9999.0 -9999.0 -9999.0 -9999.0 -9999.0 -9999.0 -9999.0 -9999.0 -9999.0 -9999.0 -9999.0 -9999.0 -9999.0 -9999.0 -9999.0 -9999.0 -9999.0 -9999.0 -9999.0 -9999.0 -9999.0 -9999.0
0.7920940880238645 0.6800295419430546 0.5188265526410212 0.4690500212828125 0.4386427550799551 0.4344789343052058 0.4997245495876735 0.5429622748981324 0.456233707106844 0.35935247179669133 0.268445314291085 0.1794683356000395 0.08144774483295181 -9999.0 -9999.0 -9999.0 0.08192286303733391 -9999.0 -9999.0 -9999.0 -9999.0 -9999.0 -9999.0 -9999.0 -9999.0 -9999.0 -9999.0 -9999.0 -9999.0 -9999.0 -9999.0 -9999.0 -9999.0 -9999.0 -9999.0 -9999.0 -9999.0 -9999.0 0.9977085058360324 1.6725170940229865 1.472488515171689 1.525868469741341 2.0768784228341626 2.2675326220166356 1.871410774493339 1.7572788502404808 1.80525023111642 1.9345837601591933 1.9399596120883518 1.764997531358827 1.409997035063941 1.2315280602539371 1.1422394013381123 0.7814552591954427 0.5526546391167215 0.6064834258417913 0.6853874732028895 0.7247791078852734 1.1195433946319862 0.7217623780277527 -9999.0 -9999.0 -9999.0 -9999.0 -9999.0 -9999.0 -9999.0 -9999.0 -9999.0 -9999.0 -9999.0 -9999.0 -9999.0 -9999.0 -9999.0 -9999.0 -9999.0 -9999.0 -9999.0 -9999.0 -9999.0 -9999.0 -9999.0 -9999.0 -9999.0 -9999.0 -9999.0 -9999.0 -9999.0 -9999.0 -9999.0 -9999.0 -9999.0 -9999.0 -9999.0 -9999.0 -9999.0 -9999.0 -9999.0 -9999.0 -9999.0 -9999.0 -9999.0 -9999.0 -9999.0 -9999.0 -9999.0 -9999.0 -9999.0 -9999.0 -9999.0 -9999.0 -9999.0 -9999.0 -9999.0 -9999.0 -9999.0 -9999.0 -9999.0 -9999.0 -9999.0 -9999.0 -9999.0 -9999.0 -9999.0 -9999.0 -9999.0 -9999.0 -9999.0 -9999.0 -9999.0 -9999.0 -9999.0 -9999.0 -9999.0 -9999.0 -9999.0 -9999.0 -9999.0 -9999.0 -9999.0 -9999.0 -9999.0 -9999.0 -9999.0 -9999.0 -9999.0 -9999.0 -9999.0 -9999.0
0.8586633680006095 0.88649292675871 0.7339748259678223 0.6675084350502181 0.6631726418130954 0.7046029029102869 0.7143334458062587 0.6173880687189197 0.4305759542078365 0.3167133015371597 0.2604438637197049 0.2205179843813033 0.1544795900061633 0.1062606805079741 0.10008675238944861 0.12280748607455551 0.195728329352915 0.1871242415465697 -9999.0 -9999.0 -9999.0 -9999.0 -9999.0 -9999.0 -9999.0 -9999.0 -9999.0 -9999.0 -9999.0 -9999.0 -9999.0 -9999.0 -9999.0 -9999.0 -9999.0 -9999.0 -9999.0 -9999.0 0.2895243478544369 1.4289207030605426 1.7285882875856597 1.833603917188689 2.0481167864374497 2.266148030082774 2.1102894051733294 1.7399999570846556 1.842800487126164 1.9447316235824805 1.6310669975076186 1.719451601636769 1.6939798323461646 1.1172689522106651 1.0846575438476307 1.0002488577170512 0.7167262846801707 0.6738170524199352 0.6837436323612995 0.6138129961799959 0.8795772399404909 1.0290997243012967 -9999.0 -9999.0 -9999.0 -9999.0 -9999.0 -9999.0 -9999.0 -9999.0 -9999.0 -9999.0 -9999.0 -9999.0 -9999.0 -9999.0 -9999.0 -9999.0 -9999.0 -9999.0 -9999.0 -9999.0 -9999.0 -9999.0 -9999.0 -9999.0 -9999.0 -9999.0 -9999.0 -9999.0 -9999.0 -9999.0 -9999.0 -9999.0 -9999.0 -9999.0 -9999.0 -9999.0 -9999.0 -9999.0 -9999.0 -9999.0 -9999.0 -9999.0 -9999.0 -9999.0 -9999.0 -9999.0 -9999.0 -9999.0 -9999.0 -9999.0 -9999.0 -9999.0 -9999.0 -9999.0 -9999.0 -9999.0 -9999.0 -9999.0 -9999.0 -9999.0 -9999.0 -9999.0 -9999.0 -9999.0 -9999.0 -9999.0 -9999.0 -9999.0 -9999.0 -9999.0 -9999.0 -9999.0 -9999.0 -9999.0 -9999.0 -9999.0 -9999.0 -9999.0 -9999.0 -9999.0 -9999.0 -9999.0 -9999.0 -9999.0 -9999.0 -9999.0 -9999.0 -9999.0 -9999.0 -9999.0
0.8324904719908843 0.8736375559724892 0.8263428622146178 0.8040406518751511 0.9061177325548537 0.9149431634622951 0.8021161940856993 0.5149421627616564 0.31352709923790567 0.2577050472869963 0.24764163964484182 0.2457740632319689 0.22718130538142312 0.21340582651296472 0.21660502696982992 0.23677760998677472 0.2697467752803204 0.2621129373008741 0.1495034883961224 -9999.0 -9999.0 -9999.0 -9999.0 -9999.0 -9999.0 -9999.0 -9999.0 -9999.0 -9999.0 -9999.0 -9999.0 -9999.0 -9999.0 -9999.0 -9999.0 -9999.0 -9999.0 -9999.0 0.1603430264512153 0.4205811868349525 1.7029985856660124 1.9859377507865832 1.9882263139017191 2.1574121982366785 2.550109468991356 2.05960809168884 1.7599025106702193 1.5101857345485288 1.5698195896771188 1.6382116270964098 1.659127032088519 1.0942474428963416 1.0241972285551155 0.9776245339268765 0.8349517954211316 0.7271094279573678 0.7371577072301574 0.709527792537606 0.7044238231521431 0.9472054843130064 0.3872322392667971 -9999.0 -9999.0 -9999.0 -9999.0 -9999.0 -9999.0 -9999.0 -9999.0 -9999.0 -9999.0 -9999.0 -9999.0 -9999.0 -9999.0 -9999.0 -9999.0 -9999.0 -9999.0 -9999.0 -9999.0 -9999.0 -9999.0 -9999.0 -9999.0 -9999.0 -9999.0 -9999.0 -9999.0 -9999.0 -9999.0 -9999.0 -9999.0 -9999.0 -9999.0 -9999.0 -9999.0 -9999.0 -9999.0 -9999.0 -9999.0 -9999.0 -9999.0 -9999.0 -9999.0 -9999.0 -9999.0 -9999.0 -9999.0 -9999.0 -9999.0 -9999.0 -9999.0 -9999.0 -9999.0 -9999.0 -9999.0 -9999.0 -9999.0 -9999.0 -9999.0 -9999.0 -9999.0 -9999.0 -9999.0 -9999.0 -9999.0 -9999.0 -9999.0 -9999.0 -9999.0 -9999.0 -9999.0 -9999.0 -9999.0 -9999.0 -9999.0 -9999.0 -9999.0 -9999.0 -9999.0 -9999.0 -9999.0 -9999.0 -9999.0 -9999.0 -9999.0 -9999.0 -9999.0 -9999.0
0.7552240890339581 0.8133993941051396 0.846118020492703 0.9956380704747931 1.09196118877849 0.9998616206189379 0.7316343202590896 0.4270647333360972 0.2654582904366709 0.23980223802486292 0.2471459321181329 0.2594707614533513 0.26822929147564867 0.2703609862942644 0.2687332032963441 0.27025533533259927 0.28033563941558914 0.2755562446000458 0.1916346066352624 0.0923006465993352 -9999.0 -9999.0 -9999.0 -9999.0 -9999.0 -9999.0 -9999.0 -9999.0 -9999.0 -9999.0 -9999.0 -9999.0 -9999.0 -9999.0 -9999.0 -9999.0 -9999.0 -9999.0 0.2448513206437457 0.2352048885213455 0.882544212527431 1.716504241125852 1.932468614432496 2.191609142170815 2.5910155814335387 1.905772409058666 1.5273733230699407 1.5591011840581708 1.6551510890846322 1.6382989095331872 1.6296060653383186 1.5693376234960192 0.9616313502691636 0.8297465801131076 0.846761294718883 0.8092987108651428 0.8036129829554226 0.7877183096715292 0.6679688445686842 0.7239221198647559 0.7947132369107455 -9999.0 -9999.0 -9999.0 -9999.0 -9999.0 -9999.0 -9999.0 -9999.0 -9999.0 -9999.0 -9999.0 -9999.0 -9999.0 -9999.0 -9999.0 -9999.0 -9999.0 -9999.0 -9999.0 -9999.0 -9999.0 -9999.0 -9999.0 -9999.0 -9999.0 -9999.0 -9999.0 -9999.0 -9999.0 -9999.0 -9999.0 -9999.0 -9999.0 -9999.0 -9999.0 -9999.0 -9999.0 -9999.0 -9999.0 -9999.0 -9999.0 -9999.0 -9999.0 -9999.0 -9999.0 -9999.0 -9999.0 -9999.0 -9999.0 -9999.0 -9999.0 -9999.0 -9999.0 -9999.0 -9999.0 -9999.0 -9999.0 -9999.0 -9999.0 -9999.0 -9999.0 -9999.0 -9999.0 -9999.0 -9999.0 -9999.0 -9999.0 -9999.0 -9999.0 -9999.0 -9999.0 -9999.0 -9999.0 -9999.0 -9999.0 -9999.0 -9999.0 -9999.0 -9999.0 -9999.0 -9999.0 -9999.0 -9999.0 -9999.0 -9999.0 -9999.0 -9999.0 -9999.0 -9999.0
0.7486497345111587 0.7621397114457946 0.926462656614834 1.1845005203590477 1.1969086868099124 0.9665242965750549 0.5827748768386383 0.3564464718336355 0.2604195835361947 0.2467628472644433 0.26409268485957627 0.2733182185156821 0.2833133948831185 0.29190519366327083 0.28367070322098453 0.27099901943454374 0.2613168085671582 0.2340059744748193 0.1599647108682033 -9999.0 -9999.0 -9999.0 -9999.0 -9999.0 -9999.0 -9999.0 -9999.0 -9999.0 -9999.0 -9999.0 -9999.0 -9999.0 -9999.0 -9999.0 -9999.0 -9999.0 -9999.0 -9999.0 0.1806967441063828 -9999.0 -9999.0 1.3903497769139455 1.8458526158968716 2.1699240407689797 1.7457364136879485 1.4315272111977615 1.555361772121987 1.784380023739407 1.7415927328901932 1.635655149021043 1.5577620759475592 1.527570691940127 1.4613465614620693 0.7153070040731624 0.8047535010784865 0.8342071689743056 0.784423568261345 0.756424478914232 0.6959990874244113 0.7205805305169048 0.8499810901196869 0.2065708336458078 -9999.0 -9999.0 -9999.0 -9999.0 -9999.0 -9999.0 -9999.0 -9999.0 -9999.0 -9999.0 -9999.0 -9999.0 -9999.0 -9999.0 -9999.0 -9999.0 -9999.0 -9999.0 -9999.0 -9999.0 -9999.0 -9999.0 -9999.0 -9999.0 -9999.0 -9999.0 -9999.0 -9999.0 -9999.0 -9999.0 -9999.0 -9999.0 -9999.0 -9999.0 -9999.0 -9999.0 -9999.0 -9999.0 -9999.0 -9999.0 -9999.0 -9999.0 -9999.0 -9999.0 -9999.0 -9999.0 -9999.0 -9999.0 -9999.0 -9999.0 -9999.0 -9999.0 -9999.0 -9999.0 -9999.0 -9999.0 -9999.0 -9999.0 -9999.0 -9999.0 -9999.0 -9999.0 -9999.0 -9999.0 -9999.0 -9999.0 -9999.0 -9999.0 -9999.0 -9999.0 -9999.0 -9999.0 -9999.0 -9999.0 -9999.0 -9999.0 -9999.0 -9999.0 -9999.0 -9999.0 -9999.0 -9999.0 -9999.0 -9999.0 -9999.0 -9999.0 -9999.0 -9999.0
0.8857171453903967 0.8725604706740062 1.02686389530519 1.2166800218603357 1.2092768828229816 0.9057832292965433 0.5591758886783361 0.38182547407778533 0.2962105920370392 0.27560207023614613 0.27202619282068874 0.2748177856272584 0.2931644525344693 0.3082730508973911 0.29992359294883963 0.2620912081734543 0.22733965188847652 0.1792253966485471 0.081303010708172 -9999.0 -9999.0 -9999.0 -9999.0 -9999.0 -9999.0 -9999.0 -9999.0 -9999.0 -9999.0 -9999.0 -9999.0 -9999.0 -9999.0 -9999.0 -9999.0 -9999.0 -9999.0 -9999.0 -9999.0 -9999.0 -9999.0 -9999.0 1.545847535371786 1.601425142708762 1.4026597510974261 1.4785455501326588 1.994388797000255 1.8153456401892945 1.6682099148712497 1.5786415083509753 1.5335586405463957 1.5235089548059981 1.5281852676837098 1.0156979345832977 0.8002917217531595 0.922967270430648 0.8138626071991524 0.745065144629004 0.7051493208946651 0.7497917049948934 0.865017778117865 0.8164658702515062 -9999.0 -9999.0 -9999.0 -9999.0 -9999.0 -9999.0 -9999.0 -9999.0 -9999.0 -9999.0 -9999.0 -9999.0 -9999.0 -9999.0 -9999.0 -9999.0 -9999.0 -9999.0 -9999.0 -9999.0 -9999.0 -9999.0 -9999.0 -9999.0 -9999.0 -9999.0 -9999.0 -9999.0 -9999.0 -9999.0 -9999.0 -9999.0 -9999.0 -9999.0 -9999.0 -9999.0 -9999.0 -9999.0 -9999.0 -9999.0 -9999.0 -9999.0 -9999.0 -9999.0 -9999.0 -9999.0 -9999.0 -9999.0 -9999.0 -9999.0 -9999.0 -9999.0 -9999.0 -9999.0 -9999.0 -9999.0 -9999.0 -9999.0 -9999.0 -9999.0 -9999.0 -9999.0 -9999.0 -9999.0 -9999.0 -9999.0 -9999.0 -9999.0 -9999.0 -9999.0 -9999.0 -9999.0 -9999.0 -9999.0 -9999.0 -9999.0 -9999.0 -9999.0 -9999.0 -9999.0 -9999.0 -9999.0 -9999.0 -9999.0 -9999.0 -9999.0 -9999.0 -9999.0
1.0433862086012997 1.0404263505012832 1.0834621444402706 1.153377100191477 1.1193964536295382 0.8983631046567377 0.7254499681939433 0.5288115782282072 0.4073682704057735 0.3478787117493069 0.3081422185743826 0.29291929046296317 0.3228298155805938 0.343982239713653 0.32450980495264453 0.2641546497666623 0.2009753237379058 0.1264735921801694 -9999.0 -9999.0 -9999.0 -9999.0 -9999.0 -9999.0 -9999.0 -9999.0 -9999.0 -9999.0 -9999.0 -9999.0 -9999.0 -9999.0 -9999.0 -9999.0 -9999.0 -9999.0 -9999.0 -9999.0 -9999.0 -9999.0 -9999.0 -9999.0 1.0510231959004235 1.391148507865341 1.5284453628253896 2.134510149510572 2.105778616441088 1.8468681449455393 1.6564622960537012 1.5969900910272619 1.5899757370544478 1.6040797152333108 1.661320739790348 1.531613547833989 0.8486839321222437 0.9796693759258492 0.96668049244235 0.6880633501692697 0.6399963238189161 0.701597303930235 0.8664300711231483 0.8867473165534885 -9999.0 -9999.0 -9999.0 -9999.0 -9999.0 -9999.0 -9999.0 -9999.0 -9999.0 -9999.0 -9999.0 -9999.0 -9999.0 -9999.0 -9999.0 -9999.0 -9999.0 -9999.0 -9999.0 -9999.0 -9999.0 -9999.0 -9999.0 -9999.0 -9999.0 -9999.0 -9999.0 -9999.0 -9999.0 -9999.0 -9999.0 -9999.0 -9999.0 -9999.0 -9999.0 -9999.0 -9999.0 -9999.0 -9999.0 -9999.0 -9999.0 -9999.0 -9999.0 -9999.0 -9999.0 -9999.0 -9999.0 -9999.0 -9999.0 -9999.0 -9999.0 -9999.0 -9999.0 -9999.0 -9999.0 -9999.0 -9999.0 -9999.0 -9999.0 -9999.0 -9999.0 -9999.0 -9999.0 -9999.0 -9999.0 -9999.0 -9999.0 -9999.0 -9999.0 -9999.0 -9999.0 -9999.0 -9999.0 -9999.0 -9999.0 -9999.0 -9999.0 -9999.0 -9999.0 -9999.0 -9999.0 -9999.0 -9999.0 -9999.0 -9999.0 -9999.0 -9999.0 -9999.0
1.0557953678798409 1.0694255478496577 1.071633461462475 1.0925474792359 1.0319317554419247 0.8737967767672505 0.7708000797784922 0.6713579554447953 0.5413557076775852 0.4517770421678822 0.399110010992247 0.3751780505640331 0.392766329467048 0.4089239601877404 0.3673242610541082 0.281328388886827 0.2019779136345731 0.1341453251943774 -9999.0 -9999.0 -9999.0 -9999.0 -9999.0 -9999.0 -9999.0 -9999.0 -9999.0 -9999.0 -9999.0 -9999.0 -9999.0 -9999.0 -9999.0 -9999.0 -9999.0 -9999.0 -9999.0 -9999.0 -9999.0 -9999.0 -9999.0 -9999.0 -9999.0 1.5365175589746414 1.6772682891910156 2.1128816473216423 2.059937450509364 1.7968500403985082 1.6376961981559746 1.6716804443351219 1.6677105371057455 1.6861295827419847 1.7513784083322912 1.70940217701375 0.8772926660887825 0.935627919852118 1.00973047643426 0.7528074446124335 0.6305138097643535 0.7377021841809146 0.9048697654556339 0.9650860155103811 0.6789883572598454 -9999.0 -9999.0 -9999.0 -9999.0 -9999.0 -9999.0 -9999.0 -9999.0 -9999.0 -9999.0 -9999.0 -9999.0 -9999.0 -9999.0 -9999.0 -9999.0 -9999.0 -9999.0 -9999.0 -9999.0 -9999.0 -9999.0 -9999.0 -9999.0 -9999.0 -9999.0 -9999.0 -9999.0 -9999.0 -9999.0 -9999.0 -9999.0 -9999.0 -9999.0 -9999.0 -9999.0 -9999.0 -9999.0 -9999.0 -9999.0 -9999.0 -9999.0 -9999.0 -9999.0 -9999.0 -9999.0 -9999.0 -9999.0 -9999.0 -9999.0 -9999.0 -9999.0 -9999.0 -9999.0 -9999.0 -9999.0 -9999.0 -9999.0 -9999.0 -9999.0 -9999.0 -9999.0 -9999.0 -9999.0 -9999.0 -9999.0 -9999.0 -9999.0 -9999.0 -9999.0 -9999.0 -9999.0 -9999.0 -9999.0 -9999.0 -9999.0 -9999.0 -9999.0 -9999.0 -9999.0 -9999.0 -9999.0 -9999.0 -9999.0 -9999.0 -9999.0 -9999.0
1.0458659895359894 1.0610711971413456 1.0707936170141703 1.0635004845254514 0.998649643938518 0.8659570864253536 0.7777160895990509 0.7157363905402119 0.6294118883079569 0.5540368281783473 0.4948490984174277 0.4581866123407176 0.4562629763339822 0.4484010004481525 0.3983366145327842 0.28952279663803904 0.2180012297022032 0.17846299334937732 0.13023080594275271 0.07620534472887511 -9999.0 -9999.0 -9999.0 -9999.0 -9999.0 -9999.0 -9999.0 -9999.0 -9999.0 -9999.0 -9999.0 -9999.0 -9999.0 -9999.0 -9999.0 -9999.0 -9999.0 -9999.0 -9999.0 -9999.0 -9999.0 -9999.0 0.2085561877059926 1.0364650206617976 1.3623603413679504 1.793566619706619 1.79852275762515 1.5707909171026841 1.4937489818715521 1.6147502865567052 1.6214752403070052 1.6472039915232912 1.6761707886145756 1.6937505699725641 1.659921950675941 1.0169891779768672 1.0073706747848643 0.7114479548246042 0.6470320605820554 0.8147918511312271 0.8853032968394217 0.9430066037315441 0.9030390293054233 -9999.0 -9999.0 -9999.0 -9999.0 -9999.0 -9999.0 -9999.0 -9999.0 -9999.0 -9999.0 -9999.0 -9999.0 -9999.0 -9999.0 -9999.0 -9999.0 -9999.0 -9999.0 -9999.0 -9999.0 -9999.0 -9999.0 -9999.0 -9999.0 -9999.0 -9999.0 -9999.0 -9999.0 -9999.0 -9999.0 -9999.0 -9999.0 -9999.0 -9999.0 -9999.0 -9999.0 -9999.0 -9999.0 -9999.0 -9999.0 -9999.0 -9999.0 -9999.0 -9999.0 -9999.0 -9999.0 -9999.0 -9999.0 -9999.0 -9999.0 -9999.0 -9999.0 -9999.0 -9999.0 -9999.0 -9999.0 -9999.0 -9999.0 -9999.0 -9999.0 -9999.0 -9999.0 -9999.0 -9999.0 -9999.0 -9999.0 -9999.0 -9999.0 -9999.0 -9999.0 -9999.0 -9999.0 -9999.0 -9999.0 -9999.0 -9999.0 -9999.0 -9999.0 -9999.0 -9999.0 -9999.0 -9999.0 -9999.0 -9999.0 -9999.0 -9999.0 -9999.0
1.0297565162738995 1.058021934607634 1.115589765500574 1.1020903384002807 1.039506578189615 0.9453692344884561 0.8640497566227225 0.7936412801791153 0.7185550687362534 0.654569580137077 0.582313743556335 0.5187266663708539 0.47279857830467403 0.4502157989417521 0.3754844188986012 0.2778041422274412 0.2296139999479539 0.21530951260033682 0.19474008654869412 0.1558074231550496 0.08890377271285471 -9999.0 -9999.0 -9999.0 -9999.0 -9999.0 -9999.0 -9999.0 -9999.0 -9999.0 -9999.0 -9999.0 -9999.0 -9999.0 -9999.0 -9999.0 -9999.0 -9999.0 -9999.0 -9999.0 -9999.0 0.0852768090070881 0.37064250692917383 0.7587254848751035 1.1253554298015203 1.3498218389147418 1.6243342912008123 1.4893784661327565 1.4274621660612126 1.4977814414776294 1.5373440818286037 1.5679989660056735 1.6099445196771145 1.6731380128085485 1.6863691883184662 1.007925329546399 0.9032121890982938 0.740979834354752 0.6620346995802444 0.7221111747327393 0.8017283775314079 0.81719343430839 0.8270152447335875 0.1292902370402803 -9999.0 -9999.0 -9999.0 -9999.0 -9999.0 -9999.0 -9999.0 -9999.0 -9999.0 -9999.0 -9999.0 -9999.0 -9999.0 -9999.0 -9999.0 -9999.0 -9999.0 -9999.0 -9999.0 -9999.0 -9999.0 -9999.0 -9999.0 -9999.0 -9999.0 -9999.0 -9999.0 -9999.0 -9999.0 -9999.0 -9999.0 -9999.0 -9999.0 -9999.0 -9999.0 -9999.0 -9999.0 -9999.0 -9999.0 -9999.0 -9999.0 -9999.0 -9999.0 -9999.0 -9999.0 -9999.0 -9999.0 -9999.0 -9999.0 -9999.0 -9999.0 -9999.0 -9999.0 -9999.0 -9999.0 -9999.0 -9999.0 -9999.0 -9999.0 -9999.0 -9999.0 -9999.0 -9999.0 -9999.0 -9999.0 -9999.0 -9999.0 -9999.0 -9999.0 -9999.0 -9999.0 -9999.0 -9999.0 -9999.0 -9999.0 -9999.0 -9999.0 -9999.0 -9999.0 -9999.0 -9999.0 -9999.0 -9999.0 -9999.0 -9999.0 -9999.0
1.0382308775481868 1.1781204217074144 1.217664424083615 1.1636510247616194 1.097519814849747 1.067848319165398 1.0377342663386098 0.930033560052475 0.8355714365058771 0.7670276970255361 0.6980177753598442 0.6177138474520159 0.5337150984493444 0.4534574117317777 0.3595347323091871 0.26576786422142473 0.2290728428220726 0.2286770800459284 0.242138303571092 0.2401104321317048 0.2003204677276747 0.15588598380722463 0.1004246420372102 -9999.0 -9999.0 -9999.0 -9999.0 -9999.0 -9999.0 -9999.0 -9999.0 -9999.0 -9999.0 -9999.0 -9999.0 -9999.0 -9999.0 -9999.0 -9999.0 -9999.0 -9999.0 0.3151030408094263 0.720301109402598 0.9715882751162548 1.0874694810040602 1.1386437644119853 1.4475815021213525 1.5776135557355018 1.5693826889811973 1.6007920458106926 1.792021819800139 1.609962980354668 1.6063967873756861 1.6778433616043436 1.6447693460961228 1.033862401468957 0.9254229284478253 0.8977718194114372 0.772990978560222 0.7109676026350098 0.6174377443650172 0.6083535582774251 0.7771372944844976 0.8147036515430213 -9999.0 -9999.0 -9999.0 -9999.0 -9999.0 -9999.0 -9999.0 -9999.0 -9999.0 -9999.0 -9999.0 -9999.0 -9999.0 -9999.0 -9999.0 -9999.0 -9999.0 -9999.0 -9999.0 -9999.0 -9999.0 -9999.0 -9999.0 -9999.0 -9999.0 -9999.0 -9999.0 -9999.0 -9999.0 -9999.0 -9999.0 -9999.0 -9999.0 -9999.0 -9999.0 -9999.0 -9999.0 -9999.0 -9999.0 -9999.0 -9999.0 -9999.0 -9999.0 -9999.0 -9999.0 -9999.0 -9999.0 -9999.0 -9999.0 -9999.0 -9999.0 -9999.0 -9999.0 -9999.0 -9999.0 -9999.0 -9999.0 -9999.0 -9999.0 -9999.0 -9999.0 -9999.0 -9999.0 -9999.0 -9999.0 -9999.0 -9999.0 -9999.0 -9999.0 -9999.0 -9999.0 -9999.0 -9999.0 -9999.0 -9999.0 -9999.0 -9999.0 -9999.0 -9999.0 -9999.0 -9999.0 -9999.0 -9999.0 -9999.0 -9999.0 -9999.0
1.1251359042858875 1.2759639149757391 1.3012426207304737 1.273649890175361 1.176534884563423 1.106103504692845 1.076103134656122 1.002859506252018 0.9249216272735834 0.8793947501788713 0.8493248273238889 0.7838392208319693 0.682845963536254 0.5449563343976218 0.3914846484882621 0.2580894722037183 0.2152814297864719 0.2245650975844326 0.261577613625189 0.2667483675117272 0.22824456464684112 0.1626057905628472 0.10236455448615711 0.08333735469974281 -9999.0 -9999.0 -9999.0 -9999.0 -9999.0 -9999.0 -9999.0 -9999.0 0.12166459256350731 0.1469603022110338 -9999.0 -9999.0 -9999.0 -9999.0 -9999.0 -9999.0 -9999.0 0.3126344267917545 0.602859944641569 0.8773394397715994 0.8458379517196633 0.8291136053686705 1.1883958290041359 1.571399726684059 1.7564661911333324 1.831991185456934 2.0390876162311486 1.767818933980363 1.5231048789271446 1.5530089078103821 1.532943716172737 0.9385933559256237 0.9464374820599022 0.9800920954677641 0.9308076140245269 0.7464282640956976 0.573385575479088 0.5645522710820914 0.6625291146297052 0.9941360391294651 -9999.0 -9999.0 -9999.0 -9999.0 -9999.0 -9999.0 -9999.0 -9999.0 -9999.0 -9999.0 -9999.0 -9999.0 -9999.0 -9999.0 -9999.0 -9999.0 -9999.0 -9999.0 -9999.0 -9999.0 -9999.0 -9999.0 -9999.0 -9999.0 -9999.0 -9999.0 -9999.0 -9999.0 -9999.0 -9999.0 -9999.0 -9999.0 -9999.0 -9999.0 -9999.0 -9999.0 -9999.0 -9999.0 -9999.0 -9999.0 -9999.0 -9999.0 -9999.0 -9999.0 -9999.0 -9999.0 -9999.0 -9999.0 -9999.0 -9999.0 -9999.0 -9999.0 -9999.0 -9999.0 -9999.0 -9999.0 -9999.0 -9999.0 -9999.0 -9999.0 -9999.0 -9999.0 -9999.0 -9999.0 -9999.0 -9999.0 -9999.0 -9999.0 -9999.0 -9999.0 -9999.0 -9999.0 -9999.0 -9999.0 -9999.0 -9999.0 -9999.0 -9999.0 -9999.0 -9999.0 -9999.0 -9999.0 -9999.0 -9999.0 -9999.0 -9999.0
1.1822670995832791 1.230056489974313 1.3094639948505928 1.3291447748453302 1.3027040000129173 1.197550724692624 1.0992715348224387 1.0492401517040304 0.9997168516574588 0.998803980786354 0.9895103374879153 0.9602801737047484 0.8918073676546197 0.7484979877974147 0.5247885813708818 0.2919261424838422 0.1949875478684104 0.18693360104934342 0.2352117910889073 0.2509458344280595 0.1891665320632936 0.09402437414804661 -9999.0 -9999.0 -9999.0 -9999.0 -9999.0 -9999.0 -9999.0 -9999.0 0.0707700100067401 0.08147163764448101 0.18614780548161192 0.2025646865034619 -9999.0 -9999.0 -9999.0 -9999.0 -9999.0 -9999.0 -9999.0 0.1969245881539873 0.284608790349439 0.3188889440306252 0.2796185598910575 0.36247953779534353 1.033712205601443 1.2601750647987089 1.6480820923450479 1.7634080848700313 1.8972421362654281 1.7624742880662867 1.4627662820746117 1.447214649058058 1.4394889264239261 0.8640000680351092 0.8990126814056605 0.9795916704137195 0.8693798818060041 0.7514732371544321 0.5818575909311565 0.529346021078881 0.5948834925906095 0.8974959501433675 0.8406935682987 -9999.0 -9999.0 -9999.0 -9999.0 -9999.0 -9999.0 -9999.0 -9999.0 -9999.0 -9999.0 -9999.0 -9999.0 -9999.0 -9999.0 -9999.0 -9999.0 -9999.0 -9999.0 -9999.0 -9999.0 -9999.0 -9999.0 -9999.0 -9999.0 -9999.0 -9999.0 -9999.0 -9999.0 -9999.0 -9999.0 -9999.0 -9999.0 -9999.0 -9999.0 -9999.0 -9999.0 -9999.0 -9999.0 -9999.0 -9999.0 -9999.0 -9999.0 -9999.0 -9999.0 -9999.0 -9999.0 -9999.0 -9999.0 -9999.0 -9999.0 -9999.0 -9999.0 -9999.0 -9999.0 -9999.0 -9999.0 -9999.0 -9999.0 -9999.0 -9999.0 -9999.0 -9999.0 -9999.0 -9999.0 -9999.0 -9999.0 -9999.0 -9999.0 -9999.0 -9999.0 -9999.0 -9999.0 -9999.0 -9999.0 -9999.0 -9999.0 -9999.0 -9999.0 -9999.0 -9999.0 -9999.0 -9999.0 -9999.0 -9999.0 -9999.0
1.259492257695344 1.2671585620348023 1.331865209725158 1.406976001874469 1.441701196303921 1.3694630658663232 1.2433221624783304 1.126125051783053 1.0877570559414707 1.094907969959247 1.0815935349162054 1.085327954599589 1.077761564689667 0.9861851941502893 0.7439764018539474 0.4276760266808285 0.1962225657106835 0.1577862183865864 0.18722092416149 0.1946533232265082 0.1129846028471189 -9999.0 -9999.0 -9999.0 -9999.0 -9999.0 0.09328088724539951 0.09971838457907731 0.08411151253847961 0.07715144732710891 0.07006315610582554 0.0805392661385349 0.24427092007827342 0.2456087986094007 -9999.0 -9999.0 -9999.0 0.2330955961189575 -9999.0 -9999.0 -9999.0 0.1242635522921638 0.1892378013500683 -9999.0 -9999.0 -9999.0 -9999.0 0.9989727841911464 1.4096729500433716 1.6221445828589913 1.7645933458076704 1.6850615275254468 1.459415784012089 1.39254938156793 1.3916803597005096 0.8909286265327152 0.9202989244261071 0.9886408124218471 0.8798259784878535 0.7374478726582383 0.6330288861023663 0.5343529671521635 0.5817460110316055 0.694297017350533 0.8376827012876087 0.6161655344017689 -9999.0 -9999.0 -9999.0 -9999.0 -9999.0 -9999.0 -9999.0 -9999.0 -9999.0 -9999.0 -9999.0 -9999.0 -9999.0 -9999.0 -9999.0 -9999.0 -9999.0 -9999.0 -9999.0 -9999.0 -9999.0 -9999.0 -9999.0 -9999.0 -9999.0 -9999.0 -9999.0 -9999.0 -9999.0 -9999.0 -9999.0 -9999.0 -9999.0 -9999.0 -9999.0 -9999.0 -9999.0 -9999.0 -9999.0 -9999.0 -9999.0 -9999.0 -9999.0 -9999.0 -9999.0 -9999.0 -9999.0 -9999.0 -9999.0 -9999.0 -9999.0 -9999.0 -9999.0 -9999.0 -9999.0 -9999.0 -9999.0 -9999.0 -9999.0 -9999.0 -9999.0 -9999.0 -9999.0 -9999.0 -9999.0 -9999.0 -9999.0 -9999.0 -9999.0 -9999.0 -9999.0 -9999.0 -9999.0 -9999.0 -9999.0 -9999.0 -9999.0 -9999.0 -9999.0 -9999.0 -9999.0 -9999.0 -9999.0 -9999.0
1.421482668729516 1.350151989695366 1.4074709200441307 1.4864019738755234 1.5472968181276838 1.5447040636213683 1.4231462716492682 1.2876808131145745 1.2626097974621897 1.267753262826654 1.2444742129456006 1.249295843172066 1.2288608422897183 1.1288494863464436 0.9443883982694001 0.6059490675011476 0.2800416629276447 0.1557748163931485 0.1661093545560062 0.15514387098161653 -9999.0 -9999.0 -9999.0 -9999.0 -9999.0 -9999.0 0.0797200164152029 0.0896679062458032 0.0788360558055923 -9999.0 -9999.0 0.15828708801497882 0.2850619321943324 0.2842500589323502 0.1456613531860724 0.0840620113030593 0.4550960515008116 0.8567025490168474 0.349693939815632 -9999.0 -9999.0 -9999.0 -9999.0 -9999.0 -9999.0 -9999.0 -9999.0 0.7493933512855853 0.9686900068836335 1.342885544415928 1.5845768691592592 1.5956620180578476 1.4471264472640148 1.2988009271601353 1.278652219053675 1.35169535036477 1.070959282642639 0.99668377772515 0.9371843346654105 0.7813380994785755 0.6372064967705795 0.5709478234615346 0.5286417982770015 0.5324050584753897 0.6674210629334767 0.751792827508893 0.10638898724597631 -9999.0 -9999.0 -9999.0 -9999.0 -9999.0 -9999.0 -9999.0 -9999.0 -9999.0 -9999.0 -9999.0 -9999.0 -9999.0 -9999.0 -9999.0 -9999.0 -9999.0 -9999.0 -9999.0 -9999.0 -9999.0 -9999.0 -9999.0 -9999.0 -9999.0 -9999.0 -9999.0 -9999.0 -9999.0 -9999.0 -9999.0 -9999.0 -9999.0 -9999.0 -9999.0 -9999.0 -9999.0 -9999.0 -9999.0 -9999.0 -9999.0 -9999.0 -9999.0 -9999.0 -9999.0 -9999.0 -9999.0 -9999.0 -9999.0 -9999.0 -9999.0 -9999.0 -9999.0 -9999.0 -9999.0 -9999.0 -9999.0 -9999.0 -9999.0 -9999.0 -9999.0 -9999.0 -9999.0 -9999.0 -9999.0 -9999.0 -9999.0 -9999.0 -9999.0 -9999.0 -9999.0 -9999.0 -9999.0 -9999.0 -9999.0 -9999.0 -9999.0 -9999.0 -9999.0 -9999.0 -9999.0 -9999.0 -9999.0
1.6725108004012337 1.5110139280161208 1.455680506066098 1.470490543282467 1.561504083790386 1.6003845753685388 1.5518738466749087 1.4321341424324459 1.4160878519014892 1.4145448812120232 1.3863491739952012 1.4302877319178882 1.3548537604219681 1.2155589522399786 1.0437775568610275 0.7698507154784202 0.4982778927457845 0.290855623878029 0.1718525867630653 0.0830160478794477 -9999.0 -9999.0 -9999.0 -9999.0 -9999.0 -9999.0 0.0710774077956512 -9999.0 -9999.0 -9999.0 0.1648814351941531 0.3075321483101358 0.39434623440381983 0.3759972572841515 0.2538895516871693 0.1668358055337167 0.4375624724652672 1.9155554419402985 0.9293870230066941 0.5265748602551326 0.1801407356411033 -9999.0 -9999.0 -9999.0 -9999.0 -9999.0 -9999.0 -9999.0 0.8527535635839585 1.1965828479882537 1.4004532070961377 1.5079614807005952 1.4402866053425907 1.2666830151042932 1.2700690288937404 1.6452616068714185 1.8310498792237244 1.0828752649956161 0.977651658852756 0.874061454581559 0.6732091716362316 0.5800149163904247 0.4775485966889289 0.4518050321656329 0.5199501484084459 0.5891428460688004 0.5516356662567787 0.15822664671218262 -9999.0 -9999.0 -9999.0 -9999.0 -9999.0 -9999.0 -9999.0 -9999.0 -9999.0 -9999.0 -9999.0 -9999.0 -9999.0 -9999.0 -9999.0 -9999.0 -9999.0 -9999.0 -9999.0 -9999.0 -9999.0 -9999.0 -9999.0 -9999.0 -9999.0 -9999.0 -9999.0 -9999.0 -9999.0 -9999.0 -9999.0 -9999.0 -9999.0 -9999.0 -9999.0 -9999.0 -9999.0 -9999.0 -9999.0 -9999.0 -9999.0 -9999.0 -9999.0 -9999.0 -9999.0 -9999.0 -9999.0 -9999.0 -9999.0 -9999.0 -9999.0 -9999.0 -9999.0 -9999.0 -9999.0 -9999.0 -9999.0 -9999.0 -9999.0 -9999.0 -9999.0 -9999.0 -9999.0 -9999.0 -9999.0 -9999.0 -9999.0 -9999.0 -9999.0 -9999.0 -9999.0 -9999.0 -9999.0 -9999.0 -9999.0 -9999.0 -9999.0 -9999.0 -9999.0 -9999.0 -9999.0 -9999.0
1.9377457544348888 1.707509396333689 1.5026847408053225 1.458815669148172 1.4918773299301162 1.5939857157777113 1.5957552151262673 1.5315372829063543 1.5542237467976558 1.6482508678686714 1.6559911950797104 1.5656876348051776 1.4508642183890301 1.26038347573845 1.0772588282302413 0.8768285510186558 0.6837625697380099 0.5437306400656428 0.2847721702511554 -9999.0 -9999.0 -9999.0 -9999.0 -9999.0 0.07287526200234341 -9999.0 -9999.0 -9999.0 -9999.0 0.1158346680263036 0.2897693181154332 0.4189950119490831 0.466655499419989 0.4349637720845042 0.3259910677068417 0.2023073777003874 0.1740495145056986 4.586289393199292 4.6768510425351 0.9750406846041477 0.6436498017828403 0.09843274514109321 -9999.0 -9999.0 -9999.0 -9999.0 -9999.0 -9999.0 -9999.0 0.9207559804344156 1.2982870453595912 1.4729230421692836 1.4701966404536178 1.3912572359310729 1.5428528386235363 2.0930888370130867 1.968001964818336 1.6901863959535954 1.0679291148780428 1.0376885409205296 0.8737813745323832 0.6441327287249561 0.5125298166476893 0.4622396287193448 0.4906861768770923 0.530598802367245 0.6553836915674498 0.7120736858010419 0.09595172193355861 -9999.0 -9999.0 -9999.0 -9999.0 -9999.0 -9999.0 -9999.0 -9999.0 -9999.0 -9999.0 -9999.0 -9999.0 -9999.0 -9999.0 -9999.0 -9999.0 -9999.0 -9999.0 -9999.0 -9999.0 -9999.0 -9999.0 -9999.0 -9999.0 -9999.0 -9999.0 -9999.0 -9999.0 -9999.0 -9999.0 -9999.0 -9999.0 -9999.0 -9999.0 -9999.0 -9999.0 -9999.0 -9999.0 -9999.0 -9999.0 -9999.0 -9999.0 -9999.0 -9999.0 -9999.0 -9999.0 -9999.0 -9999.0 -9999.0 -9999.0 -9999.0 -9999.0 -9999.0 -9999.0 -9999.0 -9999.0 -9999.0 -9999.0 -9999.0 -9999.0 -9999.0 -9999.0 -9999.0 -9999.0 -9999.0 -9999.0 -9999.0 -9999.0 -9999.0 -9999.0 -9999.0 -9999.0 -9999.0 -9999.0 -9999.0 -9999.0 -9999.0 -9999.0 -9999.0 -9999.0 -9999.0
2.075467741659278 2.0296734659582545 1.7849561854233502 1.5814600505704026 1.5332130808681446 1.6182158439668588 1.6819716712504624 1.6464157106190562 1.7280352852154837 1.8446811024771599 1.7657211675862385 1.607082770470758 1.4229883846086981 1.260046548049833 1.085571264602599 0.9074140376851736 0.7571917026862294 0.6199745830696892 0.3145839886239351 0.08030530320950871 -9999.0 -9999.0 0.07249354147077061 0.07208915666291801 -9999.0 -9999.0 -9999.0 -9999.0 0.0912045500966583 0.2470331554964445 0.4193371207443098 0.5185234655585296 0.5438216939739218 0.4887384245828135 0.3684656118026791 0.2174724462855881 0.1742973538608444 0.2029685309859299 6.753782305532944 2.947757827423153 0.6994952115482158 0.4589226753631604 0.1928924178646903 -9999.0 -9999.0 -9999.0 -9999.0 -9999.0 -9999.0 0.4243676908607084 0.9761030014680527 1.476460299426475 1.5237614033236369 1.5292729770537619 1.5875826021628365 1.727967932897925 1.724002618131268 1.7080837703375462 1.6546696776898193 1.2890708589997664 1.231408213757869 0.7263171506536859 0.5721581999124046 0.4981182127676294 0.48971449303013853 0.5473781412899238 0.7614882245702126 0.8813211592852042 0.6949932050695686 -9999.0 -9999.0 -9999.0 -9999.0 -9999.0 -9999.0 -9999.0 -9999.0 -9999.0 -9999.0 -9999.0 -9999.0 -9999.0 -9999.0 -9999.0 -9999.0 -9999.0 -9999.0 -9999.0 -9999.0 -9999.0 -9999.0 -9999.0 -9999.0 -9999.0 -9999.0 -9999.0 -9999.0 -9999.0 -9999.0 -9999.0 -9999.0 -9999.0 -9999.0 -9999.0 -9999.0 -9999.0 -9999.0 -9999.0 -9999.0 -9999.0 -9999.0 -9999.0 -9999.0 -9999.0 -9999.0 -9999.0 -9999.0 -9999.0 -9999.0 -9999.0 -9999.0 -9999.0 -9999.0 -9999.0 -9999.0 -9999.0 -9999.0 -9999.0 -9999.0 -9999.0 -9999.0 -9999.0 -9999.0 -9999.0 -9999.0 -9999.0 -9999.0 -9999.0 -9999.0 -9999.0 -9999.0 -9999.0 -9999.0 -9999.0 -9999.0 -9999.0 -9999.0 -9999.0 -9999.0 -9999.0
2.0684666563509664 2.0755381293213255 2.0770230075845375 2.045169848294176 1.940117440170621 1.976721174089625 1.984188977257308 1.8844865195515037 1.9386302926459729 1.954515344202816 1.713997725253972 1.4807762874230985 1.3083184966819659 1.1776728844981055 1.0733947363799616 0.8575534460585141 0.692931679229432 0.5228187351088109 0.3939811736903825 0.1564066581075296 -9999.0 0.0730756785852823 0.0956853493919319 0.0778019854989041 -9999.0 -9999.0 0.11808046642576561 0.2570657738316845 0.3591584428964631 0.490535179786651 0.5989014390859091 0.6475280867796269 0.6516807292931703 0.5663136637873479 0.4253637140923757 0.25620977496287767 0.1987791898161134 0.2308577635158985 0.26323698752787095 1.2137987597027147 0.5833325791123967 -9999.0 0.3225148915531262 0.1508919129536277 -9999.0 -9999.0 -9999.0 -9999.0 -9999.0 -9999.0 0.842766880224084 1.2797318901144121 1.531544070489104 1.5452171835012463 1.5724470403592876 1.592653451475922 1.6534311126126904 1.7691132490450439 2.0271488183163267 1.519472706524619 1.281625324855878 1.1021322050595728 0.6656529534473496 0.5266240808531287 0.5135419005293647 0.5817324106780954 0.9158400117469565 0.7540719757409209 0.7176567001033067 0.6681702916211074 -9999.0 -9999.0 -9999.0 -9999.0 -9999.0 -9999.0 -9999.0 -9999.0 -9999.0 -9999.0 -9999.0 -9999.0 -9999.0 -9999.0 -9999.0 -9999.0 -9999.0 -9999.0 -9999.0 -9999.0 -9999.0 -9999.0 -9999.0 -9999.0 -9999.0 -9999.0 -9999.0 -9999.0 -9999.0 -9999.0 -9999.0 -9999.0 -9999.0 -9999.0 -9999.0 -9999.0 -9999.0 -9999.0 -9999.0 -9999.0 -9999.0 -9999.0 -9999.0 -9999.0 -9999.0 -9999.0 -9999.0 -9999.0 -9999.0 -9999.0 -9999.0 -9999.0 -9999.0 -9999.0 -9999.0 -9999.0 -9999.0 -9999.0 -9999.0 -9999.0 -9999.0 -9999.0 -9999.0 -9999.0 -9999.0 -9999.0 -9999.0 -9999.0 -9999.0 -9999.0 -9999.0 -9999.0 -9999.0 -9999.0 -9999.0 -9999.0 -9999.0 -9999.0 -9999.0 -9999.0
1.9343571465420297 2.015751604609221 2.070033496982665 2.07587480575087 2.0712111088596497 2.0754195948170824 2.086842494079423 2.055880002911021 2.131804919648098 2.122419351942175 1.6907667648024816 1.4631472166138495 1.2813341815691202 1.1674334786487048 1.0570213445503052 0.8039609132630767 0.688238637421474 0.594135570153494 0.5444090795636428 0.3579974792732571 0.14615631305356652 0.15687944747437 0.1999352087014995 0.1870507005644715 0.14147823598201492 0.19443901742921582 0.3244895954829884 0.4626206027619678 0.5872197200373719 0.7893708695729766 0.834315345070701 0.7987703163791726 0.7465227760643789 0.6509026340556134 0.50158961305128 0.3416309028227139 0.2532146649084908 0.2553332783752815 0.26083427343314314 0.2925978092328755 0.1404913488049684 -9999.0 -9999.0 0.2608662707260949 0.1468300750631036 -9999.0 -9999.0 -9999.0 -9999.0 -9999.0 -9999.0 1.051837055000064 1.3979334153940233 1.6006003305130723 1.6553401440473026 1.666531520841696 1.6618797923856095 1.7011464926949396 2.08183662504744 2.036394628713506 1.3628051079195107 1.3100444794567372 0.8075810325869384 0.548636152101991 0.5305845553141022 0.6192278366123174 0.6565470478797619 0.6664875977153701 0.7045905747934222 0.7928655484589857 0.7025518842977774 -9999.0 -9999.0 -9999.0 -9999.0 -9999.0 -9999.0 -9999.0 -9999.0 -9999.0 -9999.0 -9999.0 -9999.0 -9999.0 -9999.0 -9999.0 -9999.0 -9999.0 -9999.0 -9999.0 -9999.0 -9999.0 -9999.0 -9999.0 -9999.0 -9999.0 -9999.0 -9999.0 -9999.0 -9999.0 -9999.0 -9999.0 -9999.0 -9999.0 -9999.0 -9999.0 -9999.0 -9999.0 -9999.0 -9999.0 -9999.0 -9999.0 -9999.0 -9999.0 -9999.0 -9999.0 -9999.0 -9999.0 -9999.0 -9999.0 -9999.0 -9999.0 -9999.0 -9999.0 -9999.0 -9999.0 -9999.0 -9999.0 -9999.0 -9999.0 -9999.0 -9999.0 -9999.0 -9999.0 -9999.0 -9999.0 -9999.0 -9999.0 -9999.0 -9999.0 -9999.0 -9999.0 -9999.0 -9999.0 -9999.0 -9999.0 -9999.0 -9999.0 -9999.0 -9999.0
1.7702819956388216 1.8482139665660002 1.965183651213387 2.036811953518993 2.066122250364876 2.068590216858671 2.067423339881153 2.0683088684935425 2.1572318937181145 2.2235493946679505 1.9254758622384665 1.673460329393366 1.4996168347909242 1.2722779903858805 1.0702478711045813 0.8752412767184625 0.8082005601983495 0.7138032329488115 0.6118316072471155 0.4538741531066347 0.3240938642608811 0.32108760216298243 0.39703811012589113 0.4114521523723863 0.3714192121804725 0.3729180535963698 0.4512561934850195 0.5700326331193915 0.8234169172186476 1.01386395544121 0.9786824277555759 0.8779222656970544 0.7880392760586092 0.6724591947849958 0.5312382979779888 0.4078378203577047 0.3248734171719093 0.2762290977888206 0.2839959404682597 0.3113282719840733 0.2717162522068327 -9999.0 -9999.0 -9999.0 -9999.0 0.1270284002711911 -9999.0 -9999.0 -9999.0 -9999.0 -9999.0 0.28216114190765484 1.0896865922606211 1.543524597749766 1.9871904058051717 2.0315083202190367 1.682645047697226 1.6065405417283902 1.9695787397069637 2.1610213144803847 1.7790526663859922 1.3183528255688504 0.7932363395832323 0.6335344622511911 0.5932413124648019 0.5683322688731884 0.5639370184990228 0.6223512097633477 0.6152429150761052 0.6936094791959613 0.8066772865008449 0.5495822106752427 -9999.0 -9999.0 -9999.0 -9999.0 -9999.0 -9999.0 -9999.0 -9999.0 -9999.0 -9999.0 -9999.0 -9999.0 -9999.0 -9999.0 -9999.0 -9999.0 -9999.0 -9999.0 -9999.0 -9999.0 -9999.0 -9999.0 -9999.0 -9999.0 -9999.0 -9999.0 -9999.0 -9999.0 -9999.0 -9999.0 -9999.0 -9999.0 -9999.0 -9999.0 -9999.0 -9999.0 -9999.0 -9999.0 -9999.0 -9999.0 -9999.0 -9999.0 -9999.0 -9999.0 -9999.0 -9999.0 -9999.0 -9999.0 -9999.0 -9999.0 -9999.0 -9999.0 -9999.0 -9999.0 -9999.0 -9999.0 -9999.0 -9999.0 -9999.0 -9999.0 -9999.0 -9999.0 -9999.0 -9999.0 -9999.0 -9999.0 -9999.0 -9999.0 -9999.0 -9999.0 -9999.0 -9999.0 -9999.0 -9999.0 -9999.0 -9999.0 -9999.0 -9999.0
1.7745202912423705 1.830501352354091 1.9230934574158909 1.9986027482578173 2.050113601096275 2.070064484325594 2.0761099638146727 2.0695362896390237 2.066374267987092 2.0701546809454343 2.0621527220146456 1.975088520686016 1.87758684216072 1.5750397421218325 1.1696742462979037 0.9112540742337278 0.8211324945061047 0.697226462723108 0.5577389699064136 0.4872505607618242 0.4308005881895951 0.4660860988507318 0.5247822349301354 0.5281534845529197 0.5214366792552099 0.5542193913260143 0.6433712623166463 0.8219912554923774 1.0576145262972447 1.0785859424432758 1.0064482881907504 0.8717395724734309 0.7299133879772437 0.5948008193342336 0.4811418200626718 0.4185889115713368 0.4049705565796294 0.3932544027295975 0.3964242431890889 0.3599663166164429 0.3353802214101705 -9999.0 -9999.0 -9999.0 -9999.0 -9999.0 0.25973669086026707 -9999.0 -9999.0 -9999.0 -9999.0 -9999.0 0.9692904591139344 1.264716899210849 1.9615976765707845 1.993896277607693 1.8356813193036672 1.8672802136941877 2.1029963847057984 2.2019344181077405 2.1347635381925594 1.2876503371812156 0.853221542659903 0.7759370739410867 0.6198631965769128 0.5607663186360755 0.5134712960129075 0.4399769158335941 0.4324423401625575 0.5721075042884642 0.7492895836224804 0.7854201418784981 -9999.0 -9999.0 -9999.0 -9999.0 -9999.0 -9999.0 -9999.0 -9999.0 -9999.0 -9999.0 -9999.0 -9999.0 -9999.0 -9999.0 -9999.0 -9999.0 -9999.0 -9999.0 -9999.0 -9999.0 -9999.0 -9999.0 -9999.0 -9999.0 -9999.0 -9999.0 -9999.0 -9999.0 -9999.0 -9999.0 -9999.0 -9999.0 -9999.0 -9999.0 -9999.0 -9999.0 -9999.0 -9999.0 -9999.0 -9999.0 -9999.0 -9999.0 -9999.0 -9999.0 -9999.0 -9999.0 -9999.0 -9999.0 -9999.0 -9999.0 -9999.0 -9999.0 -9999.0 -9999.0 -9999.0 -9999.0 -9999.0 -9999.0 -9999.0 -9999.0 -9999.0 -9999.0 -9999.0 -9999.0 -9999.0 -9999.0 -9999.0 -9999.0 -9999.0 -9999.0 -9999.0 -9999.0 -9999.0 -9999.0 -9999.0 -9999.0 -9999.0 -9999.0
1.9682531942074384 2.0072552323192108 2.0121919326995346 2.0392930311346897 2.0723815420110148 2.1596418649767943 2.113558810744293 2.064207996423112 2.04429869735445 2.0615602566047686 2.069540798992683 2.0680987007423273 2.054694932621056 1.854692480808328 1.374168587217713 0.9063199196032208 0.7130736810105665 0.5876303839835291 0.5240052819770208 0.5155090904960662 0.525276024031262 0.5462068033462596 0.5463013813131163 0.5473022470463069 0.5944604202126917 0.7174476490290427 0.8542077124926966 1.055307784931002 1.1627331062611905 1.097949920213285 0.8636702671650618 0.7220751179693061 0.5889376339101 0.4798829071147185 0.4128826018344357 0.4043691169604519 0.4181237969477631 0.4694522406796497 0.4823465007877867 0.4079235079665291 0.3405177779929649 0.3169854798482694 -9999.0 -9999.0 -9999.0 -9999.0 -9999.0 0.1765600336343659 -9999.0 -9999.0 -9999.0 0.1458698223495088 0.685191943777089 1.1466815951559188 1.4276475961979276 1.8128072536936009 2.016542442357395 2.0999696854561205 2.154311226341386 2.248940177652035 2.1611572486902517 1.7786000086013358 0.9019674422412434 0.8341445823570897 0.7406221475672818 0.5901083879993241 0.5167022094652884 0.4236242630006668 0.4972754810992119 0.6765472871377716 0.7167561522246777 0.7688499030946061 0.7353440582732655 -9999.0 -9999.0 -9999.0 -9999.0 -9999.0 -9999.0 -9999.0 -9999.0 -9999.0 -9999.0 -9999.0 -9999.0 -9999.0 -9999.0 -9999.0 -9999.0 -9999.0 -9999.0 -9999.0 -9999.0 -9999.0 -9999.0 -9999.0 -9999.0 -9999.0 -9999.0 -9999.0 -9999.0 -9999.0 -9999.0 -9999.0 -9999.0 -9999.0 -9999.0 -9999.0 -9999.0 -9999.0 -9999.0 -9999.0 -9999.0 -9999.0 -9999.0 -9999.0 -9999.0 -9999.0 -9999.0 -9999.0 -9999.0 -9999.0 -9999.0 -9999.0 -9999.0 -9999.0 -9999.0 -9999.0 -9999.0 -9999.0 -9999.0 -9999.0 -9999.0 -9999.0 -9999.0 -9999.0 -9999.0 -9999.0 -9999.0 -9999.0 -9999.0 -9999.0 -9999.0 -9999.0 -9999.0 -9999.0 -9999.0 -9999.0 -9999.0 -9999.0
2.1093699103007277 2.1491373479061577 2.1429371488623485 2.1435049215335527 2.2130146130435224 2.2858486153070916 2.14705728715311 1.9681543285726797 1.9001024770768413 1.9660635436540448 2.0525949088224036 2.0675555572204307 2.0713396820616237 2.0739225896429527 1.844467614100041 1.2136844115072771 0.8200882730925851 0.6379364988565397 0.5975052509345911 0.6147451489622324 0.5930819283175497 0.5602363582188723 0.5271452853260481 0.5313620683727538 0.7222951688306145 0.9270351578512697 1.114768020752863 1.2778219974631855 1.1660213155510544 0.8459279092724503 0.680394837606356 0.5644126733151458 0.4742626032904824 0.3978400214095819 0.3476199787920503 0.3374121270089195 0.37158592600949353 0.4294269363135002 0.4439349434496519 0.3916140401496395 0.3298781792828488 0.3029498857587145 0.25865283994075183 -9999.0 -9999.0 -9999.0 -9999.0 -9999.0 0.1442268932796816 0.10945325232865931 0.3093095279450131 0.7842011039545449 0.9993186662473041 1.008079848627702 1.2063427483694396 1.4202191846606105 2.063957898988788 2.310034127884947 2.330717476798961 2.22756617843591 1.8809336222215476 1.6857561039907578 1.4491470917437945 0.8336637935978504 0.7662262997004887 0.6642494064691173 0.6000194812804123 0.6541739774062445 0.7319764047988355 0.7834407776159309 0.8254959828079713 0.8602505936438392 0.8890485371794752 0.71633833007104 -9999.0 -9999.0 -9999.0 -9999.0 -9999.0 -9999.0 -9999.0 -9999.0 -9999.0 -9999.0 -9999.0 -9999.0 -9999.0 -9999.0 -9999.0 -9999.0 -9999.0 -9999.0 -9999.0 -9999.0 -9999.0 -9999.0 -9999.0 -9999.0 -9999.0 -9999.0 -9999.0 -9999.0 -9999.0 -9999.0 -9999.0 -9999.0 -9999.0 -9999.0 -9999.0 -9999.0 -9999.0 -9999.0 -9999.0 -9999.0 -9999.0 -9999.0 -9999.0 -9999.0 -9999.0 -9999.0 -9999.0 -9999.0 -9999.0 -9999.0 -9999.0 -9999.0 -9999.0 -9999.0 -9999.0 -9999.0 -9999.0 -9999.0 -9999.0 -9999.0 -9999.0 -9999.0 -9999.0 -9999.0 -9999.0 -9999.0 -9999.0 -9999.0 -9999.0 -9999.0 -9999.0 -9999.0 -9999.0 -9999.0 -9999.0 -9999.0
2.1922056229386464 2.2352309344494117 2.242599661575856 2.2442401074156524 2.259312679780608 2.2638900713000205 2.0791281656827443 1.860092885958833 1.7466858796348992 1.721283809951814 1.8471277348200505 1.9850737096876585 2.057920503547209 2.074882766023578 2.0839145851135252 2.070545309616095 1.7942006204073961 1.044387213487396 0.7445171769782213 0.681639879480586 0.6595496123052167 0.631276233649857 0.5645632218202337 0.657441234044813 0.9940278344363105 1.2183301102204271 1.2810942271922097 1.2133721896045038 0.9098270337651777 0.7229324379304349 0.591151102296138 0.5086024519439698 0.4557097636828265 0.3911324915322132 0.3257927498458729 0.29545466373363893 0.2841814266770638 0.3126720033029381 0.358037539782238 0.3530023966627155 0.3226832271805387 0.284098780953363 0.25114649563129077 0.2053715334283242 -9999.0 -9999.0 -9999.0 -9999.0 -9999.0 0.22078492006992792 0.8182654065433066 1.1652163351007265 1.1145871998028045 0.9593770699038269 1.0104216986160988 1.2268024506301296 1.7339352716843235 2.449637583677979 2.3696901520345746 1.999463305858723 1.5783492364152065 1.4221897243700499 1.4366449350959676 0.96977014167357 0.6779385096532238 0.6621282927595744 0.7766162892755655 0.9167019562552938 1.0975578032157065 1.1802591947782222 1.157560628115593 1.138831737348995 1.138227665446266 1.0177585930891653 0.6689988338911323 -9999.0 -9999.0 -9999.0 -9999.0 -9999.0 -9999.0 -9999.0 -9999.0 -9999.0 -9999.0 -9999.0 -9999.0 -9999.0 -9999.0 -9999.0 -9999.0 -9999.0 -9999.0 -9999.0 -9999.0 -9999.0 -9999.0 -9999.0 -9999.0 -9999.0 -9999.0 -9999.0 -9999.0 -9999.0 -9999.0 -9999.0 -9999.0 -9999.0 -9999.0 -9999.0 -9999.0 -9999.0 -9999.0 -9999.0 -9999.0 -9999.0 -9999.0 -9999.0 -9999.0 -9999.0 -9999.0 -9999.0 -9999.0 -9999.0 -9999.0 -9999.0 -9999.0 -9999.0 -9999.0 -9999.0 -9999.0 -9999.0 -9999.0 -9999.0 -9999.0 -9999.0 -9999.0 -9999.0 -9999.0 -9999.0 -9999.0 -9999.0 -9999.0 -9999.0 -9999.0 -9999.0 -9999.0 -9999.0 -9999.0 -9999.0
2.2673662619910706 2.333451715048185 2.2865356886002943 2.254481721322536 2.241072830765107 2.1920255261476136 2.082467316832771 1.8775925684734116 1.7022791463165288 1.6589523029327393 1.7265220813066209 1.846072987417515 1.9053925358080857 1.963917813698499 2.0160982865270625 2.0672528883798207 2.06917986568089 2.065522750605225 1.533540875389406 0.8363158222734737 0.7973949761047778 0.9061617621948921 0.9907720511083331 1.124468233207837 1.2083932750526396 1.2075853632366804 1.1149321584165468 0.9652743885409041 0.7949538021084392 0.709165321611311 0.6311598457430148 0.5483878198580603 0.5064851481840456 0.46069098799992353 0.3806171543597233 0.30545513074663977 0.2702539590005242 0.27006312746089767 0.301388522226152 0.3403202650957565 0.3416869108125678 0.2982912156371418 0.2427773948651887 0.2172547895173535 -9999.0 -9999.0 -9999.0 -9999.0 -9999.0 -9999.0 0.1875021286243905 0.9262664009932948 1.0845197951982886 1.1693821513068308 1.0597099390063058 1.0777917202419898 1.3385647193261976 1.7136195831689585 1.8326152653006316 1.6173844682349992 1.4124885698901561 1.3543241515635553 1.389178350066844 1.37398744121244 0.7570525476096637 0.768480642877247 0.8598679313834332 1.1660536373048345 1.3288662945854164 1.401585901462791 1.5505261918600484 1.5044556652093188 1.5558580934948192 1.5193098041511084 1.254271129843577 0.3131751140643793 -9999.0 -9999.0 -9999.0 -9999.0 -9999.0 -9999.0 -9999.0 -9999.0 -9999.0 -9999.0 -9999.0 -9999.0 -9999.0 -9999.0 -9999.0 -9999.0 -9999.0 -9999.0 -9999.0 -9999.0 -9999.0 -9999.0 -9999.0 -9999.0 -9999.0 -9999.0 -9999.0 -9999.0 -9999.0 -9999.0 -9999.0 -9999.0 -9999.0 -9999.0 -9999.0 -9999.0 -9999.0 -9999.0 -9999.0 -9999.0 -9999.0 -9999.0 -9999.0 -9999.0 -9999.0 -9999.0 -9999.0 -9999.0 -9999.0 -9999.0 -9999.0 -9999.0 -9999.0 -9999.0 -9999.0 -9999.0 -9999.0 -9999.0 -9999.0 -9999.0 -9999.0 -9999.0 -9999.0 -9999.0 -9999.0 -9999.0 -9999.0 -9999.0 -9999.0 -9999.0 -9999.0 -9999.0 -9999.0 -9999.0
2.4721598980801267 2.500816865084422 2.3560518299888256 2.2275345056065374 2.172924882076672 2.145492015423288 2.091575216392428 1.9291189952256529 1.7967431343599782 1.731124194113426 1.7986334994574793 1.8567885737446277 1.843947328656935 1.7658632585609684 1.726267828986134 1.7561500155575924 1.865142525026429 2.0331460269906008 2.0569436109051438 2.064706225367917 1.996382671535419 1.6157572949571037 1.4070351210574426 1.2783098638234822 1.2099776256263153 1.0977246954321904 1.0225788425778841 0.91736864119632 0.7880021131117756 0.7466823273081988 0.7658587444269971 0.7182687981404632 0.6686925872572846 0.604163454876333 0.5092410858983337 0.4037625212995675 0.32594611724797573 0.2971119063122069 0.3232764576512855 0.3708055660459305 0.4079198440984361 0.3657097014843665 0.28904549668879453 0.2532746069058132 0.2228300151381438 -9999.0 -9999.0 -9999.0 -9999.0 -9999.0 -9999.0 -9999.0 0.9868715868269979 1.21081361948926 1.0534565990619331 1.0073827577009127 1.2321728120905504 1.350206612697087 1.4344764972914053 1.466869543517108 1.407417611212775 1.3721317976884864 1.3587591270048602 1.3805190676499244 1.3685646731262908 1.0067262929973464 1.0103116117244488 1.2515742872471631 1.3916085249138745 1.5426083804493536 1.690780698608126 1.8344271923034956 2.3524165580851246 2.560095262873269 1.4264050040875786 1.2562190160327182 0.2598561828717121 -9999.0 -9999.0 -9999.0 -9999.0 -9999.0 -9999.0 0.3928839159238998 0.26428685287586884 -9999.0 -9999.0 -9999.0 -9999.0 -9999.0 -9999.0 -9999.0 -9999.0 -9999.0 -9999.0 -9999.0 -9999.0 -9999.0 -9999.0 -9999.0 -9999.0 -9999.0 -9999.0 -9999.0 -9999.0 -9999.0 -9999.0 -9999.0 -9999.0 -9999.0 -9999.0 -9999.0 -9999.0 -9999.0 -9999.0 -9999.0 -9999.0 -9999.0 -9999.0 -9999.0 -9999.0 -9999.0 -9999.0 -9999.0 -9999.0 -9999.0 -9999.0 -9999.0 -9999.0 -9999.0 -9999.0 -9999.0 -9999.0 -9999.0 -9999.0 -9999.0 -9999.0 -9999.0 -9999.0 -9999.0 -9999.0 -9999.0 -9999.0 -9999.0 -9999.0 -9999.0 -9999.0 -9999.0 -9999.0 -9999.0
2.8842804535947466 2.737818451226108 2.5086786661188065 2.26052702776986 2.1522272647426886 2.1317681315822665 2.078894582175113 1.9614248690083413 1.8839337312754336 1.8888933734606297 2.0059920144253796 1.9720143815380224 1.7838186884876304 1.560086753838881 1.3628537441790893 1.2839382174291225 1.25586139855451 1.5077844879748366 1.8269630843560594 2.026610343249699 2.034493133299154 1.8271021842766688 1.4983606230987234 1.302642410345672 1.1220093982489983 1.0563898977528867 1.031518656075946 0.9853160349087999 0.9013536113839626 0.976920023093377 1.0712465483070024 0.9472245242253416 0.8408038557072763 0.7692462149822905 0.6774567423489994 0.5634519288208175 0.4448642419176333 0.4053908104613597 0.4306650967065936 0.4870132634469338 0.514864718772457 0.4543966733247111 0.3316487956212528 0.3102782029045597 0.3040726475397627 -9999.0 -9999.0 -9999.0 -9999.0 -9999.0 -9999.0 -9999.0 -9999.0 0.9393130517144681 0.9288856070765654 0.9139701954675161 1.1247848367718745 1.270655106952405 1.4019429149833544 1.428663906100599 1.3890945113066189 1.4074052471735952 1.3847391908385878 1.4375241426308012 1.4196730440712904 1.378255386887412 1.3007197524349698 1.2739438885836578 1.4372091226516936 1.5024572846876525 1.472290277418329 1.6462176628670298 2.0234673913886647 1.4985365447265782 1.114183336450124 1.0778131447323456 0.8867930668511024 0.3704753488875734 -9999.0 -9999.0 -9999.0 -9999.0 0.3549133504992886 0.4291472919748631 0.4592464661926555 -9999.0 -9999.0 -9999.0 -9999.0 -9999.0 -9999.0 -9999.0 -9999.0 -9999.0 -9999.0 -9999.0 -9999.0 -9999.0 -9999.0 -9999.0 -9999.0 -9999.0 -9999.0 -9999.0 -9999.0 -9999.0 -9999.0 -9999.0 -9999.0 -9999.0 -9999.0 -9999.0 -9999.0 -9999.0 -9999.0 -9999.0 -9999.0 -9999.0 -9999.0 -9999.0 -9999.0 -9999.0 -9999.0 -9999.0 -9999.0 -9999.0 -9999.0 -9999.0 -9999.0 -9999.0 -9999.0 -9999.0 -9999.0 -9999.0 -9999.0 -9999.0 -9999.0 -9999.0 -9999.0 -9999.0 -9999.0 -9999.0 -9999.0 -9999.0 -9999.0 -9999.0 -9999.0 -9999.0 -9999.0 -9999.0
3.0907890074323006 2.9596634079748494 2.7267695835511545 2.467368837242189 2.23214999265097 2.120507481090289 2.069307635080591 2.0109536733537086 1.9662994784746408 2.0328178550649696 2.069320806147852 2.0030000748468337 1.7392689558442176 1.4470828912365146 1.2494023520393427 1.1968011634888285 1.1716031908928461 1.2500821262127462 1.5023822437531111 1.7418168580803088 1.7736878488637369 1.547473689126541 1.3061957136705764 1.1819354811868734 1.1211230289687037 1.08292249081648 1.1481846555479496 1.2875096335682898 1.4220039298925276 1.6647820503546458 1.533709398969058 1.1535825995456905 0.9110682356111286 0.8514572039044266 0.8238301876075962 0.7784806495981378 0.6727099593054882 0.6037706958736857 0.6122780689671674 0.6327097665859052 0.6292565233014589 0.532154064563533 0.3472624561964215 0.3293478870565451 0.3831208017575894 -9999.0 -9999.0 0.1478644525832108 -9999.0 -9999.0 -9999.0 -9999.0 -9999.0 0.2001114608831279 0.8592104593580494 0.516550016375698 0.4339921554988339 1.1514252135055674 1.2979416658656158 1.386621460854651 1.4425576503880684 1.6656942088468687 1.627138332507285 1.5447859163851456 1.5204608335943726 1.4224892938646543 1.4123706520722656 1.3401613094927292 1.320869466447118 1.1709583676798532 0.9566007405065682 0.7216641165019806 0.6465893327997125 0.6159721021442348 0.6027574513726008 0.7599546327106579 0.7982440575131247 0.7722733360087466 0.7797853245734416 0.7632133494476587 0.4181835877499344 0.3679462364093058 0.3235608366951185 0.3814574021471759 0.4828934710000301 0.1180270752648604 -9999.0 -9999.0 -9999.0 -9999.0 -9999.0 -9999.0 -9999.0 -9999.0 -9999.0 -9999.0 -9999.0 -9999.0 -9999.0 -9999.0 -9999.0 -9999.0 -9999.0 -9999.0 -9999.0 -9999.0 -9999.0 -9999.0 -9999.0 -9999.0 -9999.0 -9999.0 -9999.0 -9999.0 -9999.0 -9999.0 -9999.0 -9999.0 -9999.0 -9999.0 -9999.0 -9999.0 -9999.0 -9999.0 -9999.0 -9999.0 -9999.0 -9999.0 -9999.0 -9999.0 -9999.0 -9999.0 -9999.0 -9999.0 -9999.0 -9999.0 -9999.0 -9999.0 -9999.0 -9999.0 -9999.0 -9999.0 -9999.0 -9999.0 -9999.0 -9999.0 -9999.0 -9999.0 -9999.0 -9999.0
3.0955287593418306 3.0445156843909578 2.9122658432085116 2.6950628304580118 2.4331857013820946 2.198911289317191 2.085909905806712 2.062056455856552 2.06223126748526 2.076129817282293 2.0442385754464865 1.837814496913224 1.6614792828617653 1.4852169601681184 1.3085882752033005 1.2597883457381616 1.2180348824914597 1.255656217048846 1.4041162468293362 1.5349945242844847 1.423811199959539 1.2752478791972595 1.2343090953360532 1.2325036496613386 1.2239331992106564 1.241558921860194 1.3509890531088284 1.51091986309671 1.7174984250024536 1.8883642325454264 1.7626751301009456 1.422941480295853 1.0417755575760523 0.9491970919392942 0.9522341085232409 0.9659383246928717 0.954623969331897 0.8680686654321113 0.7838396075777192 0.723671867110806 0.684908528167343 0.5658384849867022 0.3635114039029965 0.344712511727003 0.3877198624667041 0.2118100970793283 0.1412678809342794 0.3907918704046013 0.11787891089526631 -9999.0 -9999.0 -9999.0 -9999.0 -9999.0 0.2561183477105844 0.2760601975281825 0.31464691570203585 1.0362492854082284 1.2019137178615176 1.3351504631322924 1.5696145002600914 1.6099234769198876 1.6210193426337833 1.6404319992167973 1.6067736057659592 1.5097277423215325 1.4913931112212293 1.501724770655447 1.1669212780626232 0.8130335381051998 0.3462735495286851 -9999.0 -9999.0 -9999.0 0.1934249990433764 0.4258327409162537 0.6041213175431768 0.557644290190958 0.6434991685916138 0.6436747472046593 0.46150521126748273 0.25950637028100887 0.1559212344330994 0.2989134351542533 0.4621336913457189 0.5067547430757728 -9999.0 -9999.0 -9999.0 -9999.0 -9999.0 -9999.0 -9999.0 -9999.0 -9999.0 -9999.0 -9999.0 -9999.0 -9999.0 -9999.0 -9999.0 -9999.0 -9999.0 -9999.0 -9999.0 -9999.0 -9999.0 -9999.0 -9999.0 -9999.0 -9999.0 -9999.0 -9999.0 -9999.0 -9999.0 -9999.0 -9999.0 -9999.0 -9999.0 -9999.0 -9999.0 -9999.0 -9999.0 -9999.0 -9999.0 -9999.0 -9999.0 -9999.0 -9999.0 -9999.0 -9999.0 -9999.0 -9999.0 -9999.0 -9999.0 -9999.0 -9999.0 -9999.0 -9999.0 -9999.0 -9999.0 -9999.0 -9999.0 -9999.0 -9999.0 -9999.0 -9999.0 -9999.0 -9999.0 -9999.0
3.079197327479804 3.0547835188453782 2.968553973170101 2.8379243757648687 2.637186780985137 2.3771147630308267 2.212400596569856 2.146746560481787 2.1046733218478457 2.070889715330794 1.779852575070335 1.5490501783547899 1.5034794711870305 1.4217886135828197 1.339248230774765 1.2981492812673345 1.3187609097378385 1.3436347592677993 1.3912834725789078 1.394550705320394 1.3236553092856986 1.3086343427630533 1.4380096810803336 1.5759470033358574 1.5923585730106797 1.4240973272414414 1.4999650442852344 1.7164885409374138 1.8335833083730324 1.914817546477653 1.8561337275160177 1.5619585527357405 1.270602781218327 1.0889553584566478 1.051358542040101 1.0676972659814083 1.0806417693413342 0.9796493265493766 0.8824771341862607 0.7687661217127002 0.6653220606729584 0.5190351652573836 0.3921117755589852 0.3476606478885244 0.3419972506605455 0.26768533244890924 0.123139188090162 0.5023413450737368 0.8498002952105992 0.2628070133248715 -9999.0 -9999.0 -9999.0 -9999.0 -9999.0 0.2611392702201773 0.333152655128243 0.5284880194363755 1.1608187285755933 1.2733298743599157 1.5851635227586396 1.7019294268222198 1.7325320052678836 1.7620082806020312 1.64155920273925 1.572575878814543 1.5463160446144384 1.5031986416515328 1.2603322148696074 0.6752096335059798 -9999.0 -9999.0 -9999.0 -9999.0 -9999.0 -9999.0 0.210366919164863 0.33434949316072643 0.5675315801366823 0.7475542529029646 0.5392919432122334 0.12232396227588771 0.12067935144841391 0.2101614152733306 0.4973402524771854 0.6402930255802286 -9999.0 -9999.0 -9999.0 -9999.0 -9999.0 -9999.0 -9999.0 -9999.0 -9999.0 -9999.0 -9999.0 -9999.0 -9999.0 -9999.0 -9999.0 -9999.0 -9999.0 -9999.0 -9999.0 -9999.0 -9999.0 -9999.0 -9999.0 -9999.0 -9999.0 -9999.0 -9999.0 -9999.0 -9999.0 -9999.0 -9999.0 -9999.0 -9999.0 -9999.0 -9999.0 -9999.0 -9999.0 -9999.0 -9999.0 -9999.0 -9999.0 -9999.0 -9999.0 -9999.0 -9999.0 -9999.0 -9999.0 -9999.0 -9999.0 -9999.0 -9999.0 -9999.0 -9999.0 -9999.0 -9999.0 -9999.0 -9999.0 -9999.0 -9999.0 -9999.0 -9999.0 -9999.0 -9999.0 -9999.0
3.100530108818448 3.0438513770367464 2.9513580913356807 2.8556945534843323 2.784530154356794 2.553419363848149 2.3593291336648203 2.2590480447078756 2.1632803401087672 2.006158986539526 1.5017679913903688 1.3085455987170758 1.3207465267575913 1.3472663863145478 1.318734407413715 1.3046124725738573 1.5048635025388661 1.7119776771256345 1.5840362058065907 1.4699596112100932 1.5371433848183333 1.7246542420615272 1.8313504855632823 1.9515660685475271 1.9987327484619322 1.6715540261597084 1.6927256366998367 1.8933303591081077 1.9516081723585486 1.9848122822187917 1.92456746230598 1.6974897684388173 1.4695396620785854 1.2927040688849358 1.1555009959606424 1.1091193758765956 1.099294157550267 1.0216285408091983 0.9144801839506216 0.755734862298207 0.5809545502431581 0.4555962754714958 0.3907478095959016 0.3494676439730236 0.308118583539215 0.2686230029213809 0.259277884157119 0.7007795583823591 0.6810732344753656 0.4880022946052457 -9999.0 -9999.0 -9999.0 -9999.0 -9999.0 -9999.0 0.29798922470383005 0.34909662393298213 1.0395293906310212 1.1316142410893422 1.4385961849119913 1.8121173907006336 1.9416573549579017 1.8864911978118641 1.683751797238218 1.5490460366696532 1.515131356197063 1.413944321122589 1.2360257201868237 1.0761521597686474 0.1891048010768428 -9999.0 0.0980141263497406 0.09446885432273841 -9999.0 0.22110275632091292 0.2387292325102856 0.4109079311435983 0.9068688644027854 0.8842133461384447 0.6602515878816562 0.2002526644134944 0.16795239630474962 0.2643720686639493 0.4216460073027275 0.6010020190758438 0.5691534275683794 -9999.0 -9999.0 -9999.0 -9999.0 -9999.0 -9999.0 -9999.0 -9999.0 -9999.0 -9999.0 -9999.0 -9999.0 -9999.0 -9999.0 -9999.0 -9999.0 -9999.0 -9999.0 -9999.0 -9999.0 -9999.0 -9999.0 -9999.0 -9999.0 -9999.0 -9999.0 -9999.0 -9999.0 -9999.0 -9999.0 -9999.0 -9999.0 -9999.0 -9999.0 -9999.0 -9999.0 -9999.0 -9999.0 -9999.0 -9999.0 -9999.0 -9999.0 -9999.0 -9999.0 -9999.0 -9999.0 -9999.0 -9999.0 -9999.0 -9999.0 -9999.0 -9999.0 -9999.0 -9999.0 -9999.0 -9999.0 -9999.0 -9999.0 -9999.0 -9999.0 -9999.0 -9999.0 -9999.0
3.148520971779123 3.0322193103231414 2.947445788275403 2.871416389929346 2.818125150122 2.6422973475662968 2.4535608743337765 2.32074502862532 2.263417849743417 2.124596540426048 1.7445999118248918 1.351784609268311 1.3125908409843299 1.3461995522388164 1.3563295344848723 1.4484157967745845 1.8094397927082198 1.944197716456608 1.7713276614497293 1.6808117520332257 1.7709043132814564 1.8845814072699856 1.970713509577347 2.0752070199170953 2.125336439438746 1.8310563559975928 1.8544732335672098 2.1167088547953865 2.162750250738569 2.142111523320721 2.031175387741596 1.8602136925191681 1.6717944350441256 1.5077391892632497 1.3278644384225653 1.1723120327791943 1.0908505853871044 1.0209374280488221 0.8918520832776042 0.7060511796808209 0.5107640935791967 0.4172382648438047 0.3799288177286685 0.3527155452089155 0.3142903711393549 0.2859642553000819 0.4473936430224258 0.397631501078217 0.1572613476421199 0.24898014197374702 -9999.0 -9999.0 -9999.0 -9999.0 -9999.0 -9999.0 -9999.0 0.2117643010921835 1.0013460389897713 1.0777155938595653 1.3140292410889884 1.7820155991605096 1.94429052208195 1.8895573773712864 1.6835147632340626 1.4136709127520264 1.3610746089344818 1.3302169663846504 1.265247245693089 1.1100088563931296 0.9904418075170509 0.168672624751488 -9999.0 -9999.0 0.1578289633340818 0.29838485264326253 0.352593677900619 0.8551246185778458 0.9108008415863735 0.835120055075657 0.6828788798968004 0.3382621366073545 0.2043965947693809 0.2359386105822931 0.3866513496418419 0.451518672971306 0.6062445449168377 -9999.0 -9999.0 -9999.0 -9999.0 -9999.0 -9999.0 -9999.0 -9999.0 -9999.0 -9999.0 -9999.0 -9999.0 -9999.0 -9999.0 -9999.0 -9999.0 -9999.0 -9999.0 -9999.0 -9999.0 -9999.0 -9999.0 -9999.0 -9999.0 -9999.0 -9999.0 -9999.0 -9999.0 -9999.0 -9999.0 -9999.0 -9999.0 -9999.0 -9999.0 -9999.0 -9999.0 -9999.0 -9999.0 -9999.0 -9999.0 -9999.0 -9999.0 -9999.0 -9999.0 -9999.0 -9999.0 -9999.0 -9999.0 -9999.0 -9999.0 -9999.0 -9999.0 -9999.0 -9999.0 -9999.0 -9999.0 -9999.0 -9999.0 -9999.0 -9999.0 -9999.0 -9999.0 -9999.0
3.160656659895424 3.0734238933957783 3.0082643970122005 2.952459796434002 2.8687475813048295 2.6952916264142797 2.481454332254534 2.319691858555955 2.2669458343795696 2.2333785159721646 2.0576979463271896 1.7249875322789248 1.555863299142928 1.6277258142714837 1.7527089100793716 1.8534462976961386 1.8998078300606889 1.876696858740384 1.6756360445130052 1.6738064870682998 1.7935418875654148 1.902486717523017 1.9714013721012424 1.996957126645892 1.9650273378732288 1.8979667426234286 2.030930759102918 2.204452886032293 2.258706312752274 2.2419685116788526 2.1021160301888786 2.007779150829847 1.9181521501545316 1.7667424937317167 1.550270672096459 1.3147266850450225 1.1233162666749381 1.0202422202946453 0.8973073318433542 0.7353198127979572 0.5677815551536587 0.4445019838453126 0.3848685346525461 0.354180908529506 0.3239949310500876 0.2885860037206823 0.2146571131086643 -9999.0 -9999.0 0.27949286204565305 0.3218415788609884 -9999.0 -9999.0 -9999.0 -9999.0 -9999.0 -9999.0 0.2578125507307141 1.4640442785817227 1.3516696584559111 1.3437552193092004 1.6257493205209859 1.8078614759302032 1.8352714844381572 1.7121986392986757 1.4784834623644332 1.452979191040386 1.3654788318520932 1.2451943674602661 1.1228070660568437 1.095756405292758 0.9014402853415955 0.14681192731432702 -9999.0 0.07601356964004921 0.1837481704196924 0.46477969013962933 0.9645385230300334 0.9866796152489341 0.8176071960403326 0.6630017281827412 0.4588878194257776 0.2530432577888973 0.1977226745510616 0.3984983342669513 0.3799053376533577 0.4948427863106991 0.4480445381508395 -9999.0 -9999.0 -9999.0 -9999.0 -9999.0 -9999.0 -9999.0 -9999.0 -9999.0 -9999.0 -9999.0 -9999.0 -9999.0 -9999.0 -9999.0 -9999.0 -9999.0 -9999.0 -9999.0 -9999.0 -9999.0 -9999.0 -9999.0 -9999.0 -9999.0 -9999.0 -9999.0 -9999.0 -9999.0 -9999.0 -9999.0 -9999.0 -9999.0 -9999.0 -9999.0 -9999.0 -9999.0 -9999.0 -9999.0 -9999.0 -9999.0 -9999.0 -9999.0 -9999.0 -9999.0 -9999.0 -9999.0 -9999.0 -9999.0 -9999.0 -9999.0 -9999.0 -9999.0 -9999.0 -9999.0 -9999.0 -9999.0 -9999.0 -9999.0 -9999.0 -9999.0 -9999.0
3.295500243075142 3.212705727488717 3.100918011588271 3.063568736148619 2.980963584130179 2.775225165505805 2.4839838591236036 2.2647848376565247 2.2166611067342856 2.2430720680509877 2.2088951563187873 2.017681485239459 1.9075268868367612 1.9786967532907904 2.08373414284197 2.072774829509391 1.9016760578949965 1.739236785306299 1.6639742105836504 1.700159838996757 1.8612901081540894 1.968114578225555 1.9957755429520472 1.9985846154281686 2.0377231531676143 2.0655485858161935 2.096374162344618 2.1504203997463955 2.263032401799182 2.2505472358181806 2.1264617194505 2.0587871509775 2.0052562608615947 1.8407927549166965 1.6026746057728887 1.3867942011553651 1.2013908143855276 1.0334127132856565 0.9601370120741068 0.8339546733518524 0.684521205863406 0.5418747600846598 0.424307804052101 0.3525871325753097 0.3126632265180007 0.263822538528713 0.0793933706367641 -9999.0 -9999.0 0.4908628986357808 0.4410784842605141 0.19771040309671462 -9999.0 -9999.0 -9999.0 -9999.0 -9999.0 0.6399391631156512 1.5391397630908232 1.3986589250913573 1.3210000467300416 1.442385371812687 1.6237065478181765 1.7775647154381464 1.7013747092857345 1.4853290357325515 1.749272882466663 1.7605882792902552 1.2534899740495686 1.1493258920638378 1.1935088428169944 0.9675296065864771 0.7547493283232105 0.7269800545043292 0.3605248346352211 0.3140750836813826 0.7934906129439814 1.034646033283743 1.1454087243617161 0.9718689468464812 0.6814400012553903 0.5824399494310746 0.416303936417608 0.24261952392286282 0.2652988131357153 0.3432108091917037 0.3539675502445367 0.603284358117196 -9999.0 -9999.0 -9999.0 -9999.0 -9999.0 -9999.0 -9999.0 -9999.0 -9999.0 -9999.0 -9999.0 -9999.0 -9999.0 -9999.0 -9999.0 -9999.0 -9999.0 -9999.0 -9999.0 -9999.0 -9999.0 -9999.0 -9999.0 -9999.0 -9999.0 -9999.0 -9999.0 -9999.0 -9999.0 -9999.0 -9999.0 -9999.0 -9999.0 -9999.0 -9999.0 -9999.0 -9999.0 -9999.0 -9999.0 -9999.0 -9999.0 -9999.0 -9999.0 -9999.0 -9999.0 -9999.0 -9999.0 -9999.0 -9999.0 -9999.0 -9999.0 -9999.0 -9999.0 -9999.0 -9999.0 -9999.0 -9999.0 -9999.0 -9999.0 -9999.0 -9999.0 -9999.0
3.424107389787162 3.3191254149129796 3.190583270753794 3.101075311368309 3.048471975419314 2.792301697072324 2.4663283576743336 2.225766921324472 2.173954076766968 2.256303825795532 2.346037781365118 2.223955911769113 2.045191444361316 2.0405220230083385 2.048730586458738 1.964852601886108 1.8035999516685142 1.7082161690149908 1.7074389449877365 1.8347743199811906 2.0071006939408838 2.114313529084881 2.141184702509179 2.166207613897381 2.182842788560676 2.165042247243938 2.1246127408662407 2.129575504360768 2.161746275235305 2.1607263233199903 2.060915603800321 1.8844816815652545 1.747167325077034 1.6426589433651881 1.4709009427498039 1.3024330127467638 1.141503562067022 1.0270699681964917 0.9963159459628894 0.9388095964402612 0.8219296307624318 0.6612180955680893 0.4836857510988682 0.3527377255704559 0.2901025362539221 0.23376804671030652 0.17479595308589702 -9999.0 -9999.0 -9999.0 0.4050497351987596 0.30438992373660323 0.1384056959609734 -9999.0 -9999.0 -9999.0 -9999.0 0.2571797427987577 1.320851318906821 1.1909508498707737 1.198971108114012 1.431135232994686 1.5687336090399577 1.6352345914825985 1.5706462647696737 1.4713397125811452 1.775791071747414 1.7742280962076262 1.3417115353333695 1.3881889596798869 1.3993922021005512 1.1458565664495033 0.8792510972904357 0.7741306460627531 0.8532290465503636 1.2524213452058832 1.878958563187044 1.0761685165988901 1.1638534028931984 1.3404048245461517 0.8447489084686879 0.6981010042337956 0.5928237310409434 0.3475594112973742 0.3181342375772742 0.463050680030413 0.3856390414270178 0.5765148624028325 0.609837554275309 -9999.0 -9999.0 -9999.0 -9999.0 -9999.0 -9999.0 -9999.0 -9999.0 -9999.0 -9999.0 -9999.0 -9999.0 -9999.0 -9999.0 -9999.0 -9999.0 -9999.0 -9999.0 -9999.0 -9999.0 -9999.0 -9999.0 -9999.0 -9999.0 -9999.0 -9999.0 -9999.0 -9999.0 -9999.0 -9999.0 -9999.0 -9999.0 -9999.0 -9999.0 -9999.0 -9999.0 -9999.0 -9999.0 -9999.0 -9999.0 -9999.0 -9999.0 -9999.0 -9999.0 -9999.0 -9999.0 -9999.0 -9999.0 -9999.0 -9999.0 -9999.0 -9999.0 -9999.0 -9999.0 -9999.0 -9999.0 -9999.0 -9999.0 -9999.0 -9999.0 -9999.0
3.532900242138284 3.374887720767853 3.2233378787482208 3.1080414783606995 2.997936790812162 2.7539190164300766 2.4708664106182012 2.3306346385252326 2.301419884403208 2.4348764481560945 2.5187632839868184 2.3446891121157005 2.0671264074882436 2.0383676864478986 1.912122338059375 1.7994371723242975 1.7467859842138616 1.69572433560032 1.7331593325815464 1.8876241023332865 2.094994195505117 2.199010063254473 2.2377139491268196 2.2558934010081857 2.2687083521906186 2.2585859847894936 2.2077564010901147 2.163718715899089 2.1687817478554745 2.1522832148444655 1.9188232459823464 1.665233952485896 1.6587013058917262 1.655913160402577 1.4470940750782884 1.2291935829376746 1.068509936550751 1.0093892410753753 0.9948109928801281 0.9843412173134052 0.9361752178944707 0.7924833961703275 0.5656836496559363 0.3896348894246114 0.2955868757199147 0.2293678606984218 0.18071723058655081 -9999.0 -9999.0 -9999.0 -9999.0 -9999.0 0.1916023826269887 0.263589282708736 -9999.0 -9999.0 -9999.0 0.47554290041840713 0.7720626745541106 1.0855485444327346 1.1186285812510135 1.4491159989604305 1.6721603650033354 1.6846186284107225 1.6449569711589833 1.5419944008590643 1.5374826647905924 1.5562668361054137 1.5195414713945772 1.6146690333585856 1.5015640479817125 1.184377544295979 0.9468878426205958 0.8280186997742882 1.0583486392897627 1.900524565836233 1.968908086890432 2.021964713631455 1.4513735035218829 1.534673319631571 1.112489729612585 0.8981083597629671 0.7640497621662401 0.5044470408588531 0.4452222583302058 0.5432568962340452 0.4477816515609862 0.4768898283693617 0.6116242375829954 -9999.0 -9999.0 -9999.0 -9999.0 -9999.0 -9999.0 -9999.0 -9999.0 -9999.0 -9999.0 -9999.0 -9999.0 -9999.0 -9999.0 -9999.0 -9999.0 -9999.0 -9999.0 -9999.0 -9999.0 -9999.0 -9999.0 -9999.0 -9999.0 -9999.0 -9999.0 -9999.0 -9999.0 -9999.0 -9999.0 -9999.0 -9999.0 -9999.0 -9999.0 -9999.0 -9999.0 -9999.0 -9999.0 -9999.0 -9999.0 -9999.0 -9999.0 -9999.0 -9999.0 -9999.0 -9999.0 -9999.0 -9999.0 -9999.0 -9999.0 -9999.0 -9999.0 -9999.0 -9999.0 -9999.0 -9999.0 -9999.0 -9999.0 -9999.0 -9999.0 -9999.0
3.595033498964973 3.3877697612003037 3.214426966078764 3.0916960092121157 2.94693057770629 2.7185825874820044 2.5438944829503147 2.455433868635701 2.511860710787143 2.611669044071992 2.5778734876746348 2.267493481348132 2.106985706871586 2.086335045510917 1.9836461037396589 1.8466966279440624 1.7819968031316096 1.6942835818981286 1.6876891796662759 1.826260369703818 2.048552698736696 2.201591381624053 2.2590280947038326 2.2885571696141946 2.3205754031780215 2.331482337769156 2.3081846954927148 2.2740709631944163 2.2513645943917067 2.1879217886929454 1.8981988119466728 1.6887601518568252 1.7549349890074308 1.7689112906928046 1.5242725813637368 1.1922492150229254 1.0124249142584691 0.9972690956041532 1.0000982899004311 0.994876791255443 0.9879542254011195 0.922285438486365 0.7236739195357957 0.4904497053640408 0.3435819595891363 0.25062933556284417 0.2062019828210013 -9999.0 -9999.0 -9999.0 -9999.0 -9999.0 -9999.0 0.3333557612331804 0.2981022790501362 -9999.0 0.2473296482644704 0.6336697674126168 0.6954528828573456 1.1013552803433821 1.1831471197400172 1.246569573015121 1.678545213600034 1.7734943819993716 1.7763151743226564 1.7510777345359678 1.5691921274045562 1.5570534266365912 1.696392501318787 1.7618087536394247 1.6487164989768515 1.2198599023352772 0.9709200184003612 0.9956399511512901 1.46082658401972 1.864923368437929 1.8855392271699865 2.043801463611219 2.368406153373957 1.5200298266763301 1.330695494653658 1.01145097343573 0.8226530085850423 0.6262811769700081 0.48560223690781473 0.4312749944519424 0.427397095971832 0.4154849059915797 0.4675738871111229 0.4664425489739193 -9999.0 -9999.0 -9999.0 -9999.0 -9999.0 -9999.0 -9999.0 -9999.0 -9999.0 -9999.0 -9999.0 -9999.0 -9999.0 -9999.0 -9999.0 -9999.0 -9999.0 -9999.0 -9999.0 -9999.0 -9999.0 -9999.0 -9999.0 -9999.0 -9999.0 -9999.0 -9999.0 -9999.0 -9999.0 -9999.0 -9999.0 -9999.0 -9999.0 -9999.0 -9999.0 -9999.0 -9999.0 -9999.0 -9999.0 -9999.0 -9999.0 -9999.0 -9999.0 -9999.0 -9999.0 -9999.0 -9999.0 -9999.0 -9999.0 -9999.0 -9999.0 -9999.0 -9999.0 -9999.0 -9999.0 -9999.0 -9999.0 -9999.0 -9999.0 -9999.0
3.6295904996225796 3.3941580789774046 3.188544452187076 3.079877388025016 2.9659931039597525 2.784076378466153 2.6657063304603215 2.655149075122527 2.728255336318933 2.7118520704090416 2.628427510769374 2.383358561661974 2.1582543586223473 2.0987780073647904 2.043587439202316 2.0266242172618303 1.965320095452593 1.821798964630541 1.728220498963933 1.8184258746057818 2.002077926000412 2.166693808749697 2.2584068706570393 2.3106620786877294 2.3478221625887623 2.3697759341883806 2.3808423002036494 2.353443602524592 2.307819108549864 2.2058670128156654 1.9305006964813325 1.7341883912937173 1.7540650955103074 1.7592923588998275 1.5687922299038468 1.170970461688675 1.0549987004024968 1.1807727145921665 1.0861315859212988 1.0183657714968468 0.9948371075392721 0.9864205172028819 0.8914754471332473 0.6415706635921246 0.4240767987096445 0.3092089939488767 0.2509218068235201 0.2086168294478127 -9999.0 -9999.0 -9999.0 -9999.0 -9999.0 0.369256105054997 0.6506128509356888 0.52174219843214 0.4541590332912137 0.6960638714130887 0.6995401027180304 1.0061938322792088 1.1623650217577741 1.1527117305547703 1.5389640054936813 1.7789492266894011 1.77513107641768 1.9046158746201505 2.0922332940937056 2.1481397031516516 2.2003927742066196 2.2284496792950512 1.98334982288964 1.477095387947679 1.0915167816271745 1.1125232713976525 1.7879458315374501 1.8702912768011957 1.8994641170216537 2.00886225561463 2.2671545396653516 1.8278342385725799 1.3297906505452135 1.1914051421256615 0.8965601774202858 0.6286962651785342 0.4832350335615182 0.4076660862655984 0.3915671408487588 0.4441748294104445 0.45222434571479053 0.5242442530071794 -9999.0 -9999.0 -9999.0 -9999.0 -9999.0 -9999.0 -9999.0 -9999.0 -9999.0 -9999.0 -9999.0 -9999.0 -9999.0 -9999.0 -9999.0 -9999.0 -9999.0 -9999.0 -9999.0 -9999.0 -9999.0 -9999.0 -9999.0 -9999.0 -9999.0 -9999.0 -9999.0 -9999.0 -9999.0 -9999.0 -9999.0 -9999.0 -9999.0 -9999.0 -9999.0 -9999.0 -9999.0 -9999.0 -9999.0 -9999.0 -9999.0 -9999.0 -9999.0 -9999.0 -9999.0 -9999.0 -9999.0 -9999.0 -9999.0 -9999.0 -9999.0 -9999.0 -9999.0 -9999.0 -9999.0 -9999.0 -9999.0 -9999.0 -9999.0 -9999.0
3.7292045517861445 3.4510009394544183 3.169773934221344 3.0734995234052027 3.0523590829839464 2.930527914366246 2.869954796502437 2.8694387239427077 2.859689211772603 2.791771684810224 2.6131547962868895 2.405771845466162 2.1888009075622037 2.017376584986935 1.956163364205877 2.053328800069356 2.0704971214727377 2.0357462393585126 1.9359833750350401 1.950660117956197 2.040369734406194 2.152391472323879 2.253160233893133 2.3027066263261067 2.338019605521856 2.3743282872639155 2.393241233825684 2.379291986916523 2.310015279640587 2.1666693747854953 1.9790290802747266 1.8577585979223064 1.8299180969230036 1.8386797318057924 1.7417111320405592 1.453818493869824 1.5233729797797624 1.5258526159733516 1.2779301093779676 1.034436570702868 0.9875135343334576 1.002168739724007 0.9816970468840747 0.7185872736946768 0.45374752935433943 0.4087254761755022 0.379166094641475 0.3507370566798939 -9999.0 -9999.0 -9999.0 -9999.0 -9999.0 0.30361432758875617 0.6044022459218954 0.6560675106900744 0.5293250609187155 0.6168550108844506 0.7007691169447978 0.9932805926129615 1.0630733094613167 0.9583809918662654 1.410671972447926 1.7602198061055612 1.8331380658457963 2.0062904722772523 2.241987977611512 2.320519325483981 2.5689661566742465 2.6356199385980945 2.2508883668341717 1.6186857936243981 1.157458278359902 1.2943378391858753 1.8769464471199329 1.897105751489226 1.9274036257395457 2.039353161400173 2.1677246325632717 2.231486632240557 1.3076225890548996 1.2049277839779942 0.9735212015245645 0.6292525174714383 0.5489574154656829 0.4762512523474532 0.6006988260508663 0.7290032707860374 0.4939091889983964 0.446395906292802 0.3473014068187071 -9999.0 -9999.0 -9999.0 -9999.0 -9999.0 -9999.0 -9999.0 -9999.0 -9999.0 -9999.0 -9999.0 -9999.0 -9999.0 -9999.0 -9999.0 -9999.0 -9999.0 -9999.0 -9999.0 -9999.0 -9999.0 -9999.0 -9999.0 -9999.0 -9999.0 -9999.0 -9999.0 -9999.0 -9999.0 -9999.0 -9999.0 -9999.0 -9999.0 -9999.0 -9999.0 -9999.0 -9999.0 -9999.0 -9999.0 -9999.0 -9999.0 -9999.0 -9999.0 -9999.0 -9999.0 -9999.0 -9999.0 -9999.0 -9999.0 -9999.0 -9999.0 -9999.0 -9999.0 -9999.0 -9999.0 -9999.0 -9999.0 -9999.0 -9999.0
3.93512858350741 3.646295343174271 3.287669742473778 3.1003255951625466 3.0955913310188063 3.0821811544579116 3.0463291332344427 2.97404392090662 2.8955994743071747 2.742351489312196 2.5301964108998463 2.3455522078475988 2.1788589769165765 2.022989815209834 1.9707254469918305 2.0824801271270883 2.1033457494935552 2.0929597066380468 2.075736406890072 2.052253154949639 2.0568633927325815 2.1045493319959316 2.1920647367173833 2.2510776720570873 2.2786003646241046 2.317030550552748 2.3553554098096874 2.3247534206515996 2.22670796072923 2.0946468463692556 1.9905715734090526 1.98093584834673 2.021509008518303 1.9653581365271493 1.8856499066019465 1.7411755987130697 1.6275364198077045 1.5147207037768378 1.3085453647171577 0.9803936022097048 0.9636077213547061 1.0180945856296852 0.9948298352879845 0.6614817601801157 0.4371479486393161 0.4532712764296776 0.5481959376202581 0.4991182766411924 0.4133875236093576 -9999.0 -9999.0 0.10504460593885581 0.12581783813249942 0.3371235763101141 0.4430080682146159 0.5294859626146238 0.5179010105655268 0.5206682122480191 0.6540790748451752 1.0391560755284 1.0272308368771648 0.8113167337948282 0.9139544720098418 1.7044421978001754 1.7653018989862865 1.917284971990184 1.9430966192853825 1.948326901670228 2.136090298088634 2.2892723026013346 1.819208515318633 1.3727525094913477 1.1535784115013394 1.733832297036532 2.0969317785737043 1.9594227523099281 1.926213037901597 2.0184301500596424 2.1009837903869104 2.238652393064629 2.0376363114164846 0.8954240684202219 0.8235418511722332 0.7155536116516443 0.6240888036553249 0.5426385477120437 0.5410356643749106 0.5908987173340416 0.3682494822497575 0.3011964755485881 0.3269308277379894 -9999.0 -9999.0 -9999.0 -9999.0 -9999.0 -9999.0 -9999.0 -9999.0 -9999.0 -9999.0 -9999.0 -9999.0 -9999.0 -9999.0 -9999.0 -9999.0 -9999.0 -9999.0 -9999.0 -9999.0 -9999.0 -9999.0 -9999.0 -9999.0 -9999.0 -9999.0 -9999.0 -9999.0 -9999.0 -9999.0 -9999.0 -9999.0 -9999.0 -9999.0 -9999.0 -9999.0 -9999.0 -9999.0 -9999.0 -9999.0 -9999.0 -9999.0 -9999.0 -9999.0 -9999.0 -9999.0 -9999.0 -9999.0 -9999.0 -9999.0 -9999.0 -9999.0 -9999.0 -9999.0 -9999.0 -9999.0 -9999.0 -9999.0 -9999.0
4.125668083374121 3.9661539965827384 3.6449964160493296 3.3954886299034057 3.2985661602701684 3.214668817374758 3.108897232009025 3.0410982011828946 2.8423423816559743 2.5938581967427905 2.39838539172754 2.2605276334051143 2.165327358477785 2.115993323658638 2.1016621729524787 2.079443322229348 1.9212953093005856 2.013020731357096 2.0730420451309968 2.056874514576951 2.0297954936357385 2.0217784634253158 2.0656761564423056 2.112019521372705 2.149706855566424 2.200576199029959 2.2366288912004295 2.2002545360176264 2.1004752069625927 2.0004002165138255 1.9644151313501637 1.972258281491352 1.9819070379474208 1.894667187341947 1.8019135422013388 1.7420151748542707 1.6700007332671902 1.469130718803523 1.2086406756614028 0.9959242246948761 0.9916026210872722 1.0189580667945477 0.9866934572276531 0.6634498830293365 0.4725284606237698 0.5862689296237173 0.6575733953566405 0.6169956926372722 0.5769602198455068 0.1434935065513321 0.1104914301407279 0.1470335976145427 0.4297786263104813 0.4658637995752797 0.6068386236849652 0.5996586713322372 0.5605901108067644 0.5836749929161549 0.6617104755887904 0.9842518021605791 1.1528362161697798 1.1550016574348552 0.6892507679805961 1.5117456765020136 1.6122866112278074 1.5398958502716094 1.2861987568238458 1.3451077430786917 1.5228318458531442 1.6005688252291697 1.5291324606828516 1.0361653655194014 1.2202626521406386 2.1998008808679597 2.453831636908048 2.051457307420622 1.8979096217003801 1.9621527512018588 2.0793803662746844 2.1457744704946355 2.060286441198743 0.8050628285521342 0.7753110383266373 0.7641683822676879 0.721871844176807 0.5850932375305113 0.421661384631837 0.2855397799271262 0.3494748847124879 0.2480614568895334 0.2665166955030943 0.30941233983354477 -9999.0 -9999.0 -9999.0 -9999.0 -9999.0 -9999.0 -9999.0 -9999.0 -9999.0 -9999.0 -9999.0 -9999.0 -9999.0 -9999.0 -9999.0 -9999.0 -9999.0 -9999.0 -9999.0 -9999.0 -9999.0 -9999.0 -9999.0 -9999.0 -9999.0 -9999.0 -9999.0 -9999.0 -9999.0 -9999.0 -9999.0 -9999.0 -9999.0 -9999.0 -9999.0 -9999.0 -9999.0 -9999.0 -9999.0 -9999.0 -9999.0 -9999.0 -9999.0 -9999.0 -9999.0 -9999.0 -9999.0 -9999.0 -9999.0 -9999.0 -9999.0 -9999.0 -9999.0 -9999.0 -9999.0 -9999.0 -9999.0 -9999.0
4.357225650987092 4.11821474287426 4.023577011166364 3.785444141546968 3.535603421969946 3.3374552600887943 3.1631385663157356 3.003336088613605 2.641551808868275 2.3813114604652337 2.244960630037773 2.1692200558010537 2.1191786090267763 2.118590891454528 2.123030115589874 2.0542246714063133 1.6244422347348018 1.717827947768449 1.8410765351834502 1.9074459942062465 1.8783082428101505 1.902875064267364 1.9749763582644502 1.997894566039157 2.041134099284792 2.0689274973178535 2.086020901492477 2.064111062540583 2.0181550150297425 1.9539709273001211 1.9236032177459128 1.905708517663488 1.8537580102253244 1.7541771829366786 1.7264838928785387 1.7026219971802345 1.6195226045875455 1.3786457051296217 1.088444680255285 1.0096176299003408 1.0031306620106064 1.0106464375226052 0.9829280469008232 0.8272640934514424 0.6629147715548864 0.6972379276612284 0.705297075855216 0.6901134214636948 0.6541127202478723 0.12489786050944351 0.14755938388396073 0.7433917012106772 0.4455826223871316 0.590118876952193 0.8036836128163243 0.6654405966604899 0.6452757259438129 0.6604140567492534 0.7485249820735691 1.07093050712369 1.2285184949928143 1.2700305764803446 0.8436569105210319 1.2111423253764901 1.5254729182599382 1.4788341455078962 1.1231983914674213 0.7442720607423374 1.084748719487995 1.2768264642017064 1.0513082579019972 1.0140849050542131 1.5583996606605894 2.379833949786556 2.5568445498664403 2.019552756955496 1.8849842951054017 1.9543003289351866 2.0113984062631913 2.046734132283693 2.054597730447956 1.5015982105115828 0.7908913507368931 0.79049425014036 0.7210628758987103 0.6085301223330541 0.3832353474189305 0.2817613085747962 0.3430763209339353 0.313094946611635 0.2668844878457519 0.3280965145247507 -9999.0 -9999.0 -9999.0 -9999.0 -9999.0 -9999.0 -9999.0 -9999.0 -9999.0 -9999.0 -9999.0 -9999.0 -9999.0 -9999.0 -9999.0 -9999.0 -9999.0 -9999.0 -9999.0 -9999.0 -9999.0 -9999.0 -9999.0 -9999.0 -9999.0 -9999.0 -9999.0 -9999.0 -9999.0 -9999.0 -9999.0 -9999.0 -9999.0 -9999.0 -9999.0 -9999.0 -9999.0 -9999.0 -9999.0 -9999.0 -9999.0 -9999.0 -9999.0 -9999.0 -9999.0 -9999.0 -9999.0 -9999.0 -9999.0 -9999.0 -9999.0 -9999.0 -9999.0 -9999.0 -9999.0 -9999.0 -9999.0 -9999.0
4.519240414889317 4.277886846171895 4.133938008290899 4.016906638803551 3.735934283304023 3.378641901924262 3.0771946406462276 2.764266634110114 2.36472842474357 2.172289506542428 2.1250046165121588 2.0684444574805045 2.0307168218842895 2.0685044929953627 2.1147858292040618 2.101360980033689 1.939273872871736 1.7971716643159734 1.7768105409219437 1.8037697493568592 1.8171875976290897 1.8657487414709433 1.977790748100444 2.0096555846810866 2.04381812874496 2.057744943487163 2.069223122210101 2.0805807991889855 2.076805885809454 2.0512059008983456 2.049493996572647 2.0029468041700222 1.935770994419987 1.8880018072218208 1.8451075163140762 1.7625619165749165 1.614785521659187 1.3533166718220504 1.0816836668485155 1.0370586285456869 1.015085781196836 1.009670865003046 0.9971738864970501 0.9599697275683108 0.9149301281355018 0.9063103928777003 0.8581840098898665 0.8250904931771001 0.7698762496735494 0.2070133904321604 0.7409134751028004 0.9316592858642887 0.5042795879642077 0.7778409716990233 0.8508559462382357 0.7635549759355833 0.7023300614475931 0.6664615424529412 0.7906019405575011 1.1714933428295913 1.2572031216302328 1.1586365223358566 0.8341218958296792 0.7774876441907235 1.487591743594921 1.4730063211432884 0.6929883218262329 0.6390387550532153 0.996884506228138 1.0990569232873038 1.078551820128306 1.2877458454101072 1.7965415976792802 2.6557977417035876 2.6626451078579016 1.943470404431829 1.7854905285615978 1.880129057819985 1.9634471158580669 2.0145071120118168 2.0147438576652448 1.909764141386957 0.8392618472083391 0.8200801396683324 0.726707457223466 0.6295251031707976 0.4542558462951261 0.3391838612262425 0.2909137083415547 0.30107949504175 0.2906681255211012 0.28343695769550215 0.3239109555000334 -9999.0 -9999.0 -9999.0 -9999.0 -9999.0 -9999.0 -9999.0 -9999.0 -9999.0 -9999.0 -9999.0 -9999.0 -9999.0 -9999.0 -9999.0 -9999.0 -9999.0 -9999.0 -9999.0 -9999.0 -9999.0 -9999.0 -9999.0 -9999.0 -9999.0 -9999.0 -9999.0 -9999.0 -9999.0 -9999.0 -9999.0 -9999.0 -9999.0 -9999.0 -9999.0 -9999.0 -9999.0 -9999.0 -9999.0 -9999.0 -9999.0 -9999.0 -9999.0 -9999.0 -9999.0 -9999.0 -9999.0 -9999.0 -9999.0 -9999.0 -9999.0 -9999.0 -9999.0 -9999.0 -9999.0 -9999.0 -9999.0
4.582534361222706 4.402542566006706 4.270423241910852 4.102405716460233 3.819335121738843 3.2526968277285544 2.950786824950327 2.6304896941826916 2.31224017761589 2.162633931878375 2.0964422115936396 2.0203138090646875 1.9771152389414972 1.9840517640103168 2.050888574215939 2.07941402733739 2.06465659978618 2.044938012891252 2.007918857157194 1.9930562700463041 1.998363020326197 2.0120582308539583 2.0149487074959267 2.028579490337803 2.075640838670172 2.2421958763401086 2.437646511615798 2.456388920368486 2.4835258486025418 2.4553537153295073 2.4147546401871036 2.321324954216512 2.1805989140459316 2.1206279833513775 2.080286185466563 2.004943972094767 1.781654121217769 1.4939555998222669 1.214556606723362 1.0929033107078656 1.071881857548562 1.031401911996007 1.0124215325671035 1.0275891011840297 1.038393485969107 1.0410827916002188 1.043051055200972 1.0528229975000511 1.0236520491086811 0.5034219816201304 0.7782402012586398 0.8838274350329569 0.7844721775958514 0.8574388541520555 0.8376932004821456 0.7719746608391898 0.7544777016916455 0.7091324921867965 0.883189444062441 1.1666530817936283 1.316191273082434 1.0799216992612801 0.894126670360412 1.0611576684695478 1.4606295291946843 1.4648506160952302 0.9109232288219993 0.9884052618842207 1.114972540984854 1.0166258986501613 1.067035272717102 1.4526675504066349 1.8962109459037664 2.764462947375104 2.772257263084955 1.797106506114778 1.69870331077665 1.8469613527909912 1.973915539380572 2.018531657291096 2.031052212948553 2.0201695328550384 1.807449836370794 0.9084213933687584 0.8109398394347986 0.6760669291902894 0.49330827518800163 0.3850419909540748 0.3267697305646849 0.2644140557482999 0.3566831285413498 0.2809668871907506 0.3333874081683519 0.1687658818493894 -9999.0 -9999.0 -9999.0 -9999.0 -9999.0 -9999.0 -9999.0 -9999.0 -9999.0 -9999.0 -9999.0 -9999.0 -9999.0 -9999.0 -9999.0 -9999.0 -9999.0 -9999.0 -9999.0 -9999.0 -9999.0 -9999.0 -9999.0 -9999.0 -9999.0 -9999.0 -9999.0 -9999.0 -9999.0 -9999.0 -9999.0 -9999.0 -9999.0 -9999.0 -9999.0 -9999.0 -9999.0 -9999.0 -9999.0 -9999.0 -9999.0 -9999.0 -9999.0 -9999.0 -9999.0 -9999.0 -9999.0 -9999.0 -9999.0 -9999.0 -9999.0 -9999.0 -9999.0 -9999.0 -9999.0 -9999.0
4.578080886425537 4.422985332585417 4.348166098612798 4.1794885636132175 3.708463651581472 3.0914944018684043 2.971270247590498 2.718541813595015 2.474450294588508 2.291980693356457 2.156110733492142 2.033111070248531 1.959877401030993 1.937456091317608 1.9277414176203185 1.955967168782461 1.9863325708446753 1.9953675929934653 1.974611317830452 1.9734813258705817 2.0120004239783413 1.9927239464877924 1.9274099683126678 1.9201042583682033 2.1503225427371357 2.444894708298023 2.615457473359499 2.7616913049868836 2.701131409042286 2.5473256275335667 2.440225406742906 2.376496592852414 2.31787153872389 2.234212012643188 2.1523249695657687 2.0721845560880485 2.002377446155521 1.7469295778723577 1.4928455487786092 1.3474140278529356 1.2897144185873928 1.1999731854676912 1.1207137338067528 1.1055303341251184 1.0993352394134865 1.1071194597826637 1.139805392362626 1.1924680761925022 1.2196351647755284 0.6250258896013201 0.6790806796213709 0.954618844795383 0.921739228795933 0.8657402313509341 0.8800279755837968 0.8311288218037547 0.8289253563445527 0.8918666614981068 0.9886175762155214 1.0869951499527744 1.175560145869974 1.1991353283126878 1.1832938617948663 1.277953048487904 1.4303244211108344 1.4770683491591259 1.273601287202133 1.0585955221024892 1.0230339422024923 0.9365388946964626 0.937599327087961 1.2478132608329213 1.918558459769436 2.745828105687138 2.707502354899361 1.7533650720152028 1.749432137234801 1.9100238765832505 2.0290831734288775 2.0530706048542373 2.0593872471269816 2.1089743228019975 2.0462228723126934 1.1870502346416925 0.7873379659652711 0.708196329415069 0.5163583995668795 0.385395990492668 0.3593207364468578 0.343686587647503 0.3974031879177831 0.3495087865290264 0.3278978892701564 0.3372125588225192 -9999.0 -9999.0 -9999.0 -9999.0 -9999.0 -9999.0 -9999.0 -9999.0 -9999.0 -9999.0 -9999.0 -9999.0 -9999.0 -9999.0 -9999.0 -9999.0 -9999.0 -9999.0 -9999.0 -9999.0 -9999.0 -9999.0 -9999.0 -9999.0 -9999.0 -9999.0 -9999.0 -9999.0 -9999.0 -9999.0 -9999.0 -9999.0 -9999.0 -9999.0 -9999.0 -9999.0 -9999.0 -9999.0 -9999.0 -9999.0 -9999.0 -9999.0 -9999.0 -9999.0 -9999.0 -9999.0 -9999.0 -9999.0 -9999.0 -9999.0 -9999.0 -9999.0 -9999.0 -9999.0 -9999.0 -9999.0
4.576543535740578 4.389189022175524 4.294350683662922 4.07644075102902 3.3957631116663265 3.0721650985838163 3.034281142046488 2.8693225993987 2.6770493248247402 2.4719589611156834 2.274397237481768 2.098819162927653 1.9767508096853033 1.910083765695808 1.8654933329059546 1.8317292412734028 1.8037181172410957 1.7703972437698745 1.7170977904384521 1.7191361709678554 1.8689122922842591 1.9533844927881652 1.97533801344132 2.0987495192774492 2.357760104441855 2.618525807999686 2.871251530478056 3.0441616533502165 2.9378462335062925 2.522146978400744 2.39637916227299 2.382816898655106 2.388158790860582 2.329244034993296 2.212074981054797 2.08510481640449 2.069503711033644 1.9923576802428185 1.7640044474828684 1.660426338485494 1.6576632424067441 1.5938336978397656 1.3562949866728793 1.1965329914112601 1.1540904868555926 1.157762540313991 1.21766339947965 1.2954145220128928 1.3561065743515417 0.8740360615752953 0.5837828417893156 0.9258917698071967 0.9802665481508843 0.9271644987736807 0.9281470927053455 0.8644411813785342 0.8791675558701784 0.9596567529031328 1.0516740594314624 1.0186201738849703 1.1021345183453242 1.2997612409139956 1.3511786646839214 1.3065561965843306 1.3889794155033124 1.5008330363448266 1.3578674785285338 0.9733655356215063 0.9343964094558685 0.9714930936542991 0.9272858002067221 0.9513011320249143 1.654072957542602 2.8148298156055964 2.8424387349440283 1.905056290261909 1.9115145804540732 1.9469695262589222 2.0793320524038132 2.1796921688400483 2.147337978406807 2.1893495686598015 2.1569913302630543 1.6970086215876972 0.7543739836234533 0.7330598887399009 0.6036332461449936 0.4051922048421907 0.4035986490101533 0.3826919994500791 0.3465617022558242 0.3573262007130145 0.3232291721376368 0.3292333853244781 0.22802710624141162 -9999.0 -9999.0 -9999.0 -9999.0 -9999.0 -9999.0 -9999.0 -9999.0 -9999.0 -9999.0 -9999.0 -9999.0 -9999.0 -9999.0 -9999.0 -9999.0 -9999.0 -9999.0 -9999.0 -9999.0 -9999.0 -9999.0 -9999.0 -9999.0 -9999.0 -9999.0 -9999.0 -9999.0 -9999.0 -9999.0 -9999.0 -9999.0 -9999.0 -9999.0 -9999.0 -9999.0 -9999.0 -9999.0 -9999.0 -9999.0 -9999.0 -9999.0 -9999.0 -9999.0 -9999.0 -9999.0 -9999.0 -9999.0 -9999.0 -9999.0 -9999.0 -9999.0 -9999.0 -9999.0 -9999.0
4.5565821957413 4.29167850967957 4.112136252186598 3.740494047077826 3.246147843225875 3.0720356693921045 3.062646514128786 2.994719999804536 2.8594621202091015 2.6436849682081247 2.3903254974450276 2.175022500226985 2.0395310220494265 1.940803546251524 1.8733588431418116 1.8178833784664883 1.7765562494567861 1.748221615513634 1.7155564327243944 1.696846376420057 1.7843358545735164 1.986108645158068 2.1676984060469344 2.3364513170882972 2.481256522058287 2.7539570075887037 2.985815339117115 3.115716320643816 3.1023675232034336 2.7827551941673105 2.5375223552181088 2.5817065687793757 2.5220022823680934 2.4005106098030287 2.2159666742937083 2.0978244428105426 2.0839993166844106 2.06936293912256 1.863207729194918 1.8312709950594301 1.8890440609512968 1.820275883351838 1.519151331831823 1.2455970752555106 1.1563362816224734 1.1558599661907842 1.2228957062548578 1.317304615517819 1.3998829710005791 1.4107367669204456 0.6416570461396398 0.7607796144091814 0.9761262602781231 0.9503219075143541 0.921738512514295 0.8614131281957627 0.9436573615525896 1.0409788788578287 1.101627641836896 1.0744089150065275 1.1599336153156898 1.247093545372062 1.3419668546699868 1.338656516694394 1.4261981636640482 1.5691864965137086 1.6780723941828437 1.2875427683442808 1.0490824447385985 0.9894261575318555 1.0228470369077087 1.0448179002371671 1.303055592613681 2.1719475624987346 2.434951177351092 2.014004091793879 1.7289856872834584 1.874743460692153 2.076749707234897 2.2853140661038323 2.219975111815516 2.164302993091583 2.1519720689719386 1.9925023046330064 0.8505521608509519 0.7917904728737855 0.726765696479547 0.4688355353718059 0.4029491138246913 0.3833189996404115 0.3220363115924892 0.3551084074687767 0.36318886489955643 0.3353999077092042 0.3827442187703516 -9999.0 -9999.0 -9999.0 -9999.0 -9999.0 -9999.0 -9999.0 -9999.0 -9999.0 -9999.0 -9999.0 -9999.0 -9999.0 -9999.0 -9999.0 -9999.0 -9999.0 -9999.0 -9999.0 -9999.0 -9999.0 -9999.0 -9999.0 -9999.0 -9999.0 -9999.0 -9999.0 -9999.0 -9999.0 -9999.0 -9999.0 -9999.0 -9999.0 -9999.0 -9999.0 -9999.0 -9999.0 -9999.0 -9999.0 -9999.0 -9999.0 -9999.0 -9999.0 -9999.0 -9999.0 -9999.0 -9999.0 -9999.0 -9999.0 -9999.0 -9999.0 -9999.0 -9999.0 -9999.0 -9999.0
4.325268640682487 4.089082888331436 3.802941872867019 3.4410709122888865 3.167241373905036 3.072165823437243 3.067032750836258 3.033663585917835 2.9476981545769663 2.7304938112694845 2.44489248218941 2.213310062735559 2.0837354472237424 1.9964936265514424 1.9487164507069585 1.9191865741850969 1.9061376900391132 1.9101822496241985 1.8641869776889584 1.7897564387578964 1.8653603378179722 2.114913437483653 2.345464857431372 2.454015016355355 2.54223704048108 2.821885001684103 3.0573301289897756 3.129822265427384 3.117792070185268 3.065372810512186 2.9230707993080314 2.807023586350738 2.650587568510761 2.434537829401427 2.2573874941208882 2.141932244487232 2.0901005302583897 2.0526004017719743 1.9104893377477088 1.8980209005999569 1.940906505284461 1.8707952713670732 1.49833059380818 1.1916974772258824 1.1175227128593348 1.1273730463997573 1.1881539606677105 1.2804896534226864 1.3629848478389464 1.3806770660231076 0.7518388332293915 1.0242549224465671 1.0426587691237104 0.9729885486641872 0.9460717154766192 0.8772017729021839 0.9787348882773836 1.0500415507300487 1.0751534687826956 1.0426487401368816 0.9925241869825698 1.0791197695448442 1.1223092859632797 1.4156495897467876 1.4944736105165088 1.5261780549160162 1.692835557449029 1.663533105711203 1.2386469922402743 0.9911552910320676 1.0284384840460434 1.1496865854340081 1.3839158035805925 2.123286862303988 2.398241741828763 1.8451029328160757 1.5074717075691917 1.5617424335629473 1.9231921297643564 2.239694004658472 2.13597874686888 2.040601018467172 2.09956851042573 2.1054638983607608 1.8498323896171307 1.089855301155252 0.838765259617344 0.6299796252923839 0.4419353059954507 0.3893984269172949 0.33238154044789553 0.3329116850275984 0.3430097368407699 0.3316854088342745 0.3679065395674437 0.3734988337552561 -9999.0 -9999.0 -9999.0 -9999.0 -9999.0 -9999.0 -9999.0 -9999.0 -9999.0 -9999.0 -9999.0 -9999.0 -9999.0 -9999.0 -9999.0 -9999.0 -9999.0 -9999.0 -9999.0 -9999.0 -9999.0 -9999.0 -9999.0 -9999.0 -9999.0 -9999.0 -9999.0 -9999.0 -9999.0 -9999.0 -9999.0 -9999.0 -9999.0 -9999.0 -9999.0 -9999.0 -9999.0 -9999.0 -9999.0 -9999.0 -9999.0 -9999.0 -9999.0 -9999.0 -9999.0 -9999.0 -9999.0 -9999.0 -9999.0 -9999.0 -9999.0 -9999.0 -9999.0 -9999.0
4.125337016926001 3.921265074083796 3.537991678985773 3.3118403339877793 3.1724892292699156 3.096706300629944 3.0708385917477443 3.0492960512918996 2.9216746559093028 2.6861650777540103 2.4178399049107115 2.215089863030611 2.125634730608073 2.082113707893556 2.069346964495691 2.0913241966617666 2.1315387328809976 2.1659827606659436 2.0951156507634208 1.9768533813548308 2.0049593246898834 2.2659964211128325 2.522155246205608 2.506911514158454 2.553954585722009 2.899991897125216 3.091070376775549 3.1411005727755255 3.141625095317583 3.116206708636778 3.102197624840141 3.024044097632467 2.821808053843476 2.57618127119944 2.383234089075811 2.2495882385751758 2.1666979726645796 2.091127223334006 2.0135314577092247 1.9829034772260612 1.9721049828486386 1.9070921676740116 1.5241850581070928 1.2042737113392517 1.128620354321765 1.1450413456822928 1.2093065517283101 1.2707164720611348 1.3297392398177121 1.345759581922832 1.3328000049134257 1.190859151282555 1.2479775254148822 1.1928540846374849 1.0655691354612873 0.968882736003728 0.9725239934201944 0.9927425544348072 1.010113551322196 0.8409610568577508 0.6168958773899555 0.6875842834298254 1.0500946420379424 1.1747616256213123 1.5003074755777672 1.617944274861473 1.6127438643421115 1.554854180169415 1.3976580098941642 1.127843053667144 1.1305351060895374 1.2072612464863093 1.4594086664154566 2.4251438857718295 2.4777078910149712 1.7569748030457393 1.5378075315380715 1.5896591294963325 1.8710232308850356 2.125652142821327 2.066459612810052 1.9904965811433721 2.0032578401995678 2.0870243078684303 2.1649219151064485 1.6121399086157824 1.6529345236685835 0.7261532354076108 0.5770646272287778 0.4276949717395408 0.33082681847767953 0.2728437902501597 0.2386250470383088 0.3273398228842627 0.38395397710639423 0.4724502867448969 0.07044991365523691 -9999.0 -9999.0 -9999.0 -9999.0 -9999.0 -9999.0 -9999.0 -9999.0 -9999.0 -9999.0 -9999.0 -9999.0 -9999.0 -9999.0 -9999.0 -9999.0 -9999.0 -9999.0 -9999.0 -9999.0 -9999.0 -9999.0 -9999.0 -9999.0 -9999.0 -9999.0 -9999.0 -9999.0 -9999.0 -9999.0 -9999.0 -9999.0 -9999.0 -9999.0 -9999.0 -9999.0 -9999.0 -9999.0 -9999.0 -9999.0 -9999.0 -9999.0 -9999.0 -9999.0 -9999.0 -9999.0 -9999.0 -9999.0 -9999.0 -9999.0 -9999.0 -9999.0 -9999.0
4.058743492479896 3.770624036271272 3.458087265587415 3.2920639320243956 3.1861671448966216 3.1248165265154957 3.072391119367807 3.047778493131256 2.9344915874623356 2.632689660655557 2.327648174064625 2.1669020736835862 2.1311304841727416 2.137504825859668 2.19539076575645 2.266822307289384 2.331211778356485 2.34979791386193 2.25558625224339 2.0879373674412602 2.0987310224418008 2.4191782901495045 2.6391496968788335 2.7095593278653576 2.8207883548835646 3.049415960758213 3.2399594122368724 3.3069842713113258 3.313603975050843 3.2897926171363294 3.2481366798580615 3.162831691444604 3.043470269193098 2.8207793079749077 2.591667514557904 2.4340533952435233 2.2474544969050556 2.1644224105559906 2.094056592746489 2.059163271309368 2.0540794905203485 2.013256778152726 1.660309676794123 1.3271789021815892 1.2395756580532584 1.2575125228512682 1.2919091990098746 1.316366231625816 1.337002881351202 1.3354200167169485 1.3295360851710825 1.3328574510782827 1.3899682704765604 1.2961913792093143 1.1731791270467704 1.0676267388070024 1.014744379528941 0.9847663660598063 0.9851985038897557 0.9173287941883637 0.6814933138629473 0.7615819723932269 1.2842031409914154 1.136984972552864 1.3852043377139929 1.6074404014095351 1.59331278211275 1.4310463666471116 1.3744746036775335 1.2581032331565138 1.1909324727584425 1.1733747258711396 1.3130329635054314 2.382032797267597 2.3614557141793036 2.1888261668572486 1.9898943599822445 1.8432441699677868 1.933585629596397 2.1105794710863397 2.093516115023232 2.011710126236025 1.9662877621494352 1.993406148905944 2.2380171887200895 1.959053518483504 1.7094238942211513 1.0119500212747243 0.632812187333446 0.46958391986009 0.3125682882168254 0.2565742140291237 0.2477031187251758 0.3488243766489661 0.4099331787104286 0.4672403747207135 0.4582878843811134 -9999.0 -9999.0 -9999.0 -9999.0 -9999.0 -9999.0 -9999.0 -9999.0 -9999.0 -9999.0 -9999.0 -9999.0 -9999.0 -9999.0 -9999.0 -9999.0 -9999.0 -9999.0 -9999.0 -9999.0 -9999.0 -9999.0 -9999.0 -9999.0 -9999.0 -9999.0 -9999.0 -9999.0 -9999.0 -9999.0 -9999.0 -9999.0 -9999.0 -9999.0 -9999.0 -9999.0 -9999.0 -9999.0 -9999.0 -9999.0 -9999.0 -9999.0 -9999.0 -9999.0 -9999.0 -9999.0 -9999.0 -9999.0 -9999.0 -9999.0 -9999.0 -9999.0 -9999.0
3.964204666116764 3.753138460180011 3.509188378001482 3.3070249747500124 3.177909143682434 3.1189836115512537 3.0669511830319576 3.0134971476138284 2.8351756054091903 2.4949431420831316 2.2227410809948815 2.1262779622651196 2.13112392172393 2.185982325556358 2.2735977064383746 2.3568673532991418 2.4296679789936904 2.4746034066938347 2.425299962033506 2.2620566582106805 2.331001703386119 2.646488530090242 2.7356808961683496 2.759535311665197 2.904227552663944 3.1371128177888488 3.3718428394613666 3.515315985234604 3.583871280888304 3.5065214307800012 3.378216040783905 3.2505284448921477 3.1328580972767424 3.0679227219474683 2.9430925040433205 2.8014113357629515 2.61674021572058 2.438652294741259 2.281775576318799 2.172400390863312 2.1026315118933723 2.0776449969366286 1.8533561959510845 1.5776290456916056 1.4655889848056536 1.5215589292591558 1.5741634803550781 1.5280036848852065 1.4358748838111404 1.3588804231890426 1.3313130625568719 1.5069683094105197 1.458959970884838 1.4079699924690294 1.3464314202670573 1.2081456563604247 1.1101477927675223 1.1392176403930465 1.104268796869214 1.0883784382827348 1.2015728883884342 1.219037569460422 1.239260834231623 0.4498689769721518 0.4027695743624371 1.1045552511111776 1.3059264115304763 1.470779986660139 1.3828027992740066 1.2783541504903884 1.1133564837447316 0.9718197683952581 1.2207891884932367 1.7913088656880263 2.251730044067886 2.2765612497164502 2.3247830473972937 2.3023807744569944 2.282344381756058 2.259220537451878 2.1127155258593433 2.00555145008102 1.958656056218453 1.9667064583211105 2.079776039467152 2.0865874597225855 1.801555043278568 1.7002357425068695 0.9168852731225641 0.6137858965906458 0.3221120996012487 0.234204859831639 0.2570962658451401 0.2743602375553124 0.2823297208510983 0.390141684423065 0.3980599234721879 0.1960667016443298 -9999.0 -9999.0 -9999.0 -9999.0 -9999.0 -9999.0 -9999.0 -9999.0 -9999.0 -9999.0 -9999.0 -9999.0 -9999.0 -9999.0 -9999.0 -9999.0 -9999.0 -9999.0 -9999.0 -9999.0 -9999.0 -9999.0 -9999.0 -9999.0 -9999.0 -9999.0 -9999.0 -9999.0 -9999.0 -9999.0 -9999.0 -9999.0 -9999.0 -9999.0 -9999.0 -9999.0 -9999.0 -9999.0 -9999.0 -9999.0 -9999.0 -9999.0 -9999.0 -9999.0 -9999.0 -9999.0 -9999.0 -9999.0 -9999.0 -9999.0 -9999.0 -9999.0
3.9988094514281767 3.8473816271556567 3.6194520553579586 3.3521289195711796 3.185444241395586 3.124816484342309 3.045944688086756 2.8479498641303596 2.538500628670251 2.2757834042691596 2.1568848383000874 2.1226071970104923 2.136769958191634 2.198288241629272 2.267506042409543 2.331087623649016 2.4236552885659597 2.5139132991551736 2.5542873415368588 2.55320736614197 2.6696933961974296 2.7746258990632486 2.7524845474243715 2.7554428189849043 2.953492570594401 3.1972324283596953 3.5242402095740735 3.7774383870334227 3.910946088308863 3.7807184106035367 3.5694276512160283 3.3531729479982593 3.170200505551895 3.1472101175378424 3.160306975092697 3.044574904001964 2.8224507864514536 2.579668259308647 2.3954000178599433 2.268612225921792 2.156248423356969 2.089979582350023 2.0140875479391838 1.8173589744175604 1.7679293097345021 1.84343850051417 1.9231519435208961 1.8322752710934913 1.6507661144667016 1.494705012103869 1.430273069811533 1.5594406117096014 1.637151939687571 1.561624575440599 1.555530719960914 1.4448455597156784 1.3667602638091045 1.374581514652092 1.2763655211149296 1.2194835263778503 1.2424312063714134 1.0555455336001545 0.8287186552174395 0.1450841482222186 0.33959369389648253 0.48802423461765393 1.1713334589980198 1.563557419686101 1.4381893336424012 1.2863865287982843 1.0961051427328719 0.8685734617910414 1.0496419902560314 1.3857586732536096 1.624022058657651 2.1971942387827244 2.2986099298058673 2.3995081802660616 2.512507555950125 2.4701150796636706 2.174228525021031 1.9649389554188137 1.9174795818328854 1.94741518873378 1.99336851608036 2.1486773564139225 1.998307502339263 1.7757891503051995 1.6769905324979921 1.3009478221726276 0.3751087626458363 0.2703279437773413 0.3143738451737798 0.2783836340077052 0.2775798595952374 0.3934914230054658 0.3103353518829669 0.3178128265077345 -9999.0 -9999.0 -9999.0 -9999.0 -9999.0 -9999.0 -9999.0 -9999.0 -9999.0 -9999.0 -9999.0 -9999.0 -9999.0 -9999.0 -9999.0 -9999.0 -9999.0 -9999.0 -9999.0 -9999.0 -9999.0 -9999.0 -9999.0 -9999.0 -9999.0 -9999.0 -9999.0 -9999.0 -9999.0 -9999.0 -9999.0 -9999.0 -9999.0 -9999.0 -9999.0 -9999.0 -9999.0 -9999.0 -9999.0 -9999.0 -9999.0 -9999.0 -9999.0 -9999.0 -9999.0 -9999.0 -9999.0 -9999.0 -9999.0 -9999.0 -9999.0 -9999.0
4.0508110315081325 3.9101658124013596 3.734763490683722 3.465474257852756 3.2448584432748913 3.137874448689468 2.984124310541137 2.635536355868902 2.304887005212834 2.195349597204976 2.1434579848646504 2.133525528446071 2.1580003848922833 2.2219702129505396 2.276664022716263 2.3105055225140236 2.34657327184733 2.490979231905154 2.6212143131100527 2.6670225258722606 2.738140460355033 2.803894866991674 2.806374304902187 2.8789384807031446 3.074754709446994 3.32839033463992 3.680792484987093 3.988971455872016 4.077958041211735 4.003069146580959 3.798816167681276 3.5115198457227064 3.209217332322791 3.147649187379432 3.137812200300473 3.043429426550452 2.8119204537362523 2.573398639344948 2.4088619619404796 2.3287810383595104 2.2191262251405726 2.093630533645882 2.059153719422631 2.016442230843209 1.9868102977985644 2.0319166873900776 2.0579928695748655 1.996078489444545 1.850114671290108 1.694792009807784 1.637166157266761 1.691897446370835 1.743350069740243 1.7717228864761176 1.7678661331022567 1.7141268249996977 1.6213853917547276 1.5661413275559644 1.5211755486413987 1.2917606947251281 1.1461843756685484 0.9702848193727072 0.2366064498623412 0.08014213089045741 -9999.0 -9999.0 0.3467042022931413 1.2212650494965263 1.5186547164269457 1.6019697058510671 1.2771838353698926 0.8547506310215027 0.7314578084800056 1.0993005843651804 1.156130856529824 1.5425269528182375 2.1345822009447257 2.38931339228071 2.676195477094162 2.614377797544304 2.253029267245216 2.0057511277718367 1.9119990172702392 1.9658040049600096 2.115481208166449 2.254720790304348 2.126420503612759 1.840197236116499 1.7295146594419317 0.5471405919943546 0.4147363925195351 0.3523798939813483 0.3430429268000728 0.3441314545093995 0.332526464149065 0.3873853184975216 0.3902375567536655 0.4477629273130315 0.4439844691877649 -9999.0 -9999.0 -9999.0 -9999.0 -9999.0 -9999.0 -9999.0 -9999.0 -9999.0 -9999.0 -9999.0 -9999.0 -9999.0 -9999.0 -9999.0 -9999.0 -9999.0 -9999.0 -9999.0 -9999.0 -9999.0 -9999.0 -9999.0 -9999.0 -9999.0 -9999.0 -9999.0 -9999.0 -9999.0 -9999.0 -9999.0 -9999.0 -9999.0 -9999.0 -9999.0 -9999.0 -9999.0 -9999.0 -9999.0 -9999.0 -9999.0 -9999.0 -9999.0 -9999.0 -9999.0 -9999.0 -9999.0 -9999.0 -9999.0 -9999.0 -9999.0
4.062633267681338 3.9012632307127237 3.7216732671570427 3.5154147625528727 3.29043034391947 3.098246668608942 2.971962952938981 2.5683490828511166 2.29347125028653 2.2022202702729285 2.155372249845311 2.1466338318105183 2.18771808097295 2.280768703218349 2.377850643831183 2.4156187320864615 2.3781634038931876 2.397100392906801 2.527587183348157 2.6566593440346895 2.739138696345109 2.8479084193089528 2.969058563175781 3.084265993490407 3.1908724849065977 3.4375577548841134 3.7610021454188733 4.038429477925163 4.118646550513882 4.107207031082982 4.0094505471073445 3.7526308322582147 3.333547241698297 3.1339773981263663 3.1008430628562555 2.950347800004225 2.6950814399862018 2.480792717697001 2.376261101487304 2.3590003685320404 2.294245298051687 2.1745658782749446 2.0892162430269043 2.068915092399688 2.058740230039235 2.088608641928603 2.082547703254896 2.0496043736441667 1.986037137206661 1.8826959471873936 1.8186746104702431 1.8332921871407655 1.8783022431860266 1.899200137899659 1.8840093691511537 1.872250685199441 1.839743754440113 1.802716582344291 1.6540984596755746 1.4382535165696404 1.153609285082962 0.5074836291137768 0.14926149138274453 0.08666883629422661 -9999.0 -9999.0 -9999.0 0.4291459333723361 1.3488533284011885 1.624209197955202 1.5958029302979526 1.2256956607362424 0.8266839998977444 0.9324732451314235 0.9491972392450521 1.2103768245589437 1.9562065953798624 2.1339402043518323 2.4509916405293724 2.4744493632843128 2.3475501549820925 2.097209688369084 2.0269891367155117 2.0959251375984262 2.1275917020214825 2.2746345999584276 2.256871757526235 1.8604476945174189 1.6894038742730684 0.8874667018936053 0.4782076816925497 0.3739962431087034 0.24576847404267801 0.3410722006997755 0.3657976555928879 0.4101816148914677 0.4502750978436976 0.4709214950664547 0.479199179226329 -9999.0 -9999.0 -9999.0 -9999.0 -9999.0 -9999.0 -9999.0 -9999.0 -9999.0 -9999.0 -9999.0 -9999.0 -9999.0 -9999.0 -9999.0 -9999.0 -9999.0 -9999.0 -9999.0 -9999.0 -9999.0 -9999.0 -9999.0 -9999.0 -9999.0 -9999.0 -9999.0 -9999.0 -9999.0 -9999.0 -9999.0 -9999.0 -9999.0 -9999.0 -9999.0 -9999.0 -9999.0 -9999.0 -9999.0 -9999.0 -9999.0 -9999.0 -9999.0 -9999.0 -9999.0 -9999.0 -9999.0 -9999.0 -9999.0 -9999.0 -9999.0
4.067581427114382 3.8989299614935606 3.713093936181616 3.530551408560711 3.2532134617698345 3.107972059738493 3.024339309819873 2.5690859144788365 2.363450450378956 2.272470329762217 2.1984228800231884 2.169580575228519 2.229818360822298 2.4012606419480917 2.553982012928196 2.6550674579825064 2.624860614550521 2.429949064773138 2.4042447699854956 2.543834859733224 2.751117329688326 2.952780099729964 3.0754137998226296 3.1242257604258716 3.222736400396269 3.4881664948186746 3.7837730124133286 4.036362988368384 4.141028518177862 4.171049663022739 4.146624818058813 4.03880709258824 3.672985159860125 3.3093143290903977 3.113235062313208 2.8311615105040517 2.598301596966747 2.44678022882322 2.384578554684677 2.3886066385377003 2.3718942597066723 2.289521337936853 2.191109741180112 2.1362646660540454 2.150874703543837 2.2224851528021006 2.21688193756991 2.119644583821153 2.075978500588928 2.0154799218044586 1.9462189932366825 1.9212929207974556 2.119003913033974 2.1113041702811404 1.966006061024019 1.9574297611413036 2.0696930848062047 1.9556506229330697 1.7097929860731222 1.2671407037142837 0.4092887205784277 0.12782418852424 0.15428275036011052 0.08453439590259501 -9999.0 -9999.0 -9999.0 -9999.0 0.3156906995449763 1.4673218868510978 1.5358017249184805 1.4886609796595984 1.1922435772450262 1.1413856365740065 1.1835474383735143 1.2299137798557092 1.6480248389095988 1.662670034286919 1.6119346752234913 2.1973653753324704 2.5167415689488073 2.53719738088894 2.2599082823799836 2.199657251222701 2.1787032284584247 2.26419273397403 2.325648604502753 2.1049979545519113 1.6957717707137692 1.5621733878472204 0.5519292493779047 0.36385078205934573 0.2327771780968001 0.2948846720209286 0.4500752848272594 0.5080795285776483 0.5900572194777647 0.653416684227188 0.7126990586603064 0.6095125040965497 -9999.0 -9999.0 -9999.0 -9999.0 -9999.0 -9999.0 -9999.0 -9999.0 -9999.0 -9999.0 -9999.0 -9999.0 -9999.0 -9999.0 -9999.0 -9999.0 -9999.0 -9999.0 -9999.0 -9999.0 -9999.0 -9999.0 -9999.0 -9999.0 -9999.0 -9999.0 -9999.0 -9999.0 -9999.0 -9999.0 -9999.0 -9999.0 -9999.0 -9999.0 -9999.0 -9999.0 -9999.0 -9999.0 -9999.0 -9999.0 -9999.0 -9999.0 -9999.0 -9999.0 -9999.0 -9999.0 -9999.0 -9999.0 -9999.0 -9999.0
4.08658184431523 3.9138313468492587 3.7066008276391806 3.4968385997952147 3.2289817767947278 3.1144877043378596 3.007430846863085 2.6194357270908015 2.477393702105405 2.4164596222548393 2.327187629692426 2.2700001447760267 2.3698743340685486 2.5740191155049827 2.770301878494725 2.9162534729101726 2.9518381809794136 2.7433325363803447 2.462655225188117 2.541658342303764 2.805269954881314 3.0279290646347414 3.0868601751343276 3.140339691733543 3.2732359561398345 3.5116246696742928 3.7776118876776996 4.018702867685903 4.160886638812318 4.261800847583929 4.293512605329572 4.186453794383535 3.941818020946594 3.515720684858057 3.110938530463281 2.809665346075508 2.6732351967250736 2.5614404364747276 2.527078570343908 2.521541703714802 2.4941900515792415 2.419084230906483 2.3159144588649307 2.2461462590379466 2.258158561857472 2.305803271944452 2.323253494625349 2.272213950154257 2.1878920350612012 2.0873444245507096 2.027962529793007 2.0406368109699793 2.3209233248731325 2.1463401421060535 1.9593894328086001 1.8947094548124332 1.9878617791469444 1.9684919556154485 1.4837582163732301 0.2901890179161589 -9999.0 -9999.0 0.09315049853833521 -9999.0 -9999.0 -9999.0 -9999.0 -9999.0 -9999.0 0.4225275286064582 1.4282298403860734 1.550727461006256 1.5579410702231162 1.2596941124420362 1.3297830123952779 1.3101520727993818 1.16704347183152 1.0506703945096447 1.0761477046000676 1.6430138355650326 2.5384989915834106 2.567967496326623 2.4485737471964266 2.30973232725959 2.3202778062120477 2.3350585047500156 2.333620307499523 2.2262485957205658 1.7831328048850479 1.5536801159509994 0.6541636344445159 0.427515720686258 0.3608793131215093 0.3577798300683656 0.4952678219240525 0.5842693570579123 0.6273720487590024 0.6896678074110596 0.7922216444441301 0.6823986213291591 0.4394990428919431 -9999.0 -9999.0 -9999.0 -9999.0 -9999.0 -9999.0 -9999.0 -9999.0 -9999.0 -9999.0 -9999.0 -9999.0 -9999.0 -9999.0 -9999.0 -9999.0 -9999.0 -9999.0 -9999.0 -9999.0 -9999.0 -9999.0 -9999.0 -9999.0 -9999.0 -9999.0 -9999.0 -9999.0 -9999.0 -9999.0 -9999.0 -9999.0 -9999.0 -9999.0 -9999.0 -9999.0 -9999.0 -9999.0 -9999.0 -9999.0 -9999.0 -9999.0 -9999.0 -9999.0 -9999.0 -9999.0 -9999.0 -9999.0 -9999.0
4.081325995602321 3.9112636657730167 3.643869655822544 3.406760699516569 3.2114816136550077 3.0960408502299868 2.964231212487957 2.7096143537590556 2.6432004260173563 2.666862420244652 2.5493912975823316 2.4799492316590386 2.5776991998299557 2.78399492365562 2.971558019373176 3.0654162022469205 3.0604650209728885 2.9284342836397603 2.6719322022913166 2.6801275059068637 2.9531740041609456 3.068593082874548 3.0810795399801485 3.1882708586860367 3.3535463948024766 3.5455279317651827 3.770465292984277 3.991298058677097 4.180379548550325 4.3761722376699534 4.438615388288629 4.30909879665457 4.101474059128481 3.5436061538204187 3.0850038405910998 2.9594301783923025 2.8928845179255034 2.8392887344187265 2.7693167724000443 2.721379618428669 2.6698200395267677 2.5763353767016137 2.448400465635948 2.353118318101863 2.335642122597817 2.3661230025584903 2.391308704207103 2.391631118098926 2.359891334556181 2.238956352054028 2.103502088448596 2.1181491789086073 2.4484424801463365 2.1104751583277332 1.960680011659193 1.8640275013313146 1.769124966714428 0.9568009796298582 0.6237439838471404 0.08271621361370601 -9999.0 -9999.0 -9999.0 -9999.0 -9999.0 0.0960749158828031 -9999.0 -9999.0 -9999.0 -9999.0 0.360091408013968 1.413122625925344 1.725102582067104 1.7058938437494258 1.4981337656548224 1.3815456628120952 1.202647791802719 1.0546147955580272 0.9496064442989878 1.128585380858511 2.1844805781168106 2.4169585655725543 2.3840593024080206 2.3448264073329494 2.3478340286380206 2.3555465967299356 2.336894799258622 2.2802143580594327 1.9377081975262709 1.5748526388709936 1.4571264939439819 0.6559262870013873 0.6010696116235712 0.541303229612346 0.4788147536959595 0.5389047263551761 0.6357645587350695 0.6640281519720654 0.670145301319313 0.555768248336534 0.5276794300588077 -9999.0 -9999.0 -9999.0 -9999.0 -9999.0 -9999.0 -9999.0 -9999.0 -9999.0 -9999.0 -9999.0 -9999.0 -9999.0 -9999.0 -9999.0 -9999.0 -9999.0 -9999.0 -9999.0 -9999.0 -9999.0 -9999.0 -9999.0 -9999.0 -9999.0 -9999.0 -9999.0 -9999.0 -9999.0 -9999.0 -9999.0 -9999.0 -9999.0 -9999.0 -9999.0 -9999.0 -9999.0 -9999.0 -9999.0 -9999.0 -9999.0 -9999.0 -9999.0 -9999.0 -9999.0 -9999.0 -9999.0 -9999.0 -9999.0
4.0801046160496295 3.865985428077976 3.5751360775091094 3.4140034348643185 3.2570061768842615 3.1170937401374053 2.9999667270847676 2.814754521154756 2.793636123062625 2.7837723648303347 2.7042176265711 2.6592260368706344 2.7790029803806244 2.955452254182213 3.06871007360117 3.0721953833098357 3.059116880788098 2.881850661536134 2.6448892957389076 2.6789034977001993 2.980259659713658 3.0698328013827645 3.077926545368444 3.1877942687211287 3.37774554788296 3.558330881017335 3.769380254194894 3.982817766910174 4.208587983144374 4.484451410471196 4.55422606765349 4.4071334396438155 4.233922664209971 3.5138326597147578 3.1089115909162346 3.055664322482533 3.0492108800697957 3.0203563192278717 2.9545593592383845 2.9044126579341216 2.8569315959595887 2.7610134605741696 2.596299254689296 2.462501331950485 2.4150126709263877 2.425516030491542 2.438811711340198 2.4441763738737077 2.437185968093072 2.384160897887113 2.257821794673442 2.225880167851441 2.134699195465634 2.0709382984673836 2.098439439313033 1.9555353791568981 0.9684071257608382 0.612625135433801 0.4651481511016451 0.3974144486485786 0.16261154338074563 -9999.0 -9999.0 -9999.0 -9999.0 0.1419518261415765 0.23560561858457202 0.14482679087749373 0.11443724399775171 0.1384726794834057 0.2073165260196175 0.3343047892704949 1.5786468960857019 1.8444055225333 1.797144617225942 1.4507860199663927 1.3226200361665494 1.5979380377262378 0.9862590974135923 0.9714101240472119 1.3812456216401998 2.086508351939773 2.206596695353783 2.2555924217523713 2.309835637728961 2.331441609330454 2.340762882056041 2.311165676225044 2.138378034050736 1.6318912500163927 1.5206632412101346 0.9466090224457768 0.7248153132156918 0.6136500524009858 0.4519179945208539 0.4724549119830581 0.6023908761478336 0.6208012245079779 0.5009043677750995 0.426360095873397 0.5421341083375304 0.5138001047443955 -9999.0 -9999.0 -9999.0 -9999.0 -9999.0 -9999.0 -9999.0 -9999.0 -9999.0 -9999.0 -9999.0 -9999.0 -9999.0 -9999.0 -9999.0 -9999.0 -9999.0 -9999.0 -9999.0 -9999.0 -9999.0 -9999.0 -9999.0 -9999.0 -9999.0 -9999.0 -9999.0 -9999.0 -9999.0 -9999.0 -9999.0 -9999.0 -9999.0 -9999.0 -9999.0 -9999.0 -9999.0 -9999.0 -9999.0 -9999.0 -9999.0 -9999.0 -9999.0 -9999.0 -9999.0 -9999.0 -9999.0 -9999.0
4.083022375693028 3.87222338874688 3.642413037696652 3.4955289442490054 3.3420470497644033 3.1887169174518575 3.068220281059977 2.9197967926123205 2.828187362673992 2.807999054159322 2.769360497505893 2.812911607956513 2.94403236678469 3.0609313027500824 3.0725176799123486 3.058346015231245 2.9270275677512605 2.666289149237919 2.497641483237109 2.574718750129589 2.8961414660648996 3.064778313422804 3.0970101328711266 3.165983777904752 3.347574469332761 3.549064272948816 3.7854604286336797 3.995855925239969 4.232913314760193 4.475875325751932 4.5329241221853565 4.419801951536089 4.237231992310862 3.62982574815312 3.2062507488769927 3.11778264386763 3.1317731096905757 3.0693752593704846 3.032074944873871 3.0167673996184905 3.005538854129818 2.950217943194173 2.798687709427677 2.6228806021792272 2.5364803364600728 2.4867071935722986 2.4507539121843123 2.4499458245301615 2.455497158128106 2.461674171601367 2.4208815326338438 2.3938881131017347 2.1934257818607987 2.12408787226768 2.321965856701397 2.2649096687164 0.8109877565262902 0.6072923479190699 0.5041206265686256 0.4718112671717951 0.4778605312407327 0.2337996205974793 0.0748703242289109 -9999.0 0.103451252562408 0.7609852148612131 1.153194961165921 0.6821486427080974 0.274404259564883 0.1995640562236091 0.17875327960580012 0.12129169921714511 0.22303336955054912 1.4613671176417846 1.6407870432122793 1.5172167521651339 1.3637555950143925 1.7728605346506916 2.1670808885256068 1.0590857974777446 1.0196172313908791 1.698517194913503 2.0607337974760878 2.1511565723111663 2.2792515980667716 2.3463964868040916 2.3437705993658757 2.327251019042761 2.2735475059886383 1.9636936284573236 1.6346020462263586 1.5760373965667887 0.7265153124104688 0.6155627510731785 0.5367291103178522 0.5165220557861658 0.5613757554110916 0.5462026282999747 0.4761532860981874 0.4992376726354878 0.6316711080401007 0.6573789184667034 -9999.0 -9999.0 -9999.0 -9999.0 -9999.0 -9999.0 -9999.0 -9999.0 -9999.0 -9999.0 -9999.0 -9999.0 -9999.0 -9999.0 -9999.0 -9999.0 -9999.0 -9999.0 -9999.0 -9999.0 -9999.0 -9999.0 -9999.0 -9999.0 -9999.0 -9999.0 -9999.0 -9999.0 -9999.0 -9999.0 -9999.0 -9999.0 -9999.0 -9999.0 -9999.0 -9999.0 -9999.0 -9999.0 -9999.0 -9999.0 -9999.0 -9999.0 -9999.0 -9999.0 -9999.0 -9999.0 -9999.0 -9999.0
4.083264005243087 4.012965689572948 3.8320078920996288 3.6688213942794046 3.4842262485882376 3.250526350101825 3.116521446836408 3.0261065518305568 2.913806409855372 2.865726854199664 2.882095384658273 2.967666843763257 3.061257231384866 3.079413577235852 2.999505469333062 2.7958594150963902 2.5824890300416143 2.489764754166052 2.5152217418936846 2.6771178620974028 2.893261048761231 3.027518112705518 3.0965885113257356 3.1829799168057296 3.355623901086444 3.542771237463671 3.798679570335969 4.010211352553726 4.228293700861915 4.399043029577949 4.428254703598475 4.341644733352821 4.143222174111192 3.822291435073645 3.4605322113937405 3.3182669365177246 3.282523899669048 3.1709396660702023 3.079742076213526 3.2048825925520386 3.14704042557864 3.063873148968913 3.0249178932375194 2.8765410647716148 2.7326782366466458 2.5886472964068616 2.479108640654473 2.458703369008113 2.5006457869530645 2.561648931811266 2.5993840768201015 2.6053053055132627 2.5679112248489577 2.474470424346146 2.517608360417846 1.5869062763618307 0.8733734943949496 0.6641241058316236 0.5614377230435648 0.4280728925820857 0.36335343234565803 0.3110283743792188 0.3130949478853702 0.4318548738542341 0.5820841145298754 0.5582414593979915 0.6981454037410224 0.8219007949311437 0.5330911335116331 0.27274136165681917 0.14898671689636422 0.0825700999910143 0.1043079050451248 0.3267457504314668 1.2809891833847231 1.4183786003475676 1.578455889030353 1.9869178047552716 1.7971625738871788 1.5407219323301469 0.9484053274188802 1.017719008136916 2.023208697332828 2.157776461286189 2.18577247254144 2.323232165248793 2.345977708566054 2.284548666933116 2.245613313398625 2.1459611535721055 1.7502720704323222 1.6427804742443441 0.9284883636343564 0.6695027468473507 0.6643309905188863 0.5963020595312343 0.5854448315563052 0.6251072161358189 0.6270866581981782 0.6661587963045617 0.7052544089996049 0.758516736549196 0.3798812874158945 -9999.0 -9999.0 -9999.0 -9999.0 -9999.0 -9999.0 -9999.0 -9999.0 -9999.0 -9999.0 -9999.0 -9999.0 -9999.0 -9999.0 -9999.0 -9999.0 -9999.0 -9999.0 -9999.0 -9999.0 -9999.0 -9999.0 -9999.0 -9999.0 -9999.0 -9999.0 -9999.0 -9999.0 -9999.0 -9999.0 -9999.0 -9999.0 -9999.0 -9999.0 -9999.0 -9999.0 -9999.0 -9999.0 -9999.0 -9999.0 -9999.0 -9999.0 -9999.0 -9999.0 -9999.0 -9999.0 -9999.0
4.124300888650873 4.069836167449022 4.001926984586 3.8534440405110457 3.6104403498073263 3.3185957476519694 3.164743277326842 3.077849696015493 3.01332571236561 2.9743656528720623 3.0066921524238253 3.069933399920379 3.09129195155358 2.973349874460315 2.6021797840914416 2.552444220832402 2.5407853975065686 2.5457683119118633 2.6816591702285497 2.8231936507597553 2.9337047325128944 3.0281112668705803 3.061221250933103 3.212811942024906 3.4407560570259887 3.5716675560560582 3.7793037092651787 4.01496293505531 4.185174447136702 4.330058074692398 4.337731726090966 4.270109518896885 4.09435270728617 3.975545831218053 3.710309853041255 3.524951958063362 3.498466721241095 3.450644798814581 3.4253022035808307 3.513259923763272 3.3703427021301393 3.103223904732033 3.070000517790685 3.063775033137283 2.946019745539885 2.746731631202966 2.5712767186797794 2.5250195811453637 2.5905249842721085 2.665639179570134 2.7346278621956546 2.7669870886976304 2.6890797782287676 2.627011501760467 2.515609450945656 1.1686117335297257 0.9049695261245667 0.7486056101203702 0.5408171059360508 0.406218190573546 0.2976591657242511 0.2701139533525323 0.3026215199774134 0.6613759531894039 0.8710323939202251 0.4741651498435115 0.4161531155372199 0.6391304853188309 0.722397920741026 0.512008892050698 0.206681460126441 0.1424709658744288 0.1914023658407611 0.2406998837580404 0.3593064576781509 1.1439432252475399 1.5733328708557968 1.733112043602168 1.686775145280462 1.6344146068959653 1.1443580230414512 1.0070386894538748 1.4366623437597135 2.0493359300668716 2.18310904758061 2.351784802351915 2.3460825006282353 2.243522636494435 2.1529563981606397 2.1199232247219206 1.889390654594413 1.7493098632766908 1.6884530625730672 0.9652182520030759 0.8307592968433484 0.669643761632422 0.6155164593690527 0.6497442808454079 0.6666948604639484 0.6782148874074361 0.7571990385658756 0.8749469038935462 0.7798414776862754 -9999.0 -9999.0 -9999.0 -9999.0 -9999.0 -9999.0 -9999.0 -9999.0 -9999.0 -9999.0 -9999.0 -9999.0 -9999.0 -9999.0 -9999.0 -9999.0 -9999.0 -9999.0 -9999.0 -9999.0 -9999.0 -9999.0 -9999.0 -9999.0 -9999.0 -9999.0 -9999.0 -9999.0 -9999.0 -9999.0 -9999.0 -9999.0 -9999.0 -9999.0 -9999.0 -9999.0 -9999.0 -9999.0 -9999.0 -9999.0 -9999.0 -9999.0 -9999.0 -9999.0 -9999.0 -9999.0 -9999.0
4.341831685577662 4.095726858360038 4.0622708604221085 3.940601246148523 3.7166552497149516 3.477832744669967 3.283487136902839 3.183845058556061 3.0910886596749907 3.066402466944025 3.095010117559998 3.1284513666395957 3.0934775792349836 2.674894580051553 2.5287735076096056 2.695479548004473 2.862463067359136 2.9042047904007924 2.9309487028707997 2.94516784015509 2.999765544829793 3.059789782783482 3.085650717344373 3.2698863108661675 3.548816571725562 3.684077849021068 3.7898566247067538 3.9815181077242343 4.145148055948398 4.291027260217042 4.33044694688207 4.292610766245682 4.142248185518237 4.055585427330735 3.8763588861108746 3.6983648371533366 3.672300606733833 3.6782859959930336 3.7160485902748737 3.806200108680009 3.648821360040785 3.318107544878802 3.15847256817251 3.1841293432789364 3.078374329096783 2.881649369526298 2.723791124431418 2.6629004592360497 2.704050178709096 2.7705805385610787 2.8208845017912063 2.855604836397447 2.791621370750128 2.6200372993444483 1.6050895525834366 0.9638720818914626 0.9163770249190235 0.8633207996692018 0.6471636308988828 0.427152799604512 0.3324646885453329 0.28765397331346854 0.2543073581392391 0.2463756247779201 0.3580825684724445 0.5695980544353811 0.6102222973472695 0.5964545461215809 0.7549984200367652 0.7514181428366822 0.201755997858888 0.2514100896948608 0.2962553341813301 0.2652084226167426 0.2450525273194073 0.38865582024993073 1.3878574990835457 1.6805580457544056 1.6674706844422547 1.5986457975085882 1.086130742616469 1.120635611614563 1.202205193156513 1.6601832608068463 2.3140216508306897 2.4241121953757396 2.410858904240752 2.233944502329348 2.1302635295350516 2.079529409668027 1.9689982680364941 1.8919007978400564 1.9183295139047836 1.6897148122831414 0.9925433104468593 0.8343514796796383 0.6676379986576138 0.5702648690790366 0.4684791853565542 0.5570958655084857 0.8631503708272512 0.8582443019278969 0.8260562812564427 0.6675186772868671 -9999.0 -9999.0 -9999.0 -9999.0 -9999.0 -9999.0 -9999.0 -9999.0 -9999.0 -9999.0 -9999.0 -9999.0 -9999.0 -9999.0 -9999.0 -9999.0 -9999.0 -9999.0 -9999.0 -9999.0 -9999.0 -9999.0 -9999.0 -9999.0 -9999.0 -9999.0 -9999.0 -9999.0 -9999.0 -9999.0 -9999.0 -9999.0 -9999.0 -9999.0 -9999.0 -9999.0 -9999.0 -9999.0 -9999.0 -9999.0 -9999.0 -9999.0 -9999.0 -9999.0 -9999.0 -9999.0
4.7786304377855435 4.262477272393029 4.072530645856753 3.9767954893535937 3.839921963389852 3.716626085591138 3.6388676887741687 3.5087667669896065 3.365627319463654 3.269457969105186 3.264832187225078 3.247977751821717 3.1391592164131645 2.7614983790458885 2.7179522120872845 2.9522549693692226 3.037458838491709 3.0445028725402294 3.0278496531848966 3.0122786383680396 3.0309525302408877 3.0936272232096607 3.154501563970841 3.437810631139221 3.753910544769925 3.9061001419150805 3.888424108713527 3.9597503511872096 4.152290425680779 4.300079735187593 4.410340888831128 4.4508256442001155 4.327024700517806 4.105513318484706 3.9601152086634688 3.840740203468199 3.8592787367343226 3.888510836421796 4.0136469922722515 4.057975883240415 3.952097368623537 3.678706736924467 3.500114765339401 3.4816065079257132 3.2686508276562485 2.980131529285958 2.866363979961924 2.8473601932800383 2.887892667832532 2.893868968245716 2.9122061182798817 2.943715260729062 2.887144082696492 2.606714163691622 1.1402275445406633 0.9492036776374533 0.9316729139626725 0.8848176909663366 0.7773401057878486 0.5726445930732049 0.3690748199776939 0.2890417000951354 0.27279001161531713 0.23868728695226152 0.1972848059806997 0.3590097124958048 0.544694832377257 0.6407816600214726 0.8299999904632567 0.09609066839094631 -9999.0 -9999.0 0.3447204323224069 0.31411990901545417 0.2615419973382071 0.23260403231196972 0.3545870487321558 1.6492216260723371 1.6329431452565768 1.4473028646341968 1.107566035086059 1.2582901597032377 1.242659193889023 1.2554828699709044 1.8069304596518745 2.3617623458045873 2.3643364712609434 2.241309852379053 2.182761849208237 2.1416306307241344 2.106728315936497 2.0119580190161015 1.981041520187701 1.979944361414682 1.1125924265989544 1.0089917207385564 0.7316983944231488 0.6010786777318977 0.4681968771467012 0.4607621198716898 0.6449994121927813 0.8278773047415726 0.8339286478708918 0.6782282269715805 -9999.0 -9999.0 -9999.0 -9999.0 -9999.0 -9999.0 -9999.0 -9999.0 -9999.0 -9999.0 -9999.0 -9999.0 -9999.0 -9999.0 -9999.0 -9999.0 -9999.0 -9999.0 -9999.0 -9999.0 -9999.0 -9999.0 -9999.0 -9999.0 -9999.0 -9999.0 -9999.0 -9999.0 -9999.0 -9999.0 -9999.0 -9999.0 -9999.0 -9999.0 -9999.0 -9999.0 -9999.0 -9999.0 -9999.0 -9999.0 -9999.0 -9999.0 -9999.0 -9999.0 -9999.0 -9999.0
5.06901483820428 4.754761636572557 4.209504637402543 4.04613214052653 3.9798571086320766 3.991127642689285 3.9581533813359067 3.7795999067686736 3.6163969797883286 3.5041928281101073 3.4537370095623303 3.3799803128792156 3.2552456510937113 3.0151232322783943 2.92479533508519 3.0620457888873127 3.0813080772554753 3.118455892716412 3.084432191000884 3.0516904960219238 3.0786003982772807 3.2011422212576415 3.4394405316185446 3.7382390395207756 3.9834014354934038 4.070290871448792 3.995320915689309 4.043568249864062 4.224137459343122 4.385376641770875 4.581131854884741 4.6827356206290665 4.6010581867103415 4.319457312517941 4.047714461959023 3.9868303720703366 4.03731709015602 4.070819185449447 4.1164404934733945 4.126818556891796 4.069605537093164 3.9599257489795248 3.817492948914783 3.794581175768753 3.6371160166001646 3.179302836437485 3.059437610259794 3.089833727526981 3.089189766436405 3.0869809121667986 3.094648842455445 3.0836779849469638 2.9978739149387104 2.6965456363049896 1.0852693075070552 0.9743316910023612 0.9453220584115398 0.8692885803044503 0.7435739428813624 0.6105956050445687 0.4520161054417271 0.3464594997205801 0.2998979018298975 0.2822468045797119 0.2656663971835208 0.3250486042635566 0.30450232784198483 0.30940563237382834 0.6393022637933747 0.3130244629152992 0.07159285048286021 0.5903577746853088 0.7140618710068298 0.7194629881755514 0.7251436097546531 0.24015912255984362 0.1609824021752921 0.3575015108436035 1.3232289836981639 1.151410575463249 1.0758873234901392 1.3903491550134857 1.3548799075641857 1.2818541844007365 1.4278424294429053 1.8743615115768348 2.1507145236273963 2.2531600600944848 2.255308075923886 2.238088762611091 2.1980102602231186 2.121182300573293 1.9960508551258704 1.953939736829156 1.776486103993135 1.0898824017937623 0.7542213681407337 0.6339437914503403 0.551173403737593 0.490361714227105 0.5574236344731741 0.767796581606486 0.8522913322883547 0.6689243924654285 0.3086727361626737 -9999.0 -9999.0 -9999.0 -9999.0 -9999.0 -9999.0 -9999.0 -9999.0 -9999.0 -9999.0 -9999.0 -9999.0 -9999.0 -9999.0 -9999.0 -9999.0 -9999.0 -9999.0 -9999.0 -9999.0 -9999.0 -9999.0 -9999.0 -9999.0 -9999.0 -9999.0 -9999.0 -9999.0 -9999.0 -9999.0 -9999.0 -9999.0 -9999.0 -9999.0 -9999.0 -9999.0 -9999.0 -9999.0 -9999.0 -9999.0 -9999.0 -9999.0 -9999.0 -9999.0 -9999.0
5.0464235361811856 5.078177895422844 4.749077857706579 4.177724985527315 4.070964500289736 4.091737005186791 4.05146710065661 3.8937672890399253 3.737070994929448 3.647022398037134 3.589595858630974 3.524161391515751 3.415385475028106 3.236245583271292 3.1371060849377375 3.1404734339529936 3.157452901188424 3.2048317990959156 3.2344878774342676 3.294980909129236 3.457837340151098 3.6084889172986663 3.8146118294493934 4.061499344440416 4.226256367610125 4.261036011916057 4.138610595229518 4.106464461486475 4.269131673004342 4.512572484322313 4.693508475090629 4.750286417627059 4.740420534561604 4.542789097350322 4.185417532069195 4.134720761146758 4.201254184498246 4.259439029556254 4.283071382104533 4.348722780477461 4.3501909778628605 4.149504319337854 4.0862154573456015 4.1420903483077165 4.04333903597513 3.601233037125701 3.3628930772809364 3.2959290821529916 3.267291166275887 3.2634619736963812 3.2854788469100944 3.2070742489601036 3.050803312193016 2.516921532655445 1.2271151396475766 1.0157471659700168 0.9274690221726452 0.8061001336384139 0.6788710700582945 0.570679639982784 0.4906747213918795 0.4152309892755562 0.3417699948171798 0.3226042784378895 0.3894973911740824 0.7292823635265571 0.9316765752006704 0.8840912315246037 0.8184133114773839 0.770623498441735 0.9135914575619517 0.8770427334729718 0.7500652240091175 0.7301838702393075 0.7544019838659506 0.6311751947060522 0.14242524157484 -9999.0 0.423036392071571 1.0191183474021275 1.2445782660002933 1.4883352404243475 1.3790422596428737 1.204925650087179 1.2677456791502573 1.6890951357062243 2.028098133716582 2.2659153004050108 2.322709062886522 2.2664081151955 2.265824432397046 2.4719154809146695 2.342607638684741 1.9610646745361116 1.83319314744429 1.1570031342595322 1.035618021937435 0.6735836014818526 0.5675571901532421 0.5232541348784839 0.5378169927148357 0.5693665389517122 0.8494486599672666 0.920939254470198 0.5252714063806684 -9999.0 -9999.0 -9999.0 -9999.0 -9999.0 -9999.0 -9999.0 -9999.0 -9999.0 -9999.0 -9999.0 -9999.0 -9999.0 -9999.0 -9999.0 -9999.0 -9999.0 -9999.0 -9999.0 -9999.0 -9999.0 -9999.0 -9999.0 -9999.0 -9999.0 -9999.0 -9999.0 -9999.0 -9999.0 -9999.0 -9999.0 -9999.0 -9999.0 -9999.0 -9999.0 -9999.0 -9999.0 -9999.0 -9999.0 -9999.0 -9999.0 -9999.0 -9999.0 -9999.0 -9999.0
4.823703616298193 5.031839847046547 5.076054172695759 4.837411818394853 4.453232845166907 4.2608949553060596 4.0922264802948405 3.953371757430195 3.797937178935953 3.7143420745327407 3.6919533377456566 3.6755683160504646 3.6673379299884137 3.6416544155907506 3.495726430643981 3.3297313629264806 3.280437733880539 3.349506290809289 3.5093838480650015 3.771058259379192 3.9335514845055974 3.9447832177407958 4.038305891153021 4.235268104567128 4.2980397713856675 4.296207642575481 4.1268591739573335 4.14039016228163 4.4116635377596705 4.679740955646529 4.777088369537641 4.79939521791133 4.798656879885408 4.729331807709213 4.474496998505637 4.345788506135758 4.364920307075458 4.399243608820337 4.456084161591637 4.537888382157345 4.574886688797497 4.389932013877488 4.235278707467762 4.227611007533158 4.194070238186206 3.8988658522921846 3.621879925447464 3.4894127575378526 3.4145283604923566 3.410103635176347 3.388992157088573 3.246970755325107 2.948046180992368 1.9269909958494678 1.4542150843825896 1.0432089472000887 0.8679846714556236 0.7678948938098789 0.7212706616696327 0.653836409891349 0.6372978025022649 1.0531889772625087 1.0538968624700642 1.048961536304655 1.0412290774837833 1.0345566629990783 0.9986474842051192 0.9514738476886475 0.9267415742725644 1.0180032321065748 1.078778950819179 0.9184113979753472 0.786060730072635 0.7361407779479914 0.723074436062588 0.5883679840925884 0.2215423169492177 -9999.0 -9999.0 0.4995588261485603 1.4601715010246432 1.5612995159112584 1.238532038149101 1.1376734752970603 1.3356644099354658 1.4239473072345976 2.066472113085943 2.2791976414032593 2.372720242180001 2.2236015990058315 2.2595842455862902 2.499942826945707 2.408696042771021 1.9436919495014449 1.821942306154874 1.7128547008777018 1.0605182565110445 0.8399246087143677 0.7104433930820229 0.6705282293379695 0.601050383684991 0.5874517596969251 0.6706302550062642 0.8432322294975818 0.7510105831664804 0.4652948609475828 -9999.0 -9999.0 -9999.0 -9999.0 -9999.0 -9999.0 -9999.0 -9999.0 -9999.0 -9999.0 -9999.0 -9999.0 -9999.0 -9999.0 -9999.0 -9999.0 -9999.0 -9999.0 -9999.0 -9999.0 -9999.0 -9999.0 -9999.0 -9999.0 -9999.0 -9999.0 -9999.0 -9999.0 -9999.0 -9999.0 -9999.0 -9999.0 -9999.0 -9999.0 -9999.0 -9999.0 -9999.0 -9999.0 -9999.0 -9999.0 -9999.0 -9999.0 -9999.0 -9999.0
4.881464195664773 4.9070010152297625 5.0416811699867745 5.07364747660371 4.972525868524006 4.53608733786967 4.204607591070818 4.05180649329376 3.89073815236425 3.768552119478542 3.7767759409843 3.8302570466580885 3.8753950281569227 3.9358524862409037 3.840782354568397 3.5596296192285664 3.4515757137838943 3.526221278147721 3.710815277819051 3.892731549254974 3.983879865921219 3.991096161684705 4.040375052076431 4.138269507804062 4.1537940147582 4.1396368931646155 4.160631751123542 4.355508955729516 4.686707018598344 4.90213062576389 4.912836204037457 4.852378216578137 4.832863112105958 4.785535442017156 4.610066332424451 4.575063787561371 4.552762057166286 4.542931793576695 4.574188710498718 4.6272368796946814 4.620997512324342 4.496707259617969 4.326826437130447 4.2442587309759565 4.201948790108489 4.079756326093714 3.9067106889096013 3.7166566068298077 3.546062059520849 3.46695446391356 3.405477224507029 3.0889082412728626 2.322597646394217 1.8779029503629165 1.5361411075863372 1.3517008715658008 1.263841504447023 1.1974766721460135 0.9828801743576958 0.95857531782696 1.0819988619264083 1.0865880444987972 1.070574875977282 1.0700045874089497 1.0700036560929107 1.0705215335060234 1.0503571057742673 0.9642565925144346 0.9453666967416927 1.0402517775515472 1.0651049864423052 0.959860045795778 0.8796773216134453 0.8291312264761461 0.7059363249757122 0.4924034303458985 0.2504452096363077 0.11380740048340321 0.12153423980199202 0.225593409704055 0.7027872558423911 1.4555200875926209 1.1956667667530847 1.3546378859030195 1.4577869114524207 1.3215227044796534 2.08247629312752 2.2929434686748484 2.4263222571456566 2.4477617751099827 2.2941376110449316 2.297756907263307 1.985819837552574 1.90437097621345 1.7970949658014566 1.7627535066216955 1.7005134609963033 0.8508381930100517 0.7625537420250468 0.70059442476694 0.6422907146405004 0.6345785801865864 0.6625693174620633 0.7312523503242503 0.817393764441031 0.7394161514839037 0.1824876237337381 -9999.0 -9999.0 -9999.0 -9999.0 -9999.0 -9999.0 -9999.0 -9999.0 -9999.0 -9999.0 -9999.0 -9999.0 -9999.0 -9999.0 -9999.0 -9999.0 -9999.0 -9999.0 -9999.0 -9999.0 -9999.0 -9999.0 -9999.0 -9999.0 -9999.0 -9999.0 -9999.0 -9999.0 -9999.0 -9999.0 -9999.0 -9999.0 -9999.0 -9999.0 -9999.0 -9999.0 -9999.0 -9999.0 -9999.0 -9999.0 -9999.0 -9999.0 -9999.0
4.934491274762523 4.893584915815113 4.906077568650277 5.026389490143468 5.073779309713094 4.978804763629501 4.51492693000809 4.214692403896161 4.052754975018427 3.9229892469813077 3.952584529798426 3.967469183157764 3.972670105602998 4.017572918588323 4.018719767962017 3.763541037110879 3.6124243842005037 3.7103390712369757 3.8259794365749444 3.8869956927578904 3.970363805663014 3.996308885667196 4.032017425020103 4.069979406484621 4.14291273154468 4.33115970050002 4.548071783165926 4.74059216146615 4.938504537838072 5.054780624259116 5.053030184423976 4.937764695137723 4.83377709281277 4.760452809109303 4.660202102172107 4.671137474267271 4.696487514575562 4.702744632706295 4.706531546092982 4.68511483343709 4.64787718735101 4.571868878849604 4.44955504215266 4.3513589175123375 4.27699721431516 4.18376264516713 4.079595914509551 3.968558443170609 3.7007139809694807 3.456158863750822 3.1493036411392747 2.647270712481082 2.276256855609086 2.000011769423132 1.7120226164780594 1.4917459041729086 1.3589425128506312 1.2402765286673816 1.1358060033483828 1.005788298974558 1.0418079776367832 1.073859704787117 1.0706107562604645 1.0705988650921294 1.0741120005429245 1.0770234458445347 1.0696236073929892 1.011110468862063 0.9796669929891175 1.0239864186812009 1.0414686216302107 0.9762105385452404 0.9110390491566398 0.8861230776401321 0.7673694049293458 0.4950227592619444 0.250534176111632 0.1450369271320224 0.1456895128317912 0.2401624440547653 0.2803806515520382 0.7840137909764602 1.2575392805722572 1.4560846224763535 1.4346126035418771 1.3011737960923517 1.5876242282608946 2.1540539672769556 2.617190160692792 2.4860829626158676 2.3723858159875784 2.193678765383468 1.9622326252006632 1.9210060260601889 1.8375625969673959 1.7977872075390882 1.7527519786818426 0.937328386765166 0.7874365963816732 0.6947317391626466 0.6815808318315275 0.7242092657866099 0.663695931606455 0.6439202919044793 0.837690380515939 0.8294151903034854 0.6075483424769859 -9999.0 -9999.0 -9999.0 -9999.0 -9999.0 -9999.0 -9999.0 -9999.0 -9999.0 -9999.0 -9999.0 -9999.0 -9999.0 -9999.0 -9999.0 -9999.0 -9999.0 -9999.0 -9999.0 -9999.0 -9999.0 -9999.0 -9999.0 -9999.0 -9999.0 -9999.0 -9999.0 -9999.0 -9999.0 -9999.0 -9999.0 -9999.0 -9999.0 -9999.0 -9999.0 -9999.0 -9999.0 -9999.0 -9999.0 -9999.0 -9999.0 -9999.0 -9999.0
4.98428051732357 4.8107916719547745 4.727511513490148 4.727178195407835 4.886628887651158 5.058816210099759 4.990040151516607 4.651546710311816 4.3823055759370595 4.208433154112923 4.092325493870188 3.9943734105699416 3.977186737598935 4.000967068233224 4.016316401588041 3.872877749329133 3.7293392923829565 3.8652923151046656 3.9300021122702105 3.9499321554543165 3.992640436864437 4.029675648085784 4.064833944310016 4.147397047924367 4.3697846586329625 4.716014533603185 4.920052481621236 4.963948277569416 4.985527783311561 5.078690367039277 5.164146205232015 5.273477547794097 4.999927658664779 4.818039182588327 4.75705865185405 4.777956233066685 4.821501942352931 4.850321991826049 4.84491760888414 4.803068769292966 4.740330462109008 4.66443589783217 4.602814747249947 4.564392020664792 4.509963638423634 4.4019623337599 4.301393921436645 4.2089921098681025 3.921176580353952 3.2834309207377124 2.975800888777362 2.644766654260212 2.3869172561266936 2.086564783993043 1.8755160588414137 1.613003129143727 1.4142327423976266 1.276915646825644 1.182444841069243 1.1122477490125025 1.0663979852336303 1.0722802545546333 1.0774828751806174 1.0966001931816456 1.1094213584562471 1.0935837113776532 1.0704790974904776 1.053178039262724 1.0363211744812268 1.0500676344561197 1.0524859043469372 0.9983297475250528 0.8916126104240645 0.7970395172164348 0.7221443055383767 0.6083723821839315 0.3645499470872911 0.17072151430983362 0.1361880002439137 0.2325512998582336 0.2975514752023946 0.2862847884300157 0.9647061159965893 1.5374222725495075 1.5271359472493204 1.5998170637055347 1.7332859703114525 2.1709114522753814 2.5890877987072405 2.453822116172311 2.35141527501432 2.0873656331780497 1.9548394899090384 1.920774853766948 1.8979668700190249 1.8442562668396099 1.7764869934008993 1.6600029907045728 0.883668536544771 0.8330041670503787 1.051452833080465 1.100781739023446 0.7865958138977149 0.6227041949522201 0.6630303306973697 0.6058806586949708 0.5164262448579696 0.405080709784179 -9999.0 -9999.0 -9999.0 -9999.0 -9999.0 -9999.0 -9999.0 -9999.0 -9999.0 -9999.0 -9999.0 -9999.0 -9999.0 -9999.0 -9999.0 -9999.0 -9999.0 -9999.0 -9999.0 -9999.0 -9999.0 -9999.0 -9999.0 -9999.0 -9999.0 -9999.0 -9999.0 -9999.0 -9999.0 -9999.0 -9999.0 -9999.0 -9999.0 -9999.0 -9999.0 -9999.0 -9999.0 -9999.0 -9999.0 -9999.0 -9999.0 -9999.0
5.045887419602671 4.790611541785932 4.685926826758014 4.55000123206485 4.440012606789213 4.826486437526797 5.047231089886379 5.01102259179049 4.7631285347782475 4.565046519997742 4.404086125257978 4.115349974698334 3.9984773286697655 3.9919745604969887 3.990587374808396 3.877349917701786 3.795770369940006 3.9146963350180526 4.007526316221459 4.041469822476461 4.061002768523753 4.074382957956616 4.1418620295056385 4.266700179282198 4.498643564234555 4.825417058229417 5.006928884698518 5.010858787762598 4.975524848776244 5.056018204554825 5.507910396476805 5.679736243975837 5.3227651929423745 5.0143209393748585 4.913453578988674 4.920593015714774 4.96801884195517 5.012954126458132 5.005500480959956 4.94860229975795 4.899582068902622 4.881734783388305 4.842598758864518 4.822072289753442 4.791016367088422 4.645585529859278 4.511301778311927 4.435263375899221 4.1467816157859625 3.1262043467296743 2.803082502890302 2.5552894036048097 2.412592685077524 2.1991455020428745 1.9770314808860865 1.6835703503307091 1.4594196995660558 1.311756690058235 1.2405119081749525 1.2123321074073579 1.22823882620964 1.2295665136782594 1.2374100700180333 1.260420777781778 1.2267783391577867 1.1432972821467733 1.0783986149768983 1.0676297090474565 1.0795808297166947 1.086580081920809 1.0743303235969337 0.9966247568206568 0.7913531930699758 0.724269143144457 0.7307904807408043 0.7317243392821362 0.5752246908410468 0.3351202357948927 0.2232480595760736 0.2913992155136676 0.3590213929570789 0.28985384010963744 0.3155234392667569 1.249224511530251 1.618801874993435 1.6569288203277515 1.561798447999187 2.1636499258196107 2.4192188666023977 2.4096477396909246 2.2192706483768325 2.019590438745379 1.9860329720729544 1.9678575344847593 1.9227043062123736 1.8794134676446252 1.8589737803998252 1.8207691266284225 0.9967258644438393 0.8896005744577153 1.0066493100124108 1.035810444762318 0.7817522236022627 0.5398588562322727 0.5585955120559118 0.5430283083253681 0.5030022391915094 0.4970172112272534 0.2239006608038149 -9999.0 -9999.0 -9999.0 -9999.0 -9999.0 -9999.0 -9999.0 -9999.0 -9999.0 -9999.0 -9999.0 -9999.0 -9999.0 -9999.0 -9999.0 -9999.0 -9999.0 -9999.0 -9999.0 -9999.0 -9999.0 -9999.0 -9999.0 -9999.0 -9999.0 -9999.0 -9999.0 -9999.0 -9999.0 -9999.0 -9999.0 -9999.0 -9999.0 -9999.0 -9999.0 -9999.0 -9999.0 -9999.0 -9999.0 -9999.0 -9999.0
5.079250300006461 4.876372828113272 4.7506198695950665 4.547256982635425 4.405039116729398 4.51449944624973 4.908483672030879 5.047933423598193 5.0324307767642065 4.822525722055402 4.554356941509899 4.285781865942015 4.071777111330559 4.022568842916867 3.9863427548515586 3.872988136276311 3.839852877581698 3.9396480283621806 4.028341755647489 4.0623959080419825 4.07413106113838 4.1146699286284445 4.2146752687279285 4.335712808148615 4.553225245676337 4.830292617377355 5.0387429094923855 5.062199156743803 5.018866458754155 5.1128275956784295 5.825512808272196 5.841391732383086 5.534811006942513 5.211056197831442 5.057472755945911 5.04290074985127 5.0878447063984815 5.1516703060976 5.138323788302957 5.086076716810929 5.059083334224955 5.066011105678864 5.058914260315859 5.035612226570546 4.971031853843217 4.780120959939166 4.530910496903208 4.416319833982344 4.034434141422593 3.098298676588855 2.745724649565359 2.4809137443771383 2.375438211959604 2.2105615029854895 1.9939235798523676 1.6854084236845124 1.4958311324400684 1.3752658752706592 1.340841421034763 1.414779983616481 1.4183941549475942 1.4032455196435079 1.4454791753562295 1.510397006546915 1.4001298281433987 1.2427444716651461 1.1381768705212816 1.1146538765715002 1.1127519995187847 1.0993779243100024 1.0547393041324733 0.879906062908445 0.7468346796725869 0.7267967599868463 0.8229160212847797 0.920118047759727 0.8398192083745268 0.6152659004242682 0.44036099638960413 0.4435720449969675 0.477339833600256 0.47290202938587 0.9111070740848843 0.9554316039067263 1.0733930070758764 1.239173070206096 1.2041159912688946 1.2498662205851623 2.1259637985858952 2.185368872893786 2.2662845912088287 2.132542374322067 2.045068373580381 2.0031584011854777 1.950076287534331 1.884064675556983 1.908038889670565 1.931556424013674 1.5993499874150816 0.965463220537998 0.9564703741530458 0.8382335534537921 0.6188915426786785 0.5199712222852328 0.5437924121138714 0.6191575761864712 0.5804869156198214 0.5508640017867088 0.503818148517539 -9999.0 -9999.0 -9999.0 -9999.0 -9999.0 -9999.0 -9999.0 -9999.0 -9999.0 -9999.0 -9999.0 -9999.0 -9999.0 -9999.0 -9999.0 -9999.0 -9999.0 -9999.0 -9999.0 -9999.0 -9999.0 -9999.0 -9999.0 -9999.0 -9999.0 -9999.0 -9999.0 -9999.0 -9999.0 -9999.0 -9999.0 -9999.0 -9999.0 -9999.0 -9999.0 -9999.0 -9999.0 -9999.0 -9999.0 -9999.0 -9999.0
5.108818443517528 4.975675211971858 4.820029103522369 4.643227030408752 4.447128828193226 4.457190483884211 4.711409235892685 4.959869304037284 5.055646107679494 5.0404861564172725 4.798267119757509 4.435809729391437 4.150680312640837 4.068918598875731 4.046335373689433 3.955705685365222 3.927272495218022 3.981403287957868 4.026625842994768 4.077790631411688 4.1375801662004 4.201718777315622 4.3008677611711015 4.427018768018838 4.611690915254268 4.8421031911408585 5.06915530082883 5.099820411876456 5.096006983261457 5.4081572915060105 5.9929583596422935 6.070846440081905 5.824235989126797 5.4819957916115625 5.256964272077745 5.203758446818644 5.276277071580432 5.340014877930094 5.318657189917762 5.292567111321877 5.181447659384426 5.146668680802549 5.152814680362579 5.091357396778221 5.042997076798615 4.689129678132258 4.4590301342942125 4.240262232135965 3.8064307496218848 3.291929024393919 2.996324334748088 2.6069411449120596 2.362814579890768 2.129115271431311 1.8940000382794568 1.7714170431979148 1.5832425578701164 1.4732335658966131 1.5217477916939324 1.6754802760896945 1.6355539138274884 1.4998831176612941 1.5315827025208797 1.5937726380887045 1.5115258770696363 1.3013364818106188 1.1647932550556241 1.1442853579229217 1.127572084462144 1.078054345405222 0.9390072705866712 0.8588604085459839 0.7928054956755757 0.8218642165182666 0.9461208138028558 1.00639753598693 0.9644117949658437 0.796350994180526 0.5424689287186137 0.5295516584295853 0.6329728232910607 0.7810420361457018 0.9970860696827981 0.8515343383163743 0.6679521221063784 0.7001817574730111 1.0828650698129139 1.182978244325641 1.5354766085116582 2.047467903598276 2.2374705762008587 2.3145197197734686 2.070436752845569 1.9938884042521325 1.995318026029256 1.933041876115048 1.8308054660175785 1.7920865546267304 1.7173981602340818 1.618901669211999 1.0138871096253028 0.7282647705697094 0.6608372962367599 0.5972962721080519 0.5336055615603442 0.6697183552038941 0.6839264096994546 0.5353774734065113 0.507512818381342 0.3708901321380949 -9999.0 -9999.0 -9999.0 -9999.0 -9999.0 -9999.0 -9999.0 -9999.0 -9999.0 -9999.0 -9999.0 -9999.0 -9999.0 -9999.0 -9999.0 -9999.0 -9999.0 -9999.0 -9999.0 -9999.0 -9999.0 -9999.0 -9999.0 -9999.0 -9999.0 -9999.0 -9999.0 -9999.0 -9999.0 -9999.0 -9999.0 -9999.0 -9999.0 -9999.0 -9999.0 -9999.0 -9999.0 -9999.0 -9999.0 -9999.0
5.195942553125101 5.066264091530367 4.892455934257562 4.700178010155563 4.519911333592441 4.502550155844434 4.616512521518063 4.820706003726565 4.985562951121024 5.054968191374841 5.040907019403331 4.752900059618408 4.314588364730714 4.078244148175134 4.071797533426922 4.120938158578316 4.055616539468786 4.037520658667216 4.095741541689421 4.269610277677124 4.367262935073553 4.414384531514432 4.500022476465854 4.62018291034256 4.760612060661062 4.8650837941729 4.993909235760821 5.06152282999662 5.1117688689148295 5.64034425750868 5.991534578929857 6.0781725936778574 6.0745524732298595 5.752806133785941 5.500198540661744 5.430857658513924 5.498466608004376 5.540066671434729 5.4935336200511085 5.400870830372129 5.283977752128763 5.217709754939109 5.287153445770096 5.201009339960683 4.899893519713092 4.679435109235139 4.454627639233835 4.0819776358307305 3.6542495081557935 3.2516979407631905 3.088191217848312 2.809333537684144 2.367609814827977 2.0700275426272188 1.9206210080467392 1.8670778004502244 1.7122221954811032 1.5738015530743705 1.6717542767144673 1.8485846093184235 1.8451039639630857 1.669135865797231 1.6180505606595632 1.6133394464412685 1.5112838684534329 1.2754401946924951 1.148219212993781 1.1226619613933286 1.1110965609902788 1.021713562856411 0.9341218191713545 0.926997518516655 0.9774992468886547 0.9921223437490363 1.027218015514798 1.02256220136101 0.9527688924423294 0.7511860056869368 0.5049196708809219 0.517087732646254 0.703602720041677 0.8531601555939148 1.0517469219969449 1.0925015143805925 0.7150806542641617 0.6654870416575236 0.7985044592871795 1.197886890372647 1.3172242066242659 1.7660215732831273 2.1161220593848196 2.3442643027188983 2.30363696152798 2.0900084275300936 2.1630491622477073 2.247424368262264 2.031281767545699 1.7935341173854713 1.767342767231096 1.7417914840562203 1.0058541481327452 0.6303524498864688 0.7095300452799198 0.6846633519806746 0.5133377034264337 0.4683060027976109 0.6904558310364459 0.4959982693038666 0.4040724107685933 0.3651094146208097 0.07197789922223771 -9999.0 -9999.0 -9999.0 -9999.0 -9999.0 -9999.0 -9999.0 -9999.0 -9999.0 -9999.0 -9999.0 -9999.0 -9999.0 -9999.0 -9999.0 -9999.0 -9999.0 -9999.0 -9999.0 -9999.0 -9999.0 -9999.0 -9999.0 -9999.0 -9999.0 -9999.0 -9999.0 -9999.0 -9999.0 -9999.0 -9999.0 -9999.0 -9999.0 -9999.0 -9999.0 -9999.0 -9999.0 -9999.0 -9999.0
5.276988005761913 5.123518998513338 4.985761333878669 4.768007605957528 4.607245396740637 4.569393011941601 4.640816368040377 4.808814682285887 4.906691822021682 4.97498907993336 5.046382450983472 5.035996146007735 4.656329931307071 4.093209764933304 4.094844269167487 4.157761804737043 4.078356578597776 4.0893776861551085 4.260574998605324 4.438604581961158 4.498285959636733 4.533855841841337 4.69329047610234 4.86579191204531 4.85325771993821 4.855291653578114 4.908917029003517 4.975574214899979 5.072727697765419 5.612041339934181 5.904082174232553 6.071405293910834 6.09253939166126 5.899440869280295 5.697012277713686 5.686075095091002 5.753863007381616 5.743532131121787 5.670000127388607 5.5623137453622356 5.4130339832571845 5.324161922704833 5.454731386773109 5.46411997009079 4.837325599580108 4.780771246875838 4.611745157257849 4.042083712485295 3.4437921902096 3.1347805722440216 3.0764886057822003 2.833205133286062 2.44410003874131 2.148223389145574 2.020344256523628 1.9324837061883637 1.751218647520143 1.6133302660274764 1.729067575089716 1.959240658493512 1.9945730970329305 1.8966649573489476 1.8013340005699832 1.697383038140407 1.5312317890093332 1.2462028885702305 1.1417067097124893 1.113697530032265 1.0780412848364043 0.9603868362647052 0.9756087933530004 1.0654567763466871 1.0807621415617226 1.0693096718203443 1.0514150926882806 1.0220511763503013 0.876851569337618 0.6183821843789212 0.3961319820266166 0.4190809164503133 0.6883074963083589 1.0551416423752504 1.2471743555817298 1.195289255968861 0.9333945205650522 0.7544993887800235 0.5574921737678538 0.637023799444344 1.0296079701512917 1.1084432004791682 1.8352904386742606 2.146200560028857 2.378526372287171 2.359938552624013 2.511659436724569 3.1321645300080108 3.26363925460522 2.2719698933978982 1.9155923466153681 1.800628675615427 1.0286063021799985 0.6508012057691202 0.6894088235442173 0.694512924428532 0.5821430161231966 0.3896906693759845 0.4444298344219935 0.5101574373007357 0.398146814603826 0.4378329089572539 0.5756240368790737 -9999.0 -9999.0 -9999.0 -9999.0 -9999.0 -9999.0 -9999.0 -9999.0 -9999.0 -9999.0 -9999.0 -9999.0 -9999.0 -9999.0 -9999.0 -9999.0 -9999.0 -9999.0 -9999.0 -9999.0 -9999.0 -9999.0 -9999.0 -9999.0 -9999.0 -9999.0 -9999.0 -9999.0 -9999.0 -9999.0 -9999.0 -9999.0 -9999.0 -9999.0 -9999.0 -9999.0 -9999.0 -9999.0 -9999.0
5.290119959397303 5.138231833692001 5.033704402639337 4.881923859101034 4.70363078466209 4.671359939099521 4.768379874564744 4.912499956086096 4.8996822539391784 4.826400989692428 4.7563025229541935 5.019372823893599 5.031361905108397 4.392660364883112 4.115242662680412 4.137960439542358 4.114400422125113 4.167996431352647 4.251578129241082 4.356569303608676 4.403254995669743 4.50710100884721 4.707421379248837 4.881425904381616 4.843459197011638 4.808817440309511 4.865661594090218 4.9528749336587685 5.0480977605787904 5.353973236727355 5.674035707967836 5.96631131338161 6.078539827372684 6.046806363824603 5.938956388519705 5.965623375554911 5.964366640428496 5.903208928213384 5.8219822133701715 5.77901970176341 5.6609244766843645 5.579671265165793 5.748290090257829 5.694539417606084 5.130361689788527 4.838963253709469 4.47244721025741 4.03226339705781 3.4591019063977426 3.1335624938043214 3.0478480677076623 2.853068909091346 2.563059522539684 2.290345045377522 2.133010671208274 2.030847581338812 1.811875328593527 1.6608158395930444 1.7537292553115638 2.008369729962357 2.055798548108173 2.0377469407385727 1.995789140229521 1.8799582779846729 1.6305300449532707 1.3486780040081572 1.2330120435273653 1.1483724206279418 1.054718979668372 1.01311513557625 1.065235740264039 1.0971753013596615 1.0940832877387412 1.073818178092006 1.0672837549873266 1.0247965205444738 0.8870870518050411 0.6360445304553235 0.4151436929954045 0.4146372592385275 0.6471038325062337 1.1176807063901915 1.5565914249503598 1.348858989452657 1.088453996873263 0.813616994320919 0.5554464955201657 0.585923760005892 0.8187771844028389 1.0134279776898876 1.457166963223477 1.7321539266600052 2.2019228706095544 2.3831376460856974 2.3410427270068865 3.200228064409224 4.130682388314737 3.9478646205313015 3.0384379214754764 2.176380736323808 1.2167476930801273 1.0402124477733123 0.7503813306255194 0.3499968877481805 0.3559834213096044 0.3644442214779092 0.4033590075814494 0.4877295345118074 0.4327114221796813 0.4049318723284489 0.6269903682274685 0.5251248128795597 -9999.0 -9999.0 -9999.0 -9999.0 -9999.0 -9999.0 -9999.0 -9999.0 -9999.0 -9999.0 -9999.0 -9999.0 -9999.0 -9999.0 -9999.0 -9999.0 -9999.0 -9999.0 -9999.0 -9999.0 -9999.0 -9999.0 -9999.0 -9999.0 -9999.0 -9999.0 -9999.0 -9999.0 -9999.0 -9999.0 -9999.0 -9999.0 -9999.0 -9999.0 -9999.0 -9999.0 -9999.0 -9999.0
5.288440817118318 5.159961977290195 5.073040892417975 4.99675529631948 4.800535055881486 4.754368792048851 4.940709762490333 5.013967398177552 4.895397696335825 4.643492066720185 4.45157819368363 4.611137504357856 5.003733685602862 5.04570008318508 4.723993529635061 4.324384784184382 4.1896811175237065 4.190255526777033 4.220868653315619 4.236232136304114 4.244290786443853 4.337930337152548 4.503096309399273 4.6600635889794315 4.691762346762653 4.739812571281753 4.845507784385728 4.991399267564106 5.069638762931642 5.287776554561503 5.464186817559286 5.788051603889138 6.038398078026699 6.047323903702517 5.890623705282835 6.029604975155681 6.067701069314106 6.037208617443518 5.949253981685897 5.884918112237384 5.8636206249593545 5.910314854898594 6.099903845365757 5.95528530119457 5.380397366520952 4.859514855065049 4.33721923189003 3.9867178358643987 3.4747218470817685 3.1550371081981217 3.0320780957920803 2.915006689228849 2.698257849950736 2.415686929131736 2.2251185605563513 2.1106867012773827 1.896903574770068 1.7360719471285901 1.8183502056599101 2.050277794804118 2.075937792621629 2.0697851904204203 2.0424354733511074 1.9693810410680488 1.7962938578743772 1.5790548911928817 1.5167057152577903 1.3473862109504002 1.1054492531976978 1.0892868566624303 1.1285176646174768 1.1474981882135407 1.1128532325832006 1.0707257229633622 1.0678817490966641 1.0352658144725064 0.9396599781273594 0.7431601977177311 0.5270961842050217 0.4749606104253638 0.6965944779540794 1.0548828015063956 1.4784206391544317 1.398338508792943 1.1386179982554339 0.8610270686896659 0.6745859997110331 0.6874560964499892 0.5269010964369353 0.5150848732161517 1.066983993842942 1.107900011211401 1.2154720603484586 2.184540345404569 2.249279116338672 2.2041560641025417 3.9599791687496317 6.948712575500068 5.436724403966679 3.6180867938549706 1.7863379117013092 1.1111436363611022 0.929588406602698 -9999.0 -9999.0 -9999.0 0.4073577871438172 0.4156795450702944 0.3797003947157349 0.3191119791805199 0.4467702301443194 0.591579462698312 0.3375707726531501 -9999.0 -9999.0 -9999.0 -9999.0 -9999.0 -9999.0 -9999.0 -9999.0 -9999.0 -9999.0 -9999.0 -9999.0 -9999.0 -9999.0 -9999.0 -9999.0 -9999.0 -9999.0 -9999.0 -9999.0 -9999.0 -9999.0 -9999.0 -9999.0 -9999.0 -9999.0 -9999.0 -9999.0 -9999.0 -9999.0 -9999.0 -9999.0 -9999.0 -9999.0 -9999.0 -9999.0 -9999.0
5.327853960075407 5.216195304209212 5.136537042894346 5.095034900877402 5.010551651390929 4.895874386949873 5.047708468247641 5.056940268172582 4.8626972850208325 4.618684822075316 4.462224897543296 4.472076696002326 4.6930043615767625 5.010746164243077 5.0601569720807635 4.729002585936905 4.295130518021252 4.235471782808379 4.245766097652621 4.255166382380065 4.304470088181283 4.409878667939305 4.505227135331034 4.5930794759256255 4.667061953551213 4.765763372590984 4.900019332684854 5.036512556397536 5.223021595615339 5.424791176254581 5.575152559927929 5.701570087732739 5.926402629840529 5.97718806729731 5.802584687014436 5.97324039088165 6.102735893658101 6.127215163552345 6.067693124709906 5.995074872240928 5.9839173578894025 6.143032525191039 6.273715421858494 6.0637112405032285 5.493305735728803 4.761534086266037 4.186941558635866 3.942944383889062 3.514281699483385 3.2127447588393845 3.0405634039537577 2.938985329337678 2.725767125454674 2.4635747757192132 2.26054490190959 2.1111915837831403 1.8910110858311133 1.801894763675697 1.928443347546531 2.073782621395071 2.0792512019771348 2.0717247577345757 2.053748153151217 1.9738387558572457 1.9140987131387064 1.8001547566323624 1.6224744373018283 1.476889280942217 1.2421395657257708 1.2035258647975977 1.2380999707211158 1.229575624524373 1.140733536005728 1.0692156111309872 1.0616707675767767 1.021466473489564 0.9701844336377361 0.8725695579106385 0.7314478572100189 0.7113195040107338 0.8885371062752772 1.07873512096257 1.3413701301722611 1.3196576605725057 1.184169211586041 0.9498658141314842 0.8135491755237616 0.7766573507896704 0.5131136648227901 0.445056113515392 0.5120814904828657 0.9264112378659046 1.1124877022507174 1.4075510506271918 2.1055733821099367 2.09195164341596 2.2558501044118833 4.510402150427573 5.567435436895353 3.7330343375752078 1.857912332209603 1.2162245153135516 0.9401739748671916 0.4654734299872416 -9999.0 -9999.0 0.5154014068055839 0.4728116132319743 0.4057499474819128 0.4149253902612307 0.426920638562017 0.4847861331407255 0.5121435391520569 -9999.0 -9999.0 -9999.0 -9999.0 -9999.0 -9999.0 -9999.0 -9999.0 -9999.0 -9999.0 -9999.0 -9999.0 -9999.0 -9999.0 -9999.0 -9999.0 -9999.0 -9999.0 -9999.0 -9999.0 -9999.0 -9999.0 -9999.0 -9999.0 -9999.0 -9999.0 -9999.0 -9999.0 -9999.0 -9999.0 -9999.0 -9999.0 -9999.0 -9999.0 -9999.0 -9999.0 -9999.0
5.378943476824138 5.281121860163409 5.214036690414181 5.194302334556297 5.187374727672804 5.135296001447313 5.099153913711164 5.078238994676098 4.901982507189932 4.697621506201151 4.523590425146264 4.4590635118180595 4.416146944162831 4.617764109505326 4.980111112973188 5.05000399862624 4.802914636360982 4.573853270627712 4.424223415481659 4.424832295703206 4.554992769117936 4.667612967724771 4.692874269573276 4.7176143339214 4.78769901314913 4.894224109302428 5.035457226157155 5.237940566519834 5.487988078855732 5.655551718802081 5.679621846755646 5.6877000955524535 5.754834077073339 5.954321398031289 6.026466031810822 6.097909370823449 6.2187640140091185 6.244292910302978 6.171720992030349 6.109781311046575 6.131645996916977 6.393753103139376 6.473481385685078 6.077435866985317 5.436634063797197 4.558028263629038 4.084745925221506 3.8909381919788415 3.6612176421361977 3.336894372387731 3.067681097305424 2.935604419346337 2.680830820446616 2.412981104956228 2.220623822652888 2.060472124857364 1.8650146383693307 1.8514415164837745 2.038223236796325 2.079588603842516 2.078367097966106 2.0712086591845567 2.0329241619435843 1.9566435280429966 1.9350660102870776 1.8913451889106836 1.7284163313138206 1.4789638080698353 1.307378360659791 1.2835185378176102 1.307237016150777 1.3051508583751898 1.1776085626065937 1.0667637064904167 1.0300504010158489 0.9672396541556045 0.9615634530193164 0.9517568653832131 0.9120171494734521 0.9396275966533407 1.0191647223016025 1.0835921660256662 1.196557664474166 1.2048537383108917 1.128406654713314 1.0482114397007507 0.9244283482488098 0.765197508888716 0.5333775377897065 0.4405010634618454 0.4122962547646354 0.4853732981650525 0.9239078178406903 1.1372189290939663 1.9126893869486672 2.104071921414112 2.1365316088246407 2.2886699612530856 2.723563945946204 2.1972105819257117 1.869101008001465 1.4732586601858348 0.3329039543954805 0.291117687225712 0.4813840257911243 0.7334107962285441 0.7006252439353102 0.6066283913054522 0.4564942301577234 0.4230858382908912 0.4427993500457383 0.4517917536841297 0.4844314622045548 0.436633156903735 -9999.0 -9999.0 -9999.0 -9999.0 -9999.0 -9999.0 -9999.0 -9999.0 -9999.0 -9999.0 -9999.0 -9999.0 -9999.0 -9999.0 -9999.0 -9999.0 -9999.0 -9999.0 -9999.0 -9999.0 -9999.0 -9999.0 -9999.0 -9999.0 -9999.0 -9999.0 -9999.0 -9999.0 -9999.0 -9999.0 -9999.0 -9999.0 -9999.0 -9999.0 -9999.0 -9999.0
5.386809941869002 5.330021575582064 5.271654494179646 5.231549391121541 5.212813670691662 5.189402906588668 5.184165838034956 5.1761167461307735 5.072319792736445 4.858635318473496 4.663140814453545 4.47464177410847 4.340195418584129 4.3677525269093636 4.699271339438345 4.990778159250572 5.060987342551817 4.993817488684696 4.754939254905926 4.6622016657580545 4.710933733596176 4.7324431669910325 4.748374387333737 4.792659499641196 4.9032698340446705 5.043384975140197 5.173633020629395 5.410412160479302 5.589747076869175 5.6941241427352 5.692072847577025 5.682684400694735 5.706389846999721 5.861657314464543 6.069177748112846 6.171747710027336 6.322967029515835 6.365574983453374 6.32710302826751 6.306752411958993 6.408749807995534 6.646345452449199 6.697093390672471 6.107495395204609 5.094146692646163 4.250926787742225 3.999924860544754 3.938595965755852 3.7938375432500453 3.547417657490784 3.1544598661088177 2.9557731685498054 2.69600186759838 2.383008624309095 2.1921223372732856 2.048439877398307 1.9034717881796444 1.9199515830832432 2.0707420234061735 2.0805371938638135 2.075568238619596 2.0430130516135367 1.9525456989372156 1.859584339010741 1.8292782164984636 1.8052998616032596 1.7000839286948155 1.5191201102880785 1.354238533026769 1.2998400304772488 1.2970422952830103 1.2672191431156923 1.198437066685637 1.0830837438426533 0.942956447249433 0.8984506837601656 0.9352199384127668 0.9607003702667325 0.9700028927700957 1.0083110112069633 1.0514963718959316 1.0704184359156257 1.0797411831264854 1.0148537206034536 0.9569753399885748 1.0271451667782756 1.0824937297828445 0.6908809407531835 0.5429270335538983 0.4605025765104947 0.3911011210760908 0.3515729800571606 0.5124319947051952 0.9078698499151989 1.3000666215716674 1.9618436168936524 2.029230302664237 2.002410702405642 2.25073599186875 2.1924087374516508 1.9356207608425873 1.7086605937531039 0.2032532668145181 0.7590807725989066 0.8814583747319953 0.8001752610575499 0.7148023411393747 0.6450779530218047 0.565244820181843 0.5284291696328345 0.5077981069176736 0.5521721922799487 0.5210192826708413 0.5234070257487913 0.2516736518650684 -9999.0 -9999.0 -9999.0 -9999.0 -9999.0 -9999.0 -9999.0 -9999.0 -9999.0 -9999.0 -9999.0 -9999.0 -9999.0 -9999.0 -9999.0 -9999.0 -9999.0 -9999.0 -9999.0 -9999.0 -9999.0 -9999.0 -9999.0 -9999.0 -9999.0 -9999.0 -9999.0 -9999.0 -9999.0 -9999.0 -9999.0 -9999.0 -9999.0 -9999.0 -9999.0
5.3602640145810465 5.344237325317673 5.2893490936461545 5.227302370619593 5.175628989057544 5.173751799062927 5.193194644148576 5.235466554983958 5.197739430340973 5.060638134176317 4.851160778000589 4.645822955181484 4.468375248535595 4.469335385673595 4.6039197290334855 4.819517050357714 5.012676209302559 5.068012110356415 5.0313170206066005 4.864525421035059 4.81535089371206 4.803642820226718 4.815059115380362 4.887928273846669 5.037585305166345 5.16671697438527 5.295886725929779 5.410130527587127 5.552984337241627 5.642996558893761 5.671669989289713 5.676521564463458 5.703006349162026 5.829331725145113 6.033181728736651 6.204908834170441 6.386308328080152 6.4374815961254725 6.49691944447945 6.584989908017778 6.664511755886018 6.6875819036392 6.59444524060844 5.629573747593588 4.477609886230515 4.003644569030405 3.9210282953287727 3.946140108640449 3.9090921764283597 3.6477878249875983 3.283221077039912 3.014460336520196 2.834922825354309 2.5525874235078625 2.266544770018823 2.078742698897588 1.9469936198616489 1.9515570533057898 2.0629995213863643 2.0788561013659836 2.0769868990802656 2.006435262534263 1.8546971315565906 1.713994937424495 1.6351232000598084 1.6419039450351516 1.6154786352738295 1.5267841514511378 1.3777815570265184 1.2887844603979457 1.2307128574619932 1.1914081225741842 1.171529996950895 1.1128020159676661 0.9836682375098473 0.933226821162418 0.9343719188029171 0.9386008959133458 0.9711333580224946 1.0183828877416783 1.0590234718810712 1.0662059966195157 1.0028036434213363 0.8598610648748035 0.849060017674649 1.0102957385986473 1.1985096528728265 1.2506251661604264 0.5556676262282834 0.4801216508016683 0.3965487850641347 0.3704219326992297 0.458064724490232 0.7390933236462844 0.8234803101288235 1.317111305915931 1.8225708522408646 1.9737568063667965 2.0447630564363046 2.17881792697536 2.061071972289287 1.9332522563552446 1.4691167854251261 0.8571443496955853 0.8338646025897898 0.7923224891951339 0.7343809429657522 0.7248614101252584 0.7635634445984405 0.5986074620281834 0.4908697656184884 0.4201213410156369 0.5159006661928833 0.5520831291300528 0.5635011508952974 -9999.0 -9999.0 -9999.0 -9999.0 -9999.0 -9999.0 -9999.0 -9999.0 -9999.0 -9999.0 -9999.0 -9999.0 -9999.0 -9999.0 -9999.0 -9999.0 -9999.0 -9999.0 -9999.0 -9999.0 -9999.0 -9999.0 -9999.0 -9999.0 -9999.0 -9999.0 -9999.0 -9999.0 -9999.0 -9999.0 -9999.0 -9999.0 -9999.0 -9999.0 -9999.0
5.350448936301092 5.352243024281565 5.277662417852225 5.157764799823845 5.1532643830971 5.1782262449332475 5.274676744680662 5.367596952686322 5.304548472450338 5.139554143349204 5.011773187670479 4.8395761657845675 4.703695122631007 4.6453195184192095 4.704388591968664 4.819654170526093 4.921852955932203 5.038022068453779 5.086814620560684 5.069031019375254 4.969894421344135 4.921387294165886 4.96050517335608 5.050963436167375 5.2155283492940505 5.387650931295281 5.4285288808266055 5.440354150583714 5.5071372353092 5.601917924946422 5.656991502687671 5.674992583059765 5.707111439197412 5.812492282619076 5.992853404279339 6.3009466195099595 6.5044288151089 6.58905899345478 6.722160286677891 6.860511747456039 6.813585299303965 6.637271182411119 6.182882657339329 5.057912165210698 4.247390923757817 3.941093964614991 3.9040327220084756 3.9195083864979567 3.892990900464499 3.6557750143707644 3.2921482189324 3.0160506556380833 2.95652573190282 2.8344830761087993 2.5181519682018836 2.1752844251830656 2.03052804597892 1.987021687213876 2.0553402130767093 2.094167761251962 2.11293421754882 2.062919300071513 1.8764680951648216 1.6680687861316816 1.5697481652595473 1.5155857298016207 1.4882366026365064 1.415885876339414 1.3136174183265128 1.2225020627132015 1.14909093431483 1.114220411633308 1.1108530390578564 1.0773899187715115 1.0332535340672568 0.965571887437499 0.9329550226437902 0.9107946290036257 0.9289827735124332 0.9957006690851329 1.061160430057912 1.0685907991147243 0.9972056516127881 0.8179085985796071 0.7952069956991257 0.949938909587531 1.1672969779656277 1.2444180564277731 0.7859026756730809 0.5121011169133838 0.449136953219953 0.44501396096010243 0.504126491058948 0.677016858963388 0.5700055182683537 0.9347980436552248 1.5658675898079888 1.9544551014811637 2.0307663904561064 2.0839881140952956 2.1695022893751066 2.0161987589807278 1.8407455108242277 0.9986094532268921 0.8435851319081624 0.792036290386948 0.7965205459390732 1.0668271596636631 1.0773813380156672 0.5829452611045767 0.3697907054179655 0.2893703255982031 0.3692944448783401 0.4662654976737852 0.5454642248199006 0.493529551979552 -9999.0 -9999.0 -9999.0 -9999.0 -9999.0 -9999.0 -9999.0 -9999.0 -9999.0 -9999.0 -9999.0 -9999.0 -9999.0 -9999.0 -9999.0 -9999.0 -9999.0 -9999.0 -9999.0 -9999.0 -9999.0 -9999.0 -9999.0 -9999.0 -9999.0 -9999.0 -9999.0 -9999.0 -9999.0 -9999.0 -9999.0 -9999.0 -9999.0 -9999.0
5.46011983727476 5.444801376454318 5.310539187097151 5.167007359510804 5.194934799216568 5.321194690302972 5.479470473383686 5.529550012876402 5.411362273963745 5.181565547028971 5.0858909809882675 5.009535262241295 4.965456921696853 4.951277402040772 4.952008365623634 4.9496142117205455 4.967668358860576 5.025779536708955 5.115288603144136 5.212062171681395 5.2551775032055135 5.393205055614948 5.399535807717493 5.370215431194726 5.482368973679677 5.598514082615908 5.6191803378947345 5.569777103700113 5.563016652700297 5.607231459890153 5.653661332146553 5.6763197697705365 5.729894342964679 5.872110661875145 6.123171763904659 6.602836346530815 6.790069770167149 6.850783943881032 6.96125220287609 7.098123362075645 7.082129844778638 6.568860799888892 6.070776301289205 5.207191394839762 4.579241806334146 4.086365155915489 4.001139940916977 3.952990218603355 3.909066916133894 3.8025706445076777 3.419103699268704 3.0226373058698806 2.9853123022789925 3.0009266992797774 2.8973263255684087 2.461362625615908 2.1403633039734435 2.0598465248895623 2.0829401238154666 2.110848338000834 2.134700126647949 2.1049971405470553 2.0224289723624818 1.8391809056136548 1.6717432901414269 1.5343490682373158 1.4191755580962822 1.3276132797444473 1.2521440943474464 1.1710884105172361 1.0938066783198175 1.045008222681378 1.051098698507832 1.0718418266836938 1.0653432137157528 0.9926395706121796 0.9180997317934652 0.8736186439158729 0.8679084621132342 0.9498060949139713 1.0647564185972405 1.0883182376643334 1.0604135715169023 0.9101537138321536 0.8380364310047863 0.8868218177463383 1.041475469907493 1.1619817699912247 1.1915079425655026 0.6130355996641559 0.5331522667646239 0.496795398645702 0.5028535225539622 0.6475359553121707 0.5789307503360805 0.626577609497813 1.4346323159057208 1.8381261179668973 2.001713031525815 2.0195578967439647 2.1090028223003805 2.1695671177259572 1.9775063677497688 1.882318605012872 0.996687360783642 0.8846289394278106 1.1026064597410066 1.1762350693931864 1.177238633838207 0.6589898102711245 0.45287677676390553 0.2959684030071623 0.31472877867753823 0.366078654584782 0.4689935876614739 0.5285471854924317 0.4105310483149593 -9999.0 -9999.0 -9999.0 -9999.0 -9999.0 -9999.0 -9999.0 -9999.0 -9999.0 -9999.0 -9999.0 -9999.0 -9999.0 -9999.0 -9999.0 -9999.0 -9999.0 -9999.0 -9999.0 -9999.0 -9999.0 -9999.0 -9999.0 -9999.0 -9999.0 -9999.0 -9999.0 -9999.0 -9999.0 -9999.0 -9999.0 -9999.0 -9999.0
5.664027330554859 5.609076072212402 5.50894777143403 5.392435875954583 5.483598673810126 5.633458368511737 5.745939491330206 5.704747892539427 5.518307816275074 5.246707352875282 5.127664827136966 5.1078488771740975 5.101297536654158 5.115646338611802 5.118799578180832 5.10714505231932 5.099913376975925 5.115382199637116 5.239042611641968 5.345865281648717 5.599279943575139 5.932350112543952 5.9780915606085365 5.778815039960531 5.699018915549065 5.721463531306994 5.72261968597572 5.683427132370234 5.654340757679774 5.656654554263291 5.6819779773786925 5.715943680582645 5.820881140244535 6.084235926891468 6.590871510162094 6.929952750458444 7.013453462412801 7.036940648604496 7.111439913279991 7.191444094569591 7.158056290395803 6.621523880706674 5.973018173645577 5.398790209925038 4.988635983009227 4.335992881510049 4.191324166552563 4.087528561672174 4.058988391867804 4.012708933915458 3.754241079794554 3.2011253449397192 3.0491384570725057 3.0641404207239487 3.0526580158744614 2.767780540707752 2.405691594985464 2.180678343827137 2.1042810527382083 2.0991204794488496 2.120702709232084 2.1158049108833756 2.0757196198730123 2.027911408208184 1.8916192064610124 1.7261140025957409 1.5195917769388005 1.362419083159905 1.274121299431683 1.188021336127529 1.0909350407193024 1.0152758831839603 1.0195627779123153 1.0605811881964868 1.0704188981638794 1.0357945095219705 0.9522150155896292 0.8571529365837158 0.8247696483946896 0.8969726842609649 1.0892431391642474 1.2038115698547676 1.1800436362547704 1.0416596341082827 0.9152084560386096 0.9232819154029399 0.9907855449384679 1.0945069738037296 1.1727828879364535 1.1939237419049211 0.5964444505847166 0.496573766242164 0.4678233753219702 0.5332524479716425 0.6208974428857821 0.5483208448846704 0.5527986816313123 1.4182605697491217 1.9467958379733925 1.9996787254621817 2.1048276140124496 2.2872490893169464 2.2122505305330655 2.0838192616249924 1.864549836323935 1.1089380648089782 1.128701577831358 1.1184167755116865 1.006636827916534 0.7444796525732988 0.5112844977095174 0.3667180568417336 0.3435234855078142 0.3526683881068257 0.4206739568579022 0.5554252286097843 0.5482661821245923 0.1842635756897411 -9999.0 -9999.0 -9999.0 -9999.0 -9999.0 -9999.0 -9999.0 -9999.0 -9999.0 -9999.0 -9999.0 -9999.0 -9999.0 -9999.0 -9999.0 -9999.0 -9999.0 -9999.0 -9999.0 -9999.0 -9999.0 -9999.0 -9999.0 -9999.0 -9999.0 -9999.0 -9999.0 -9999.0 -9999.0 -9999.0 -9999.0 -9999.0
6.039664456925473 5.978292067443969 5.930806389282246 5.86911227064051 5.912476401652544 5.987589811648867 5.993156713163733 5.89094934377538 5.6940656277862685 5.396476412710913 5.212484604475141 5.186573384386736 5.225639493743127 5.297535877823001 5.322416232980817 5.3110079924677365 5.304222243197097 5.315902312582851 5.400696012784885 5.5700895210660875 5.792361321739307 6.022779317227851 6.073061025947922 6.043875124833455 5.96440540487475 5.913750437287052 5.8606642571519725 5.810151978434879 5.769854807372038 5.766956168856381 5.791753113360011 5.844546891285554 6.012798571144505 6.499402786791166 7.005355231653684 7.238352024217747 7.168630829100741 7.148275715593572 7.185006658015299 7.193682512555277 7.129056542507581 6.535238773851777 5.897996194700902 5.572740302824282 5.21221121490032 4.553681354951309 4.3317828429663985 4.24593319558099 4.126069027060936 4.066538110050839 3.9129503797453533 3.4564279226822356 3.1428466276545 3.07779754919656 3.064010749981497 2.839383592441127 2.558079459490444 2.3269413071249536 2.167163504796802 2.111551020548405 2.1214487056559372 2.13714099042475 2.1135750205092476 2.0846665130886257 2.062677392360799 1.956490644303176 1.7564870458171036 1.5466950955992163 1.4122786339767361 1.295257394235323 1.1733106229492956 1.065261973330836 1.0256256590144712 1.0379144405861942 1.068390674458619 1.0654209788472575 1.0297001566851496 0.938836845556634 0.8078817128861995 0.8562658077831218 1.2281696279503596 1.4304750003323514 1.359914043508419 1.1877295965828039 1.0539711100254745 0.9949492030721117 1.0285388842087038 1.0775711765493365 1.1289224633093786 1.173211867527251 1.1262354322873636 0.5094043669076114 0.4284429700836825 0.4536346678147554 0.6232584900057796 0.457582291696779 -9999.0 0.14684652616188 1.2029310991221474 2.030506585418371 2.3176816783987464 2.317122156031817 2.287939847790105 2.1909011057531997 1.9596806978641776 1.1306579661743488 1.0331172629854166 1.0192874624713524 0.9211665430479969 0.7388330177591194 0.6238684906328478 0.5525827919451981 0.4076531148021816 0.3824232081016229 0.412390400995717 0.5279378065125488 0.593464223196255 0.5950208007307656 -9999.0 -9999.0 -9999.0 -9999.0 -9999.0 -9999.0 -9999.0 -9999.0 -9999.0 -9999.0 -9999.0 -9999.0 -9999.0 -9999.0 -9999.0 -9999.0 -9999.0 -9999.0 -9999.0 -9999.0 -9999.0 -9999.0 -9999.0 -9999.0 -9999.0 -9999.0 -9999.0 -9999.0 -9999.0 -9999.0 -9999.0 -9999.0
6.251705950478858 6.186295414616188 6.160243038046331 6.143196980738529 6.135849708364544 6.135610623190001 6.117445179594146 6.056851973061306 5.861338126853553 5.581106378546043 5.337475732855065 5.275436950148927 5.342861723110607 5.4461212769404685 5.513639675934375 5.493181388385821 5.501870260243581 5.5440887866079445 5.617902465712644 5.724486080901445 5.847904560994216 5.948333130495229 6.0546720369126135 6.079059847723071 6.077822181304223 6.070355764946789 6.022738230145077 5.975526237318265 5.949587963151446 5.981929650396784 6.033389478439712 6.076698503483987 6.2896132928030895 6.713943081886542 7.277586121760354 7.443848950980338 7.355554421981821 7.251911297613162 7.198832663545623 7.163782920543545 7.094852170637688 6.537324179297045 5.931631335594454 5.649377006691743 5.274145805507402 4.830245450092457 4.543121132507123 4.386774234755821 4.229137449882057 4.085636914942304 3.918544358208053 3.6055161689162403 3.317991668708887 3.140980681649324 3.050961167063026 2.8246592562740314 2.590447031493981 2.3939087515327975 2.23032947299452 2.1613906454758705 2.1752255070565125 2.245958797549773 2.2311663625432376 2.16697409303218 2.116864172145768 2.0715728497297765 1.9355898297068308 1.7385462635960345 1.594367845116379 1.457000467371443 1.3144873306267024 1.1629922314051264 1.0421468231123094 1.0253217787575515 1.064000764680031 1.0712481086791024 1.0812057031593136 1.0899903293319833 1.000016098118538 1.1448154787754752 1.6844538584883904 1.5847837961986835 1.4119378749476215 1.2274677887590284 1.12350155587597 1.0699658385283644 1.0646916187463409 1.0702167856006302 1.0769361139475024 1.0677389360963323 1.0553426661334118 1.0290702818905855 0.4321377849792088 0.4344601623421818 0.507057195019352 0.408189642122302 0.15910963392251343 0.09017696829623091 0.5399949151624845 1.9363691131780025 2.433655043777317 2.399690731263041 2.338570882357327 2.328482391571502 1.9717565340103331 1.6820395630720988 1.0058664439987388 0.9747891172852692 0.9326633844022776 0.7904629626452848 0.7636467309247743 0.7154547957041477 0.6080071682112644 0.5110162409544508 0.3986636549295439 0.4206923130311244 0.5422922120990955 0.6186244682597262 0.598578560004632 -9999.0 -9999.0 -9999.0 -9999.0 -9999.0 -9999.0 -9999.0 -9999.0 -9999.0 -9999.0 -9999.0 -9999.0 -9999.0 -9999.0 -9999.0 -9999.0 -9999.0 -9999.0 -9999.0 -9999.0 -9999.0 -9999.0 -9999.0 -9999.0 -9999.0 -9999.0 -9999.0 -9999.0 -9999.0 -9999.0 -9999.0
6.372540457896877 6.222564846810253 6.180538041283793 6.182031658173162 6.21114953238409 6.2392430438418245 6.233156277159853 6.178284988735829 6.024255947819867 5.746433349635594 5.496837164410072 5.401627852444241 5.452883152853865 5.536037310843103 5.569130687821513 5.600862297468236 5.6645760815514485 5.751483544551307 5.823719718784385 5.884701851469915 5.913938121799223 5.922327714201249 5.947993520136924 6.057979169532413 6.090522268188021 6.128266046945803 6.20580751565702 6.2137158090983515 6.248482241449761 6.368149629064046 6.522396394646579 6.473694027175673 6.506668864106886 6.755697905771393 7.248894186662128 7.427129607730004 7.401309391161771 7.299582690956893 7.197033838696911 7.089703595012172 7.07069650742233 6.699569525406022 6.077905188856357 5.675939623937481 5.170766152674901 4.942673871321919 4.664261879471661 4.431952288691187 4.225735400540622 4.074561351640451 3.852123976525801 3.619265606865292 3.4024403992347603 3.208202950893469 3.013343706231718 2.7719532063761942 2.579723267188361 2.407237762947145 2.2656063160978417 2.2118457414412904 2.2548587422437025 2.366328451313124 2.3194516684617557 2.2136096009701647 2.1544950507881846 2.0931981051769215 2.005664073215669 1.8057931562959584 1.7324867701335138 1.6440017378265117 1.4904509779811705 1.2959628744916265 1.099278631410699 1.0378105851319877 1.0820699376706184 1.1495673601438796 1.2578848711268353 1.3821065959569154 1.5364355361479702 1.995604070602169 1.8791525523534225 1.3454905228977931 1.1562800652968372 1.0883200117815381 1.0673646043846428 1.0604810381671266 1.0506465051995362 1.0240172210054523 1.0139096225275073 1.0084192031177657 1.012814465627621 1.0261091712064656 0.7522526506068006 0.4528973651663777 0.4650628457526494 0.46670330529627013 0.3546505124510469 0.211070972589006 0.3607108559986521 0.6144851772040749 2.062893464545015 2.4358037207184906 2.5750728330116575 2.564428465967866 2.191621512474318 1.8012736293072678 1.064171278673342 1.0201999850663777 1.0989716461044465 1.072332159060577 0.9991849390650858 0.9186487183354206 0.8007466333911974 0.674639845385812 0.4549854070046152 0.4180529781910672 0.5433980317596407 0.5738399161074716 0.6441488215954032 0.5199367180861145 -9999.0 -9999.0 -9999.0 -9999.0 -9999.0 -9999.0 -9999.0 -9999.0 -9999.0 -9999.0 -9999.0 -9999.0 -9999.0 -9999.0 -9999.0 -9999.0 -9999.0 -9999.0 -9999.0 -9999.0 -9999.0 -9999.0 -9999.0 -9999.0 -9999.0 -9999.0 -9999.0 -9999.0 -9999.0 -9999.0
6.501016250158766 6.2828837054556805 6.204649568839224 6.236121214258434 6.298295041694981 6.349352053963576 6.361428815472706 6.348523284945727 6.2464604431590045 6.009780438160678 5.780254498188519 5.723119038743183 5.690403095252388 5.634029200263042 5.640699891053257 5.6831565246223965 5.789150482281842 5.897048999969312 6.013949009947192 6.109078452919045 6.0725473412314726 5.939454184313581 5.871028345518894 5.955956970120065 6.152239262571192 6.493389658321802 6.509879355677397 6.294798750509907 6.291267245525397 6.53675856442501 6.745833856133675 6.715689830370441 6.61820015212208 6.8294232283121445 7.213074968244954 7.382838181355 7.374360684563662 7.259904375111607 7.133040006816987 7.072194927197862 6.981683249111594 6.662142853570379 6.241781886881723 5.705295929381568 5.138939565506016 4.97912690974709 4.607381485718433 4.341457077644991 4.150054949921438 4.014472850322561 3.75783645129242 3.543947464829392 3.351543667017496 3.171907613828 2.9785449987956434 2.763834468073522 2.5983987326684965 2.430601374167963 2.2936065185153582 2.2566123388950787 2.2915656119646957 2.3559550050050544 2.3182810543090033 2.2090076668164116 2.151882385514195 2.1006821778119997 2.0185303347323944 1.8336169384044658 1.779364830653952 1.7764653118642864 1.6670033730168219 1.4347214507404227 1.205975732616871 1.1255184926063244 1.218633075343588 1.328218929291531 1.4869774979018953 1.672579115968025 1.918207116917401 2.030196967279181 1.2937175526605103 0.9456149487587235 0.937058832950636 0.9535148520925087 0.988337071259423 1.0049545141781984 0.990023406545347 0.9629820684863992 0.9529050790216751 0.9629847932275273 0.9757380507414513 0.9972565343958759 1.0125907219808479 0.5009028846986225 0.4690659293584271 0.5205913195436145 0.7191480662038561 0.459939653818206 0.339723795105945 0.4025610391838137 1.3950906985737324 2.090920037567959 2.4691745492066723 2.5423930099631793 2.37796659230851 2.059021978878224 1.6501752183944802 1.114857247815267 1.1018666955377616 1.0447077655967965 1.0225573388448603 0.9755123548844942 0.8506522787167883 0.7968141639661743 0.6769640211269268 0.5737802780077366 0.5762375726011646 0.5295794255159988 0.554987210915503 0.6531077531021163 0.4751219514840147 -9999.0 -9999.0 -9999.0 -9999.0 -9999.0 -9999.0 -9999.0 -9999.0 -9999.0 -9999.0 -9999.0 -9999.0 -9999.0 -9999.0 -9999.0 -9999.0 -9999.0 -9999.0 -9999.0 -9999.0 -9999.0 -9999.0 -9999.0 -9999.0 -9999.0 -9999.0 -9999.0 -9999.0 -9999.0
6.694093495233382 6.482258097784191 6.403142918679212 6.445178540044498 6.508704003055121 6.553434320479775 6.558868514403996 6.5519159992773 6.501341213568355 6.361199775205479 6.200515575071302 6.0957388349104615 5.999760412790248 5.863481274508675 5.771891308842246 5.808998245177694 5.907909290123139 6.0171112151258255 6.162618188138465 6.269428510629485 6.295195615928294 6.110209437197812 5.973351320235331 6.246525484669482 6.775905344095247 7.0470670370790245 6.967384865679604 6.392289923641089 6.248046978204943 6.426012043207606 6.737690926243597 6.796236829695869 6.849328947293326 7.0927605301150685 7.311853916577435 7.386605152847196 7.339197936275574 7.1870826998361474 7.078233437012256 6.98718020189075 6.817648328948146 6.568117793965279 6.311059993807857 5.9274597812676895 5.2023350573470575 4.966538545415384 4.554858128285739 4.256982158630583 4.0773051443757495 3.9182734661402168 3.6727261943258434 3.4449883425976826 3.267980549904321 3.1241383127273696 3.003787556214289 2.8616450795073036 2.6919197552962024 2.488540341681278 2.327196894066764 2.285988684212272 2.3105057128990674 2.316995363839576 2.287711838714841 2.2011794813202026 2.134617183288804 2.083972762425717 2.0477905755823236 1.935153148567196 1.8688386631912621 1.8483346944550143 1.787260409238183 1.5599620993791643 1.3348662621197793 1.3201079700475693 1.456445111164819 1.5451446949231928 1.689620656938823 1.8824569891436413 2.018863605115639 1.787868367042438 1.1591572951580156 0.9928689041577836 0.9498796165821763 0.9543995201648134 0.9669711295424905 0.9801774395987151 0.9783353316027208 0.9507460075887038 0.937583954530532 0.940523406021671 0.9574388832365108 0.9704897123755378 0.9937950562245659 1.0072629431107605 0.530001968436757 0.5333266065511639 0.6021278908364043 0.5050870575327465 0.4433295321016813 0.2712495804443607 0.26308502293044667 0.7615444667595199 2.032319774715361 2.3036396774548122 2.3731433721725086 2.1436128108183126 1.8065115852647213 1.203578117132145 1.033086573664494 0.9515656682936542 0.9670965790798709 1.0407451547545359 1.0001085948889186 0.9742147660911933 0.7555705630084562 0.6494958421635875 0.738732204589508 0.6535197310315088 0.5157700178487148 0.6146957870637535 0.648773873583316 0.3134045882681063 -9999.0 -9999.0 -9999.0 -9999.0 -9999.0 -9999.0 -9999.0 -9999.0 -9999.0 -9999.0 -9999.0 -9999.0 -9999.0 -9999.0 -9999.0 -9999.0 -9999.0 -9999.0 -9999.0 -9999.0 -9999.0 -9999.0 -9999.0 -9999.0 -9999.0 -9999.0 -9999.0 -9999.0
6.901644438253724 6.758450194363847 6.7229389434859135 6.7765802600154945 6.812900086678188 6.815214309288454 6.819235079923836 6.822198011726614 6.804113998856965 6.725523599792019 6.539363248616776 6.310345290664321 6.115095854696064 6.029851976055612 5.97351763064354 6.005682060522956 6.0662322116731735 6.17878809188172 6.317297275858355 6.420461360940164 6.468285072383214 6.405838728907936 6.550667142026699 6.941196710065805 7.094897510708427 7.082064011487356 7.067525147830926 6.943545942146546 6.274193237959917 6.360268457186603 6.692465337950654 6.903352692356241 7.1045063338185965 7.28939352953909 7.413762359581634 7.428502621269447 7.301771159502394 7.127330886750254 6.979619068031582 6.824155331541232 6.6800512398618785 6.494357884249403 6.3106730295767735 6.014560992762017 5.2855809545133186 4.910810270284106 4.577803848710369 4.225110565375917 4.023790292429138 3.8154212827581566 3.571803043069308 3.3646744303623977 3.1941130867896477 3.0883719266361016 3.071408466368052 3.0329812814294868 2.8851952320866414 2.656044293159991 2.429967459052309 2.3524943265021165 2.328716879242361 2.314332949272362 2.2780875201574355 2.2045857248786143 2.127585815443168 2.0832473658695267 2.0691221692887654 2.0293710888454943 1.9738587235787521 1.9393354603293913 1.875122457229237 1.6879065390199368 1.454270744666139 1.482547834179521 1.6065108544191864 1.7298389800058576 1.874835047977722 2.03341706988904 2.0320550942853726 1.5551699809717279 1.265993939891835 1.1471463204034191 1.0468555321961435 0.9742017115536301 0.9653123656778861 0.9732588687834487 0.9757318213580224 0.953307029268881 0.9246192054103652 0.9255803186773304 0.9517137523793586 0.9655761355066199 0.9772032481917237 1.0158246500198544 1.0299876926541924 0.5749485349187906 0.5989041485787019 0.9586899993185087 0.4547275703817017 0.25262747378332473 0.2437966606049112 0.3931528991464426 1.1080371328188843 1.974298889119884 2.177895633554153 1.8597118306502856 1.6463822309520493 1.4264435027793996 1.052468000410863 0.9661767790611095 0.9656252016357625 0.9597852606104655 0.9763006537520129 0.9857802455301621 0.8425846311817411 0.7012769348361951 0.7229510961178705 0.5787504887932888 0.4716785464373462 0.5940868275846769 0.6552638728559346 0.6526582292189482 0.3324011869249247 -9999.0 -9999.0 -9999.0 -9999.0 -9999.0 -9999.0 -9999.0 -9999.0 -9999.0 -9999.0 -9999.0 -9999.0 -9999.0 -9999.0 -9999.0 -9999.0 -9999.0 -9999.0 -9999.0 -9999.0 -9999.0 -9999.0 -9999.0 -9999.0 -9999.0 -9999.0 -9999.0
7.050851761486886 6.96014570964517 6.945755727267761 6.988276195501864 6.9937935246945315 6.986594778936921 7.01012127298799 7.052896095877541 7.082945442157909 7.020955878611902 6.811712663082073 6.5448843179804355 6.3072616266424495 6.188457916485982 6.188606751656343 6.295949625591263 6.463947423107543 6.52688422127979 6.514552350810186 6.56665586370852 6.635756599416373 6.682195002141272 6.8040000524754065 6.996166330299065 7.067884784814208 7.066602888777743 7.102714948212563 7.186737292978206 6.885318633144715 6.6435550298327195 6.892562235329917 7.103693859396897 7.293637735706555 7.359594753565169 7.392314121387345 7.386305041725728 7.198172161718125 7.023119691088139 6.818304753092307 6.679280058219464 6.525540756241278 6.3715712411617496 6.199409614870059 5.841654985555791 5.22625437994756 4.850430706054382 4.558292518419686 4.250626457785042 4.001666020318003 3.7206267408743052 3.4679968768222866 3.31780155984901 3.1551446350242247 3.0897966937312846 3.086361320276983 3.093013487258575 3.059695683477426 2.8567769610187166 2.6326106645742797 2.486226922320923 2.3874556591472196 2.322288244073087 2.274700821697581 2.219030692054178 2.159410215724401 2.1097584456489176 2.0819234960563904 2.069320905215315 2.028841785015472 1.9774618426861685 1.9504799499508485 1.792223830011526 1.5598860072123049 1.575730196247385 1.7310232933251322 1.8750069346037164 2.005148070918919 2.064182297229793 1.9808636791272853 1.6643387214357679 1.4075887352680445 1.2583522599355113 1.103700240004738 0.9709171915486774 0.9381905799374282 0.9556920883226754 0.9718729610948693 0.9503271042971264 0.9076429477623038 0.9114785802955745 0.9544555718727981 0.9684781811516969 0.9825806043385763 1.054961796529482 1.0865565830541628 1.0556714169587385 0.9903276944506489 1.1372643568029885 0.3627947524358434 0.3256935284627323 0.4034322619915809 0.5529033160025834 0.7256477079005934 1.7909978257575274 1.8724988128726991 1.7331584932649815 1.6556487958629367 1.5273327589582677 1.124590446517319 1.0459462189462616 1.0050415115456866 0.946817286670323 0.9645133071250438 1.0060089938506864 0.9062148154266072 0.8988886578438342 0.7155183800235825 0.5478127448951213 0.4915067395845951 0.5150241066720325 0.6002443426738677 0.6847932278055646 0.6976711346127493 0.4441462647136732 -9999.0 -9999.0 -9999.0 -9999.0 -9999.0 -9999.0 -9999.0 -9999.0 -9999.0 -9999.0 -9999.0 -9999.0 -9999.0 -9999.0 -9999.0 -9999.0 -9999.0 -9999.0 -9999.0 -9999.0 -9999.0 -9999.0 -9999.0 -9999.0 -9999.0 -9999.0
7.094932109916773 7.069517134381083 7.047647323634801 7.029893096809439 7.025626413697643 7.040677255831782 7.074622760621793 7.120549935475784 7.195987740137895 7.172900295923712 7.011454272038867 6.769162844824376 6.526282992772336 6.458212953292552 6.54429782933111 6.6777446000905964 6.723346619809382 6.71263414260841 6.652868079204748 6.645710779649741 6.702660611187914 6.800149408407668 6.913641246900455 7.011375915043787 7.068231470052161 7.3112088966766855 7.4868984131523355 7.563395336958144 7.440379750613122 7.125261915104883 7.187526365346485 7.382077419939753 7.376363573671725 7.346364246142335 7.251393308677647 7.161082773621259 7.06659333617171 6.882375744597336 6.648861989630986 6.464198880357936 6.330641813283069 6.193927174991115 5.967358279221512 5.557983696390833 5.117856058525741 4.747703477429901 4.425731021983566 4.192182485934437 3.975733174141002 3.6434324801885394 3.437202775281887 3.342394749312076 3.1945789945219576 3.1164626138099023 3.1278304881529224 3.1684324444592655 3.087162013340303 2.98066340933106 2.8339687585281097 2.633921016564772 2.4618527709791502 2.334334859096273 2.285803319728456 2.2512536269502372 2.2024922838334713 2.1675155198978495 2.1501962008625726 2.1068171314519364 2.0649819152686497 1.9802188060530017 1.9314138383340076 1.7899048171838026 1.660808691680549 1.6940344682311224 1.8464050226824364 1.979585733244172 2.0669175259979435 2.0628711405697406 1.9230612812660413 1.6843565982436401 1.4466752391087945 1.2729986444198624 1.0912022293397368 0.9261686558396529 0.8647425487500666 0.888253234747848 0.9444891808301747 0.9214232272598983 0.8917362849771986 0.9032912185190225 0.9618161047429183 0.9818889077592687 1.0160292623611795 1.0681444953649302 1.080565382707839 1.0402825968505045 0.944206488552533 0.8849892333232514 0.4242954272971856 0.4086326448784353 0.5111320897085442 0.7686686719069049 0.7531846738684602 0.9151010275790326 1.7198038917071699 1.6899915491978175 1.6782102222048338 1.8018571401517218 1.4957337572544125 1.0925662226574036 1.0820256405270325 1.0962799214823797 1.1368169009245521 1.0728573795329928 1.0079311749836792 0.9358162563261794 0.8718622022837401 0.6726203582682322 0.5928668572232341 0.4787108174716748 0.4815217222315667 0.6296161676155592 0.74677782051467 0.7177772984077453 0.4620424055679118 -9999.0 -9999.0 -9999.0 -9999.0 -9999.0 -9999.0 -9999.0 -9999.0 -9999.0 -9999.0 -9999.0 -9999.0 -9999.0 -9999.0 -9999.0 -9999.0 -9999.0 -9999.0 -9999.0 -9999.0 -9999.0 -9999.0 -9999.0 -9999.0 -9999.0
7.243933566373924 7.230409095086866 7.2131452990134015 7.131971062317713 7.079248108831789 7.094346278722849 7.136034970484117 7.18834812926486 7.303070838531819 7.303705041473968 7.093409059297309 6.998315910327314 6.795054363489682 6.74773082324305 6.895355195946225 7.013189888917247 7.047192122716952 6.982217819570478 6.839621664573169 6.758822894253619 6.839024801049232 6.953408779806434 7.04053114181967 7.154775554858826 7.430798020936272 7.734977963772721 7.94856585541697 7.980505927410558 7.8493365981390815 7.6914643571379155 7.744063119353845 7.687894884964482 7.465982607159676 7.207436711256506 7.089225186113621 7.089978041434503 7.043536341850806 6.756443022401218 6.442421276060625 6.249316234450913 6.137208686305993 5.970309661013751 5.606554400497883 5.264647559398485 5.0075745744258935 4.570645189859475 4.238380444700626 4.070040250211459 3.867533614145299 3.5927473899609366 3.4609004870610165 3.3970277676152496 3.2702508027767916 3.1287265336155636 3.1129585873268764 3.1248637618295203 3.0559048900117927 3.035358237533561 2.983647881575098 2.8206052311143233 2.5346294078636906 2.366718048519162 2.316719138988192 2.2960705411070026 2.275283953313996 2.2638389063024906 2.209605047081953 2.1280713763938404 2.0757815499573957 2.005173593374804 1.87539117040793 1.7948163311147753 1.7540731621019956 1.8536717630394641 1.9772764960357625 2.062656572342653 2.0661109317650386 2.019641545923213 1.874069124284877 1.6612360242430662 1.4180767063578004 1.2626517344846533 1.0915894495215486 0.880361539098987 0.7662889213666133 0.7908866123274072 0.870296909672712 0.8920213729855 0.8959955439112468 0.9317422925605474 0.9880043940643972 1.0225308489761835 1.0539661539682463 1.0769155048093884 1.0976491905744659 1.0345671018039693 0.9041018069878952 0.8425647937009995 0.7435928740592106 0.4937059819882698 0.5103183273126624 0.5971234900532256 0.4782014507006923 0.5626771641861525 1.5623464134490974 1.7289477601176808 1.6783502926611316 1.8433895539334149 1.8348914981212563 1.2111633208876442 1.0895682049322535 1.1990125004639862 1.202683720946444 1.083987321766462 1.000322354445554 0.8805669805051792 0.8524536313276465 0.9156728612521656 0.7141355963430638 0.5066730624896307 0.4220413421959947 0.5224585127434198 0.7452395848684665 0.7899020795785758 0.7137140122221215 0.5136027425947375 -9999.0 -9999.0 -9999.0 -9999.0 -9999.0 -9999.0 -9999.0 -9999.0 -9999.0 -9999.0 -9999.0 -9999.0 -9999.0 -9999.0 -9999.0 -9999.0 -9999.0 -9999.0 -9999.0 -9999.0 -9999.0 -9999.0 -9999.0 -9999.0
7.446339650883314 7.446795297823636 7.440912188661066 7.363364147139551 7.247857969895077 7.210126565375518 7.224426878468542 7.283004235747747 7.501256642058088 7.655329995116261 7.4136745704827325 7.249981396903349 7.105479602864559 7.0583261942096165 7.049380363693787 7.046855879153381 7.082881384738657 7.155673545091414 7.092148898277074 7.031252269646744 7.068926345279117 7.16150447385183 7.320537401749679 7.554817444310718 7.862909273243474 8.162244326196967 8.218751336852602 8.179535882406814 8.156663439671771 8.077611075069585 8.021366075469194 7.845931251067098 7.3617969234035625 7.059473341561664 7.0543880959803165 7.07789469161532 7.007995886243013 6.709391125960506 6.356701953604945 6.145817262768626 6.025433042802221 5.7143322029617885 5.343700862815298 5.122408761740948 4.890761790609631 4.434167396989073 4.120812623747636 4.041000754838915 3.811618361457133 3.5786193777346336 3.4779119618803542 3.4226804453403306 3.3141694337743517 3.143411319988685 3.0859561940047464 3.0699672715230424 3.0945401938885486 3.1435238590994246 3.0876734948896116 2.965898258510416 2.6780021208186975 2.4522321570121863 2.381338192661016 2.3704439319481776 2.3891706855150825 2.3447092873649846 2.2537258107738833 2.124346781865195 2.0810190453512227 2.056773673114448 1.9408556626408728 1.8689125883894486 1.9241096400791882 2.007816089989328 2.0664561219880726 2.0677061959420517 2.0377154808554745 1.955056750513369 1.8179963626934441 1.6503528830515986 1.4398421203710876 1.2566321035774615 1.0765309764178597 0.8907372411099661 0.7094816637039185 0.7453131885560236 0.8411789887865069 0.8909894407343188 0.9306457198214935 0.989578707453922 1.04290302740251 1.0673168147069243 1.079549645650112 1.1450189194499876 1.2017265661834782 1.103918921132706 0.8633351554224586 0.7261748248551323 0.682028544200554 0.4471526334880732 0.3728241584787504 0.4593533158286629 0.375571456427484 0.7627343249885237 1.5027880450957332 1.7860727469736135 1.7766079314937784 1.7861795217982035 1.8680848229825449 1.3310449165401992 0.9966649335983375 1.137822888899251 1.112966263146961 1.007590281538065 0.9790679529237729 0.9008294440070288 0.9231342239344271 1.00909864870603 0.912357481414823 0.7181996357917548 0.5777326120930613 0.6058058204587271 0.666019999732459 0.767564992184133 0.8762406696755813 0.8367048635008099 0.5513549996603414 -9999.0 -9999.0 -9999.0 -9999.0 -9999.0 -9999.0 -9999.0 -9999.0 -9999.0 -9999.0 -9999.0 -9999.0 -9999.0 -9999.0 -9999.0 -9999.0 -9999.0 -9999.0 -9999.0 -9999.0 -9999.0 -9999.0 -9999.0
7.70985108261312 7.675341938888122 7.602854068172696 7.516138978179115 7.426670942222868 7.364888531559553 7.3406382891313315 7.4112702464241025 7.7056470332320774 7.9418779018763335 7.813638517843318 7.565511376980039 7.320498815932028 7.135609092485161 7.053736097712809 6.983335484004932 7.084359221888708 7.368389185972724 7.482449930858415 7.398968025892406 7.466017725641715 7.688060708440086 7.753831209747251 7.922907615392786 8.18171109034988 8.337960245198897 8.323390317752267 8.260740411215313 8.207836890912791 8.109744002904547 7.941969662901906 7.500242150640822 7.090632946337758 6.996820289783515 6.996478437217929 6.996579465017237 6.843322668788938 6.57305901127687 6.302975149639 6.074853220109082 5.791516480235173 5.483103479599244 5.279275485416543 5.092098061336766 4.821966264641687 4.442029697876282 4.141783418929006 4.058678880059112 3.842419190980082 3.6052310817451136 3.489935344529073 3.4174196700649566 3.3138095205594547 3.2227875538631046 3.1760352680788895 3.201755845163468 3.2208990358283547 3.1935680435549068 3.1294503471000623 3.0552432111045222 2.8290618363293896 2.618784500551724 2.5133795590630146 2.505697961779824 2.45982231171009 2.362754987124374 2.2481697638604343 2.169085794934468 2.108820580310125 2.084248415760688 2.05945777369199 2.0531559088440514 2.058118024770956 2.0696171131756302 2.0703554515131 2.035101116197108 1.9520676723195172 1.850582821123788 1.7241218668088203 1.5810844422525705 1.3944635224752417 1.2511468298585646 1.1205303858020152 1.0504718493161724 0.8286451031039377 0.8302269324924407 0.8938837907171695 0.9531091423148585 1.0123764415871983 1.0630736316828624 1.0836304068401144 1.1039414189776982 1.1603789576113475 1.2374936911155194 1.2566722921739732 1.1329653743295716 0.7895936653410855 0.6485705957814158 0.602282659234634 0.5450557608592688 0.35047176391764673 0.4864825848525533 0.6534357097592474 1.1295992730518865 1.4214636206639955 1.6681130569788614 1.707173964589233 1.7195335466315207 1.8116804574634844 1.6993204101689192 1.1902501082855577 1.1962171774399482 1.0943335675501127 0.9500174703533069 0.9482061869363272 0.9366363405500682 0.95266253732296 1.0534049597796904 1.0013476263344567 0.8041420702393689 0.7446295727955328 0.6566895669322361 0.6216044113732988 0.6499321486297494 0.9263057903793801 0.9369934453293998 0.9150779019038617 0.3314315540599219 -9999.0 -9999.0 -9999.0 -9999.0 -9999.0 -9999.0 -9999.0 -9999.0 -9999.0 -9999.0 -9999.0 -9999.0 -9999.0 -9999.0 -9999.0 -9999.0 -9999.0 -9999.0 -9999.0 -9999.0 -9999.0 -9999.0
8.046370410837648 7.9229163145337385 7.788159172368706 7.706674450703652 7.6910064685003485 7.656416765962872 7.533952419139595 7.548783935017899 7.733457709706001 8.08221438498677 8.069655178524231 7.852224945950796 7.566643451432392 7.277608385201706 7.136961007178933 7.035557565733084 7.260878159258942 7.535148528695626 7.653592574121682 7.67163498594488 7.836614628742106 7.989939207629665 8.088381334765808 8.244014770860872 8.363795473016213 8.364500760358121 8.329432648205907 8.261598708770157 8.132043638714427 7.935676686144183 7.55662958946868 7.153297189072457 6.995894100866943 6.948617650738726 6.9682180281629496 6.938107839363138 6.671560370243833 6.380635028952977 6.140278850688995 5.885945178568418 5.462227349084321 5.307181254523594 5.237466446333048 5.046472416520203 4.774638090215535 4.421457742453331 4.141202485385367 4.065025435484325 3.850801465146276 3.6451391301065303 3.5017158088940405 3.400067933535144 3.306257571884645 3.268629017605265 3.2801114662728823 3.3385210816186026 3.301810550609503 3.2300431205397357 3.1396185636310343 3.0715334539451606 2.9185882018651124 2.759333599477888 2.6730434863895107 2.6147256859492134 2.5100109405553255 2.327633770328949 2.2568422002024118 2.2119012879482396 2.153123441762836 2.1150603552795912 2.097204075309199 2.07981878023599 2.0703251894406907 2.0703644209213263 2.053557841128567 1.9393515901714888 1.825214717051279 1.7404076692586055 1.6157706529914881 1.4719519829344125 1.3995453239041915 1.3289182004221771 1.2416166673693598 1.1663568373921018 1.0207444841179312 0.9815816559950088 1.0100969366983628 1.0609889026878345 1.0907781329948039 1.1396322762516868 1.1847209365009916 1.2205098241498777 1.2620913750983076 1.2922797150951926 1.274901917132883 1.0834277761344566 0.7976993310391278 0.730893819898375 0.7360294355572161 0.8033055644793827 0.5292116423462011 0.3676492718237237 0.5427183598784515 0.6338075332687079 0.387211108062247 0.2316966173883398 1.2484651456825318 1.6829360659070574 1.858482144605218 1.828358130028571 1.3651946989570982 1.1177737388656153 1.0208304469546412 0.9242269211769809 0.9668910557140307 1.0196834424038608 0.9886430966315201 1.0143946457008808 1.0094213889398969 0.8648811391805908 0.7794923955709652 0.7024232374499517 0.6220173616175102 0.5987780697339518 0.9432937705191509 0.9893794882917613 1.0314893416133009 0.9402267374991196 -9999.0 -9999.0 -9999.0 -9999.0 -9999.0 -9999.0 -9999.0 -9999.0 -9999.0 -9999.0 -9999.0 -9999.0 -9999.0 -9999.0 -9999.0 -9999.0 -9999.0 -9999.0 -9999.0 -9999.0 -9999.0 -9999.0
8.128958296291492 8.077310338047221 7.977266931293816 7.935969646158593 7.982141675814686 8.010319311378485 7.915637719325444 7.6919374995102 7.783713665927663 8.078840794785007 8.14335605183861 8.072042649201286 7.815920502810108 7.490282893772886 7.398128480219552 7.513517750644689 7.600688750646895 7.71435545559871 7.766549687470029 7.829274815612245 7.944878605106494 8.057812145298248 8.270152123980026 8.476290038586454 8.414238748133542 8.34190478882944 8.23933219451944 8.115225738311954 7.94918862186964 7.62876926649151 7.273098918836475 7.071452909519108 6.95667504997631 6.914730736342451 6.940071509600385 6.930937822816713 6.5538071192407585 6.211715547018839 6.003729930928341 5.689281122605324 5.315378862932709 5.216259500299043 5.097388896531838 4.922245537579215 4.700533614967797 4.356081254554919 4.1031350119381935 4.054942404398729 3.852425672294977 3.6906517020999177 3.519392973916978 3.371295860877046 3.276292365537405 3.266729939451018 3.298805252438699 3.3373185065761284 3.3136388236591827 3.243076462911148 3.152357283101957 3.079819642625454 2.9935477234858636 2.8764897386362525 2.8134675438796486 2.75094334529993 2.583780318774271 2.354937655633045 2.263429385649458 2.23058133387732 2.182242977202468 2.1440095380450614 2.113782342061999 2.087647778580731 2.0719239716164943 2.0705073874811735 1.9857784426126532 1.8820407504170504 1.8259725702212302 1.7333687473990316 1.6055941890523358 1.5073167287170977 1.4851330988037361 1.4695059222395142 1.4016644969299843 1.3280067643188243 1.1218134080631648 1.0546883610260507 1.0915780037408103 1.1418535590111172 1.1981836753778832 1.2556430161000691 1.301260907457892 1.3349578659415409 1.3531693886480922 1.3626630523322012 1.334312460587229 1.139043979876565 0.8327763708864209 0.8544676972731426 1.0275777391527956 1.006449597074827 0.9611020638994323 0.332940881753656 0.2781120815720668 0.28653020612183233 0.1249970023266814 -9999.0 0.5330764126307248 1.1447660404462245 2.0236391558211118 1.972777904026692 1.3335146509239617 0.9419866180531904 0.7088690153718649 0.7940036902053844 1.0141105484152964 1.1094504315933276 1.055370268939436 1.0152059629074908 1.0064528348125927 0.9110322830307014 0.773134340032446 0.7072697653517055 0.6282563324613468 0.5964755481628055 0.6220814817346465 0.8260727573936075 0.9143546846568698 0.8235714847133404 0.4255134938673613 -9999.0 -9999.0 -9999.0 -9999.0 -9999.0 -9999.0 -9999.0 -9999.0 -9999.0 -9999.0 -9999.0 -9999.0 -9999.0 -9999.0 -9999.0 -9999.0 -9999.0 -9999.0 -9999.0 -9999.0 -9999.0
8.08814579753805 8.083792120545164 8.08839437947385 8.102875949068435 8.131388160129125 8.153923318643459 8.123984284570836 8.065120195127696 8.028209059199089 8.115774548931823 8.208335205277688 8.179963113824922 8.00618121919347 7.715610345525146 7.661729908249066 7.784688194507469 7.851954766380164 7.8773780098551835 7.974574551985722 7.985549735294061 8.036517967526914 8.174317486187523 8.483174790138863 8.712327508955472 8.545119636371957 8.215522013230807 8.076405848773756 7.923083037187599 7.635066293689139 7.346712078686114 7.1391139243908235 7.0110959933301 6.856788589933114 6.754163084639499 6.738320198660849 6.723599296770857 6.279849961086814 6.029063536174913 5.832941829751422 5.5529041172787625 5.260310806173051 5.120379284966713 4.982252190253984 4.858250743337051 4.676928814339274 4.348574501502636 4.10663472492007 4.062218371079042 3.957016041074792 3.7799513972612018 3.5657802137293397 3.3391890793600876 3.228226192980564 3.2269689271177584 3.2727505389360516 3.2965244463774233 3.282957038560849 3.2592762268197837 3.1855612713458 3.11467976540521 3.058590507825532 2.9929866560868343 2.940830541157789 2.8772546484506236 2.7046294553651458 2.406009634490981 2.2548099334261087 2.2089839882347317 2.194283573712581 2.170643578663124 2.140767073450206 2.1127320975049066 2.0905887490022947 2.085396881441216 2.0150594005693327 1.9302559594824236 1.910990552581887 1.8619941429564604 1.7286835793414042 1.6501858162727001 1.6511801606024428 1.6188740631412741 1.5440685558085947 1.4530636005730313 1.3247409594214719 1.1984455232287494 1.2357223716750196 1.2905246151745204 1.3523272238701736 1.3990347958062406 1.4262391898735685 1.42738779108262 1.391202771518465 1.3760441875455844 1.3345669593137817 1.1874032858785997 0.9166101894928047 0.963508596267316 1.0705932632901847 1.034351440360493 0.9447969048824072 0.8231087611377441 0.2970291720515448 0.2866133142719605 0.2626019650694586 0.21365572623831142 0.5918756239034988 1.0658296860089491 2.008718783265082 2.0565896692852017 1.5274487381580641 1.016634393193928 0.7891323033068116 0.9425235538837993 1.2241784210266393 1.1900724636831095 1.1028522165735484 0.9998512037452014 0.9830961733740371 0.9423736841059249 0.8461009282319452 0.7873971053884647 0.7012418338153568 0.6146017748517649 0.5795276470212347 0.5793982325142031 0.7394461782801602 0.7209285644534951 0.6408846251224316 0.4959550982641399 -9999.0 -9999.0 -9999.0 -9999.0 -9999.0 -9999.0 -9999.0 -9999.0 -9999.0 -9999.0 -9999.0 -9999.0 -9999.0 -9999.0 -9999.0 -9999.0 -9999.0 -9999.0 -9999.0 -9999.0
8.065325088500975 8.110222243685032 8.178917398325817 8.244466546208463 8.296042843321189 8.299954296254173 8.233814627465211 8.197183809732726 8.232504447561707 8.303012703651067 8.280320943272757 8.223064509362402 8.098423882685456 7.9342509192321025 7.809129937777731 7.882614125051732 7.947923315706713 8.233822664869177 8.499986854290153 8.448080577198642 8.475660490488186 8.568240472421243 8.846332149210966 8.950742632352496 8.60265276908764 8.070136670925967 7.888813956043556 7.594557048120205 7.291857090896359 7.151267651394884 7.038336244269184 6.794214949163116 6.621301110393982 6.389518386463837 6.135337982018488 6.039719722961005 5.923772420057461 5.801042877900897 5.6726709776221345 5.467363374135362 5.2218286960849705 5.080600782169318 4.937634784003981 4.811798484273647 4.6749948006718895 4.385895762523364 4.155813661057538 4.078642945683003 4.065760261837659 3.9357953032384256 3.656312397349825 3.3433653469328544 3.191781791751905 3.1968473727871274 3.2425368026809513 3.271165013242984 3.303876365622061 3.3084237670559125 3.247128912996798 3.184633969241181 3.129471405615958 3.0763924502962356 3.037163203575929 2.9743233847117927 2.829504674837139 2.5161066157610597 2.282672720150104 2.218698169136057 2.210816820277864 2.199952664064528 2.183173082469926 2.1706206862764104 2.1535814467591603 2.1254809035881665 2.0911264653168407 2.036213577437765 1.9976902490450488 1.9551574939551488 1.8891693944362065 1.843323453027234 1.8127572339150693 1.7582747273291737 1.6737786980267644 1.5851537990534061 1.4947939945922468 1.464377725179124 1.4513320973880737 1.487973187153989 1.5480393461861144 1.5638516269010219 1.5485760121518248 1.4870511369038317 1.401403596184447 1.3154290326548528 1.2223559321601993 1.1041334654522645 1.0207728707936492 1.0351104724867408 1.066731674878372 1.0666778005083184 1.1348376197937302 1.2649747334295627 1.0783095571859487 0.3761301294553394 0.3236860035387354 0.3396435323570212 0.6861578773666959 0.8713115926822672 1.386954302764254 2.2078883412515187 1.9637918066075208 1.3291258217405224 0.9973218640596488 0.8951350002050629 1.0668711072313282 1.1107339835766392 1.0803786250129024 1.011483957420014 0.9747617957798167 0.9143920463436508 0.902922237557676 0.9670844824446845 0.8501043277779061 0.7200856068303045 0.6308590335970354 0.5508195805531388 0.5889805110491244 0.7009454365429775 0.8176634840011499 0.7475241900320724 0.5667813535668988 -9999.0 -9999.0 -9999.0 -9999.0 -9999.0 -9999.0 -9999.0 -9999.0 -9999.0 -9999.0 -9999.0 -9999.0 -9999.0 -9999.0 -9999.0 -9999.0 -9999.0 -9999.0 -9999.0
8.170251767629365 8.212704349325929 8.280002797242917 8.373122869612628 8.461688326492737 8.483333912365753 8.38677140742043 8.284124119097246 8.32500320934887 8.399717447936657 8.454367901471608 8.341280648438598 8.191790395099371 8.100048923529007 8.020461948020431 8.015552029710207 8.181216588142389 8.552193858995269 8.66718785527264 8.7162644776144 8.85872621508998 8.97039175003324 9.00129161759074 8.900105448521535 8.370905282166268 7.971233395609728 7.677650050436188 7.395492359072879 7.179058216779897 7.101691924300044 6.81920739571214 6.4943343082732214 6.242308554251579 6.0153159585205636 5.8810109345142285 5.719298369174547 5.617549200798337 5.605059911378557 5.540396677111859 5.3414950301960165 5.127017914302217 5.004909199524992 4.834765681490454 4.713703783566122 4.607468698498577 4.47362215393668 4.28572122144473 4.189541204412028 4.116180871823947 4.004185002958458 3.765568649827842 3.4770740824576496 3.287167340792213 3.2564994742136473 3.2575917781465393 3.3383541811683157 3.3697300333110594 3.3060353365650696 3.2551132792311455 3.2079214503288846 3.181433651575175 3.1515649079768906 3.106253197480032 3.0680451642516657 2.969739451819548 2.7004230280569033 2.4343784378027586 2.319820757622086 2.275792143274184 2.2548713383182726 2.2514517754703403 2.2701880639746084 2.2759654506806646 2.2593837271775823 2.202705767393761 2.122594616824673 2.0694807828633985 2.0298987094320697 1.9878702865887337 1.9711588259221104 1.9442328220969485 1.8880299164134617 1.8237985638594458 1.7713276793481445 1.7679807212712226 1.7910833162227509 1.7610217965021997 1.7472514127753949 1.7459763652566573 1.7029571899699982 1.6146835698779272 1.5249294294223477 1.3488018798904753 1.1889549987697092 1.1079902996917586 1.0182151925294147 1.0307172136408738 1.0842324902679876 1.1199096398075417 1.1920981530531665 1.2605855706547007 1.216162699095 1.0691237633950676 0.4382022297784124 0.3027846401432349 0.291962924101571 0.7173951396281137 0.7985460806805251 0.8978929433777856 1.7593208578294035 1.8869244499771891 1.4425239879685998 0.9633318616296802 0.3517988026471271 0.3563343905092205 0.5952996328299303 0.96555762132066 1.0807869956372296 1.0316383084487315 0.926342624600865 0.9542549104751898 0.9547056986316278 0.8510429057238584 0.7584964874156856 0.7183611180480998 0.6883812903940658 0.6361868333280907 0.6606719712266349 0.8175112269959957 0.8333767279648554 0.7401322040846519 0.532174412628014 -9999.0 -9999.0 -9999.0 -9999.0 -9999.0 -9999.0 -9999.0 -9999.0 -9999.0 -9999.0 -9999.0 -9999.0 -9999.0 -9999.0 -9999.0 -9999.0 -9999.0 -9999.0
8.452488838046571 8.378279631450352 8.431745675320531 8.57123034774347 8.689658255452091 8.711077569913712 8.598898790298986 8.428907449590548 8.371361067975656 8.42524983200746 8.534994674882835 8.54032803169008 8.45774238872665 8.39672457439044 8.367741953545805 8.41405222765548 8.536805782688317 8.662950399641096 8.792440267157062 8.953616990285397 9.02242177484919 9.00830801432016 8.83151276727903 8.47304827450319 8.129889094284644 7.835333665068741 7.507541767171456 7.2858390786161875 7.167951814191255 7.015028995608678 6.535632902116334 6.184197466239159 5.998717967356985 5.909754787886064 5.762780308395408 5.541223114178031 5.399851878251114 5.360444288680232 5.277774165720274 5.095257337463862 4.936642554280227 4.765470897830562 4.643398941977791 4.535073186700822 4.467077075073428 4.393827869535173 4.295206670151848 4.176842634336891 3.65553439009625 3.8868612689206166 3.831136925146644 3.6581534987783972 3.4788117398591285 3.38994098474643 3.389544018557373 3.4851265898103794 3.373856146827496 3.2290802631607343 3.18330798635871 3.1666643277915467 3.1771068733077845 3.184552134839152 3.196859718014028 3.1117065894637 3.0675695498058198 2.8376489249267793 2.566197373021444 2.431829010302836 2.371301230637909 2.350984023177672 2.3714611580457716 2.424019583628088 2.4685921819114 2.4815214483415957 2.4598004349140306 2.3448920108045646 2.1589966404962175 2.071366409131601 2.0644404326741417 2.0605422004803917 2.044796220848152 2.0129526522097345 1.9767942890859804 1.9669173460458516 2.0027034850510974 2.048689081330716 2.03241890102254 1.930458070247996 1.882338199950492 1.7862355513923573 1.6352045891597184 1.365167973917829 1.0704128592020146 0.682114161935035 0.5530349558224064 0.5055445084007798 0.7125012784524232 1.173607931032028 1.2276942219055627 1.2356033971266818 1.2545987049989644 1.0688071077791264 0.6886614409460772 0.4837510985793454 0.2877245001548311 0.2426897365718415 0.3515055962146013 0.4771623626349164 0.6775431463489594 1.068028897180912 1.4670079930073059 1.7287941388496513 1.136863662254329 0.3452284629311327 0.3252499097472933 0.3897708116846541 0.8331508950535169 1.022414493129383 1.0634020792838428 1.2437885021304018 1.2060387248725595 0.8577364058436918 0.8021478584712847 0.7731896993453464 0.7549404018095425 0.753686138584031 0.737316724451121 0.6607753628489841 0.6543631020607266 0.7614103914930934 0.8398787551232592 0.8437369396821728 0.5035440037128015 -9999.0 -9999.0 -9999.0 -9999.0 -9999.0 -9999.0 -9999.0 -9999.0 -9999.0 -9999.0 -9999.0 -9999.0 -9999.0 -9999.0 -9999.0 -9999.0 -9999.0
8.666011645089352 8.547673321411366 8.610259001576756 8.801945482301676 8.924183819587835 8.902226343839622 8.783363757720986 8.626406031987003 8.479857649305988 8.48983007636714 8.620918682794763 8.770279867178745 8.838513040704413 8.856884698597584 8.846215391012247 8.885121693671241 8.942837679414348 9.00708187163475 9.0472869665582 9.026921029403441 8.861251901808627 8.572127904275709 8.287954682351332 8.106400209147452 7.977691081062402 7.578284526300555 7.246362855328392 7.1408800969213875 7.063071480597289 6.65438753367606 6.174603791773923 6.00595265757506 5.903643024674054 5.81856487584851 5.650024826464845 5.363587779068061 5.177919852211573 5.079506408857304 5.018469287248279 4.906645923583877 4.7469656734003 4.6199338132134535 4.491470268529841 4.372720408791312 4.2503230977501865 3.77010453869533 3.6073617055070977 3.549612197877936 3.5215627096070183 3.604071485231125 3.8840158200531856 3.810410476018814 3.667725061364972 3.5669409066144757 3.592053866323008 3.584950554156505 3.403078626414614 3.2039911959392966 3.1300020989759605 3.1003880093147984 3.126384332015998 3.175442601362872 3.1978197550821785 3.1294818361264536 3.062776253109189 2.8451665930322907 2.610157284414711 2.515835242510938 2.4688578799686036 2.473636588575066 2.5215468034631106 2.6089678730938437 2.6905699072993956 2.749503925976721 2.7745349908552943 2.557353723225792 2.2111699708820978 2.083824210519199 2.0860073982831615 2.1225104498927623 2.1323939874555196 2.1035990409207255 2.0854231987747887 2.0937140938505596 2.1378975222749226 2.136994274448584 2.0824452888612917 1.9314374720669405 1.854381627717323 1.6562734400611376 1.3015584508116818 1.0792134036908085 0.8308026718309933 0.7412526888524824 0.6711645337047856 0.6451535465752878 0.7373904560166278 1.1122008255140272 1.3321493026796472 1.3397703199396256 1.3675181286898737 1.2725332140012924 0.8289943066647754 0.6385678544773861 0.40039943229701513 0.2688232735661264 0.2951354747998586 0.4861419691512977 0.8167924095292505 1.0462868335394009 1.2057318432934867 1.7669987883413845 1.7491690997915392 0.8884811454215562 0.3820492557123724 0.4599658831315786 0.8703686193009881 1.0419669006977632 1.50687545183366 1.6400234028038942 1.7449203290597681 1.3396480661211592 0.8535656915436531 0.9159022910716164 0.8108714570402484 0.7322806729759592 0.6507868872869755 0.6000998321703732 0.5253223774797887 0.5850202837788472 0.8211133554013275 0.924612456672256 0.9123320813792475 0.505923837417375 -9999.0 -9999.0 -9999.0 -9999.0 -9999.0 -9999.0 -9999.0 -9999.0 -9999.0 -9999.0 -9999.0 -9999.0 -9999.0 -9999.0 -9999.0 -9999.0
8.837001563689071 8.693905212238564 8.788809779513848 8.961795474326852 8.991933494950628 8.992464877520462 8.946288802112994 8.846506296796829 8.799911602774875 8.826765166425782 8.986872813411447 9.060922535176076 9.1054050891571 9.16887871952714 9.119402095498785 9.047207209364768 9.064118415594816 9.150122556075925 9.102047221310645 8.803554509562437 8.302520722008126 8.07885674157911 7.7856570289602836 7.650953394384627 7.507728858815462 7.188006584704304 7.0116900577120305 6.90727436128424 6.648642632582445 6.2127814550811715 6.071545836562391 6.00169882306211 5.83118726902691 5.690275281656303 5.490870652326319 5.239710024837875 5.071069295625617 5.005340429904941 4.914830042543846 4.760749570394544 4.494402091429389 4.368717246632336 4.098995010168537 4.1600637402176375 4.1519765244189815 3.74760111192892 3.64961404681241 3.617667098074683 3.5426836751036705 3.593984923376992 3.9189155203056028 3.9233668016956167 3.832973774907387 3.7542102326843247 3.745883114890405 3.697638023916437 3.480191245794584 3.2200132888698585 3.0805038389712673 3.044160774285862 3.068857532444497 3.1116571535064277 3.1262017998531686 3.087027813230509 3.029941219934112 2.827237389804687 2.664273808733927 2.589742593743792 2.579383467448985 2.6057123061545187 2.6739034767042256 2.7782991152066603 2.848907827380788 2.882196306000213 2.9676007205009203 2.8261646442808805 2.2690988788426645 2.1331755986936107 2.184121771057646 2.268261330331825 2.3053792897299012 2.25098196906355 2.177463866603348 2.185184848781912 2.2862084637111906 2.2235941461873963 1.6120748246532297 1.5266397650921257 1.6275839411375566 1.6196301137173357 1.3397196486012222 1.2081300638263586 1.0248839228140976 0.9149177025089257 0.7677619122777848 0.6970759428561395 0.7170578006534785 0.9077608664862427 1.3912925905711717 1.430267007904237 1.501289281167235 1.4594309879049316 1.1183284838437988 0.966659932156869 1.1329475574918808 1.2987495596814447 0.627168809286303 0.6538587674249767 0.8032954561839312 1.0090755004247995 1.0880575129901051 1.328756700961908 1.81427429404903 1.5510625371604967 1.1707249595114153 1.2712004260774479 1.2931155360509352 1.3320625611129593 1.5065875151695887 1.570449291787438 1.8064313344705987 1.7493493955646624 1.7101590716036448 1.6560833783953035 0.9116469975944401 0.7855382089091079 0.5846233766469964 0.5274569160786047 0.5510562242591387 0.5996379528158404 0.6719968930414459 0.9044138108112789 1.0323144663218204 0.9374390571672127 0.6085755243754938 -9999.0 -9999.0 -9999.0 -9999.0 -9999.0 -9999.0 -9999.0 -9999.0 -9999.0 -9999.0 -9999.0 -9999.0 -9999.0 -9999.0 -9999.0
8.984041696797131 8.895840872839399 8.97484079557578 8.979195366614626 8.990752252060211 9.01488970533668 9.092005628760768 9.03397053735953 9.016792128879645 9.064251189629802 9.164025108899324 9.25446171296972 9.315624269227177 9.30980431715056 9.199587932170612 9.054883849025137 9.05880726397892 9.172985514033265 9.109045385104558 8.439831894795791 8.047424441146699 7.735516246681621 7.377059713252203 7.311178294913255 7.25264286882394 7.00409308491492 6.863015880606581 6.699201054371961 6.462679561140192 6.19597203237556 6.083998122249228 6.039319308479934 5.8634364690221386 5.653111741583374 5.381526737071043 5.134501951438498 5.027859947423182 4.9357505193437134 4.656893246461083 4.414217647306154 4.334597315606038 4.306792623129422 4.081818818065123 4.084369192410575 4.161979083491003 4.030378061572693 3.781262941564264 3.676647035756541 3.5753625340968966 3.579774828597272 3.9115592860199944 4.004362538820069 3.966446476186024 3.923194838089338 3.891414892236686 3.8280183365481086 3.6360545997677804 3.3187490686395607 3.112456483929613 3.0469656639228844 3.0574583379109215 3.073355224977932 3.081379515569109 3.0755589605734324 3.0635002178822313 2.917302243480667 2.78177920644411 2.7274348014138288 2.7212315265460156 2.74686107300279 2.8138463970695797 2.8858698558087266 2.8767841731475476 2.885258291832902 3.04911221062451 3.0210041734214164 2.5247227928472356 2.3108001739654447 2.334497067976096 2.4043085172911587 2.444655990274381 2.448577790660929 2.4271711640421842 2.3488381039641495 2.3017073127228747 2.0568065149239905 1.667364421952681 1.5773005134621736 1.6466949292211681 1.665652724798815 1.468730289829872 1.3036821474480604 1.142533783741449 0.9918419536687451 0.8662754372423014 0.7690634574394226 0.7873370162686986 0.8671900885799133 0.9982474903539316 1.1968551747173 1.3457610647605636 1.3640065902975405 1.1537577096604217 1.0751903067449007 1.1247057402607314 1.1007424430229402 0.6817210740018584 0.6465126697813652 0.7003460563277473 0.7903173573042392 0.9071643392220605 1.0862525878102334 1.4498048018775376 1.9160893436918964 1.6452443000161012 1.3792436403271 1.280298261565115 1.3000359546789768 1.5295240432214632 1.5062407945332497 1.6110816109403376 1.7536833256858984 1.7639065734192119 1.7209737944059291 1.644924234054417 1.6002268954067669 1.516883400047195 0.6715867465639473 0.7625852105950468 0.6694130115150783 0.6101902193525917 0.7438334464389236 0.9543066198244756 0.9925961128521132 0.9194369146256394 0.7382658984402426 -9999.0 -9999.0 -9999.0 -9999.0 -9999.0 -9999.0 -9999.0 -9999.0 -9999.0 -9999.0 -9999.0 -9999.0 -9999.0 -9999.0
9.081625993905963 9.064426368473157 9.054367292112858 9.01300009575502 9.008423459989249 9.167245092815433 9.376100415168573 9.262290758512618 9.084053410340122 9.226609087844569 9.417007382555376 9.410119687535646 9.409513952930954 9.395818448335548 9.28812541057783 9.075247919905824 8.929791339037685 8.780869524522789 8.598633322798033 8.103988189708293 7.924095012623788 7.615309107268554 7.339859998593925 7.293309741850032 7.162935810730291 6.939774309332262 6.756319999537856 6.581583569950473 6.406820242367083 6.273886375017651 6.112242062498874 5.9894693502653995 5.703399661443917 5.085777898288827 5.106783287634634 5.044919466131056 4.843008873172153 4.509159738928738 4.465694586094656 4.351382507652548 4.271081777469045 4.299591540172837 4.130456831075978 4.085143835552256 4.132533212635561 4.048365808784245 3.9006102554567956 3.739842115132691 3.624052551438231 3.615822266104368 3.8096300411560327 4.059962972983159 4.05253810426359 4.021162363848172 3.986424976039377 3.9307418136405685 3.8140804690659387 3.586785681517813 3.308324046219254 3.165801189006408 3.0690233525543142 3.0604428416082805 3.0716660298149 3.0981755263846016 3.1061500029672486 3.043457266061568 2.9600019970296567 2.9182226817200196 2.8803317491090135 2.874744976570066 2.9253642377120745 2.9308617207778243 2.8317569424803377 2.844191642704358 3.062860223471991 3.0394899617505886 2.669800563953597 2.458828558652522 2.4346998288078177 2.482409667716316 2.5598706676461043 2.5605752228377727 2.55370366158451 2.379351874927744 2.1079971032641067 2.0537658248240076 2.0487508477166294 1.6724006548065153 1.64413890088369 1.6311185745856984 1.467145129969231 1.3122611561364312 1.2017491927447301 1.0437854136650924 0.9782280678740098 0.9067711331525121 0.8870053020446915 0.89198889814881 0.8387679390918503 0.8375625979196473 1.1317744984023277 1.1678532453530677 0.8993212427473687 0.7023311630203721 0.4686121839104007 0.5677919868890919 0.7415812061426807 0.7048945202667132 0.7039164416657766 0.761584861768168 0.8169951308543799 0.930249046384102 1.123744741914359 1.744639880759191 2.0706942798504064 1.9804400389863122 1.3497563645794284 1.3954277174642955 1.40812716868454 1.4485944586274762 1.5434611202231208 1.6058590391275402 1.7265838258079933 1.697463484942879 1.646530182745899 1.6573706294722597 1.6472721895314384 1.574140433105682 1.4987292931658773 1.274710150109574 0.6479397844183759 0.6999431456972594 0.8485509016931352 0.9411585412240366 0.9808286493274283 0.8683938354729883 0.6292799653199082 -9999.0 -9999.0 -9999.0 -9999.0 -9999.0 -9999.0 -9999.0 -9999.0 -9999.0 -9999.0 -9999.0 -9999.0 -9999.0
9.178167203692716 9.15764351658268 9.162365172360673 9.21443112935922 9.288590658738862 9.448620626050577 9.718020478781645 9.854570510326269 9.754856003295464 9.663155576009009 9.539408091383006 9.422041300821698 9.404402810216794 9.38139781777995 9.308814125259689 9.07607443987277 8.42948358168081 8.045898066319946 8.046803111149293 7.997460313888593 7.78171341727383 7.481922632263535 7.299382964018306 7.186282758435404 7.034659657343841 6.836758095053542 6.638421179687304 6.43609156685605 6.301592804536005 5.9594763219916915 5.737874252898766 5.44443655215197 5.24697475868669 4.8874422161071704 4.832651152539856 4.685790842394244 4.495824686131405 4.431065789902957 4.407520955465761 4.403257085186022 4.34930775437482 4.256403061015446 4.092486900979785 4.071466962461302 4.115217268795228 4.074767064523741 3.953067509787314 3.807805266479519 3.688106806262319 3.6493359631116435 3.7337396984649978 4.070012678041316 4.075100076491916 4.066623684136463 4.032954904795588 3.9934038801178047 3.940583757509324 3.8463047725946935 3.676407814039496 3.4438739880198406 3.208627604567726 3.0760953132203204 3.131580880567837 3.2754889207070352 3.2822220009144676 3.164566762024753 3.097976658284697 3.07208792388653 3.033416523316515 2.9917874772186788 2.9819224544018805 2.968108062513332 2.8871976294869364 3.0745086629261635 3.091067908732807 2.8995410973683966 2.741621628849877 2.584772500701469 2.56495908783543 2.6126909398393705 2.603253646477228 2.5859212353997907 2.5964456985503483 2.5510755558556304 2.2910398607332936 2.160982384244029 2.1653197511526967 2.077338171541083 1.7259297537953922 1.6005006461860807 1.405603266307009 1.3624773778622936 1.329343569901371 1.1290430117547845 1.1195337027523076 1.1063523963630904 0.9850538218594829 0.9454352173736813 0.9732313216794295 0.9317228777012958 0.607184677692808 0.3444894073450825 0.3454042311220559 0.4468958978674315 0.4074341189486396 0.5469868041239652 0.6954218357015274 0.8491226516310773 0.748931511199942 0.7368882739329969 0.8211241066677286 0.9431167511783969 1.0321755931563739 1.1896072774144069 2.036219736481334 2.1347113861098728 1.9122158543433905 1.4801526613405012 1.2475428215374953 1.3605711321750404 1.5283071625938847 1.536770015576892 1.5927393541868902 1.6665762146762801 1.706846496037179 1.6792329232789125 1.6593774439131486 1.6477823484482181 1.5990494108736206 1.5487959015279407 0.7292405469803509 0.7088950708711179 0.5700031025349936 0.6689920510302267 0.8303896753311193 0.8631001459209755 0.8028736650256605 0.6544266143101951 -9999.0 -9999.0 -9999.0 -9999.0 -9999.0 -9999.0 -9999.0 -9999.0 -9999.0 -9999.0 -9999.0 -9999.0
9.24479491765877 9.269787601004104 9.36543634048634 9.553268933625171 9.582988234819437 9.631571016066976 9.903870895292446 9.947977738968481 9.851888123760231 9.61452285886012 9.404840432379064 9.309255224067968 9.261144109299812 9.249335243551224 9.177285411443984 8.796135785596782 8.057494331127677 7.870485155527342 7.811805659249098 7.709576698498205 7.482497010944289 7.260186565458691 7.113755595305729 7.035766940570242 6.8575558654325 6.608091206929106 6.353918165715997 6.132736374739967 5.98418433754814 5.835519510135811 5.628480165950287 5.438479038623349 5.354739523604863 4.889173729858256 4.740646578202819 4.62639395767819 4.502911118439766 4.435774226158423 4.383519032523297 4.4484202070600105 4.614122102309896 4.257900211426403 4.090765219995616 4.060958100561466 4.117968310438824 4.099638796933785 4.003897339757201 3.87250824561255 3.7756521221055728 3.717716769605839 3.7385576302669015 4.080105100236357 4.20447018016912 4.155572463227975 4.070106894755815 4.046513878209001 4.0422968548014895 4.027678149566733 3.9584218062242855 3.7884122975024437 3.5669524503099397 3.4168233673631767 3.4994446107050616 3.593161596006664 3.4796384062084718 3.3169249902518425 3.215323145151397 3.147207187367345 3.0785720203288176 3.023778242041968 3.0087778563739485 3.051167993699482 3.178797176531218 3.5111763837888454 2.805601554016414 2.780383100549407 2.7993076181145042 2.72444179782316 2.7309009914990483 2.6719622017552958 2.6105024100610152 2.6363670558163466 2.644687927969657 2.658578060052214 2.549447454492822 2.329198061689072 2.3255359060506766 2.416725788820726 2.088510653253397 1.8728175023823501 1.678403757047159 1.706597057748633 1.6145476370652942 1.386848587538576 1.362084343171011 1.373931296391274 1.2181493647471882 1.1896409964407948 1.1743467894637916 1.0507038343471593 0.5217137214672478 0.4239102239129134 0.803480250937314 0.7733754860658937 0.6522054352869047 0.6821983436215027 0.6962104817587056 0.9789285869907256 0.9633045259224133 0.8204003821641765 0.8514961011939663 0.8955269984811354 1.007166383304616 1.160807847989213 1.4089747574877656 2.054121548299126 1.9420513874488428 1.491675024090316 1.3657534214430682 1.3516588320245622 1.3792511591850944 1.4635219742644852 1.5318414789095471 1.579694550669246 1.6561540740427676 1.6494018867488456 1.633712973687345 1.6781163736196578 1.6765399958529366 1.5604569804997517 1.4506575702196514 0.9186682527255852 0.4008324219737033 0.3658678105560439 0.475691277005418 0.7469602857109043 0.8154243351271289 0.8237035167667603 0.70138524224476 -9999.0 -9999.0 -9999.0 -9999.0 -9999.0 -9999.0 -9999.0 -9999.0 -9999.0 -9999.0 -9999.0
9.293338323430294 9.348144938161836 9.440695847731044 9.545368380569917 9.609085409892224 9.717097194763529 9.812183391544727 9.824902399215208 9.629978105553109 9.399005201194937 9.255326056752375 9.186136697244317 9.112073663726369 9.043036700587555 8.79749557801355 8.17723469819975 7.902063074486705 7.708022527989235 7.551890980006206 7.371307475249825 7.211015835647666 7.0913787633424334 6.9152875450075975 6.54451464958596 6.473020383822494 6.369749091685097 6.269919200544184 6.131627429985357 6.013843820083853 5.920287608971055 5.663087535290522 5.513989420513404 5.392370705206254 5.244143910351118 4.789167556380184 4.723088421664386 4.574247372428825 4.455430410690419 4.399534839480058 4.538914721192979 4.668961198573872 4.340790467507117 4.1643948854131745 4.095479237530333 4.085202160487321 4.055457008707853 4.036941085734948 3.992468423233429 3.9218164456829494 3.8679599758068792 3.7826381325013236 3.9671810203586517 4.352693875913265 4.311182752097794 4.198602267640232 4.115399326672035 4.072644538909101 4.067284563819682 4.066610263267439 4.038411344145328 3.955827509698887 3.9087413706693783 3.7973326752856 3.686740587752576 3.4963031120314105 3.311704185507293 3.2573391170298946 3.186008095823009 3.0649557441633077 2.821508649262361 2.894339935821804 3.2043042746599473 3.2002868752094957 2.9103530295091184 2.810283861474261 2.8059164716448546 2.865490091910533 2.8808532347999622 2.853236543150933 2.7209255243616552 2.6779136940766812 2.7305467246602055 2.712899978414277 2.73360840823475 2.696881641228126 2.5563060637054584 2.5916544825942247 2.6026706209062405 2.5323499137331744 2.385942228604153 2.2947733193979962 2.271045576613342 2.2360513131886615 2.273363802262166 2.3130954917340496 2.2713883559854517 2.1938276062094935 1.9906084835570608 1.8662493996348248 1.835695585695362 1.784782243151351 1.628674976171075 1.5370262758832796 1.377252247033015 1.3648958558948323 1.451102046203472 1.4473093198114104 1.499495060333975 1.5305705371548504 1.1467317585254526 1.1129238664978762 1.190119499890923 1.292956689941004 1.3659734216296497 1.483477690724683 1.7190389042948784 1.9128196396186996 1.6505338000758278 1.5794178291528413 1.4575656941724688 1.4139652518618266 1.4444712363010337 1.5178922115669378 1.5406549980379312 1.586688575754613 1.6618430083903133 1.7301244854333984 1.763814633290007 1.6875884489827657 1.5382489145706881 1.4843927210630254 1.3723366314046632 0.4747800294382861 0.3925414255153456 0.4140951615124268 0.474336181087255 0.6427228208186739 0.870048891198935 0.9046837951066677 0.6615905445016601 -9999.0 -9999.0 -9999.0 -9999.0 -9999.0 -9999.0 -9999.0 -9999.0 -9999.0 -9999.0
9.44435239140078 9.499794342723261 9.562334997066406 9.63225107551397 9.715532203479217 9.770868346471191 9.768305275133791 9.687172108438368 9.477319713634458 9.247641710257426 9.13833088300564 9.091325310689328 8.973837496817318 8.703837708526473 8.254639091986528 7.9833935937834335 7.81521805045345 7.58995806921644 7.4203173634014465 7.261100464689193 7.112565771541265 6.904835406676517 6.734285173769949 6.543217568767433 6.473401483081404 6.394009329176103 6.260456018087321 6.226797228111431 6.136402606315645 5.9981888796993275 5.848058974936098 5.567047172606303 5.452124546320824 5.335515884322699 5.1302999095625825 5.018331808043996 4.908452577424489 4.50986980771838 4.461838448842958 4.604584507404995 4.712763063858898 4.519634088824484 4.23798477139281 4.157505202328039 3.9924859104020096 3.9487314410181398 4.032859606212868 4.040649510856621 4.0712081747858715 4.025986071412624 3.9019581325072097 3.9936860198892807 4.471069253097293 4.4549274689815865 4.3572412354946835 4.273769288626313 4.1641862596123325 4.096552248895773 4.102363899679838 4.077762878833017 4.060646170228649 3.998347813626901 3.8125406568605933 3.411675302351569 3.2674422969927748 3.1523618343726976 3.1670453316565976 3.1719302344448868 3.137772686018289 3.004936218160371 3.1815509352544304 3.310111966673945 3.14597429284458 2.966847685531774 2.923048303115585 2.9409264687179824 3.005541937565572 3.1204869052201247 3.019602012203324 2.835375808886608 2.8427040101831262 2.876166515218254 2.81632433565368 2.8238459024737343 2.7426356235824527 2.6937160602575476 2.777855083802972 2.722541287368545 2.6535912358524754 2.6625883375961847 2.640558067761078 2.615846537544793 2.654819497825685 2.7371971856622586 2.570263001427747 2.374089158367652 2.280844469050591 2.095454510465536 1.969404234388873 1.9475167371276725 1.906198058713971 1.8351828743459058 1.7413258102832831 1.6208323395177213 1.669434596114068 1.7064636086538558 1.6267712130769538 1.6563527940429876 1.7294997948296753 1.8213952564062192 1.71233073338852 1.7434593174289024 1.710625566628917 1.6445124803314906 1.6265513223544792 1.6764732338638357 1.8544073383639452 1.774406553868672 1.7382187323637457 1.6791067616592452 1.5763936133095087 1.440678996113719 1.4988215277117596 1.518897935838375 1.6109416908492589 1.8170199047294944 1.9973064730506533 1.8015777995777202 1.5042897061762626 1.459803444508934 1.5351722334360327 1.5367247701688496 1.411366391404579 1.407797847176343 0.6030506246195289 0.4520529182697616 0.4703737091089706 0.7635295203480053 0.892147695137504 0.8155315380412422 0.3538340066671422 -9999.0 -9999.0 -9999.0 -9999.0 -9999.0 -9999.0 -9999.0 -9999.0 -9999.0
9.714915739711856 9.83352441341057 9.941023556084204 9.963489058477565 9.938954256484989 9.869638753822537 9.770204157234085 9.596744339324687 9.381010411562666 9.179598365209433 9.10615609012442 8.957755133989371 8.761324804474953 8.548201234639567 8.187669912147946 7.927213429645272 7.716329814211225 7.536192031975015 7.455663055274614 7.333144516108423 7.1994625042524305 6.938064705773402 6.789961296271569 6.66523942560937 6.534804921858735 6.44405657924813 6.285790233338097 6.232503077772559 6.210337759718831 6.0885989919622725 5.940403463631136 5.688240041617137 5.53177429975476 5.394913164331272 5.252921191167576 5.1417481328050645 5.041046365877467 4.732055503723687 4.634243001929609 4.664343433882565 4.732499714582857 4.6948224291412135 4.294932589746987 4.1922967528786375 3.995288065384207 3.9464714720368828 4.018166415392576 4.049328002495341 4.136010601985202 4.174265536655456 4.049534074169053 4.0489881264447645 4.560098180552934 4.562495569657257 4.500753886575109 4.427328247719244 4.27121146600737 4.116470677868574 4.044703497664908 4.003451767700038 4.045875080525098 3.8749194633030895 3.573855800986744 3.417039686705444 3.3120475917383403 3.144027441519997 3.157514203883501 3.224779765546992 3.2544761680003345 3.312086974329628 3.373518716840101 3.2810979673040563 3.151676113450361 3.0603383981523726 3.0559265291979605 3.12702626753722 3.2242433210050416 3.232562076925808 3.107488029797716 3.0340406904269863 3.0147141085794136 3.007111083070973 2.9589694373085913 2.948620095426956 2.858489358390541 2.920982793741744 3.011233220460614 2.86665858201516 2.805798397201961 2.7797547656244257 2.7628756259172182 2.7753172540269784 2.8541502598451296 2.7684552517425356 2.5900049971716532 2.4093679964190478 2.288703045740646 2.12357589912834 2.028540966079236 2.0117845970671344 1.9486368525313011 1.8780496492811865 1.7542827346841285 1.641173211698663 1.6961002798710456 1.6760061774022235 1.609035267181999 1.7371011515494885 1.9150938285566317 1.978752009324092 2.022666272460312 1.8465968198623812 1.80272868653617 1.8041470636594004 1.8581086286063067 1.8794312083225497 1.9453867028646608 1.9544457482519881 1.7443113606287197 1.6149197494875722 1.529232020829459 1.556907967508128 1.5638878035174966 1.5488387942158497 1.7244046793144523 1.8573006960265264 1.8820051221238692 1.574051366060176 1.4734616572888808 1.4208801568962268 1.466375646119348 1.479331877303468 1.4540822727014802 1.474658858941061 1.364514459011894 0.5305507971339019 0.4315009418280829 0.4031707881039562 0.7401010832362598 0.8824231201126984 0.8313811581011545 -9999.0 -9999.0 -9999.0 -9999.0 -9999.0 -9999.0 -9999.0 -9999.0 -9999.0
10.08430212973048 10.142659027447644 10.194966699944992 10.17701702396667 10.11647001072864 10.016133373830105 9.86262194889099 9.661758430911629 9.436889876034092 9.231941853423612 9.084705033698096 8.75074284877517 8.699413585078487 8.795347802723413 8.36089845673141 7.822018890475312 7.731653664023744 7.697340059807297 7.679451014832167 7.630278951775553 7.405646505459268 7.047471950332902 6.871129693630523 6.782687025832504 6.696406289942093 6.530457554151825 6.37464822125285 6.300501104489988 6.337539417090806 6.193251605724141 6.023018188983721 5.808234594063764 5.581872820974161 5.502689863553302 5.375696406755843 5.335026786735066 5.3005629962275576 4.848259194211245 4.755855641991647 4.751422476351712 4.829447086508076 4.83159740299125 4.361056304890273 4.252828544123583 4.0760810097376545 4.018550613021743 4.034605426520109 4.090872748869488 4.193206919900869 4.266104101360802 4.198142641184621 4.151997146009272 4.4826002663902145 4.607508809799093 4.542447539221641 4.464355604066947 4.31322688704473 4.12857079132301 3.857134429740539 3.7976698854514184 3.8287427922160338 3.800562611576994 3.673252473852636 3.5156775482495743 3.45481241730151 3.2915986002631956 3.2576728871860325 3.3492361428494 3.4657764429117806 3.646271915039269 3.3772779103592847 3.2874289053921713 3.242916746454621 3.234987311179299 3.2276722494439274 3.2810664717835554 3.336222877201523 3.176282055431793 3.2145975401004345 3.2806632367792705 3.195396557855726 3.1737060970500233 3.2203995417734497 3.3145092285637 3.20131479985634 3.182293936617316 3.1340054012000507 3.0044443115525232 2.9704390825535647 2.9952423179480117 2.906990275269931 2.896336116944836 2.9302290849037966 2.756762497353869 2.6005481197587663 2.4119461492865613 2.29131684705159 2.2394141424029956 2.215313244503201 2.173603749416515 2.0402559289643145 1.9561892067841689 1.80456391588013 1.7145725764686417 1.7511151438142158 1.7427390770425875 1.7527491516710039 1.9748113856390297 2.1563389878562718 2.0605373458744634 2.215990875677501 2.4966802556244443 2.0331723331297864 2.086606500406047 2.083555215450124 2.0483674831475795 2.054010472201608 2.1301546604462183 2.010756283061032 1.4748943967913353 1.3816497441564857 1.5521353388215358 1.6385339451571184 1.6802771972037307 1.768373225121078 1.7105853768038106 1.311232413082381 1.2930022339396148 1.4480151482540489 1.4068922624189253 1.3760066257652857 1.3995424832311638 1.4434769726830636 1.4708512163666205 1.4495901035231087 0.7969045410984743 0.5947641983008227 0.4216284270668647 0.4553833300302947 0.7793899528964743 0.9607083050638356 0.8185335244004499 -9999.0 -9999.0 -9999.0 -9999.0 -9999.0 -9999.0 -9999.0 -9999.0
10.453778794467222 10.454177466485016 10.367989574303015 10.229331706281977 10.16476107987263 10.112730596436323 9.89770847943266 9.635466954988583 9.245968727552816 9.080906326314752 8.822286826820623 8.529256170878947 8.706643352181398 8.931232652080174 8.57622441911826 8.00547091678946 7.907781231224785 7.835633559528146 7.786580373384815 7.743983750133609 7.621555474917379 7.345558713751348 6.994092930747365 6.863131573540727 6.879970693254779 6.7257893314064106 6.515297340532355 6.596307361169953 6.71222709061199 6.3819520918148545 6.190896651426067 5.8145015174368915 5.673148992614252 5.763042050724037 5.622898144544179 5.496705441346529 5.463925137027886 5.270000883007011 4.820237938247555 4.858466512593472 5.090847313246395 5.112344222689741 4.652651844045618 4.447961306311136 4.344266813858356 4.228672547902633 4.206943360295004 4.262001663237715 4.382380802691349 4.450786633366844 4.421875929414899 4.415827958287592 4.461108326131708 4.453090627951469 4.397461197357147 4.354036061589101 4.312000705575022 4.183869824083392 4.032609208512048 3.883404382563244 3.8688698936573767 3.8735754778123326 3.7236362878973432 3.605028010499938 3.575683109142081 3.5556583478004478 3.485883826848023 3.5656552838308406 4.027872653555071 3.9364016603166774 3.5004840488029267 3.400663413405616 3.4377942735239837 3.509112313624765 3.400078545970385 3.434014827805061 3.5874403446010628 3.4197175190344873 3.40747053413792 3.5219676804880233 3.439995850716453 3.324717765364821 3.458475818724225 3.586221827468144 3.3711777132616514 3.2804017336846627 3.3378074526329415 3.2008607798344135 3.227817353139305 3.1756884364805704 2.9691307331941164 3.0046602473801296 3.035298218518312 2.7571979611643713 2.627228473057865 2.4056854885275025 2.376422566320407 2.439137418525511 2.4204363130185036 2.346662360997827 2.1615807592280936 2.0377153068529426 1.904737982261862 1.799156370615798 1.8586271890354313 1.924029792366883 2.0146514943920684 2.4039295035923116 2.4219933236521984 2.1873611318510044 2.2760599508839414 5.902859264021776 5.539879119099883 2.439226465631821 2.3334809293840313 2.327813377694587 2.2568869309480335 2.205751082674928 2.144971897539063 1.6256334152995044 1.4409451553996788 1.718492171590726 1.7730076513128772 1.7576145527892721 1.6981523065590622 1.4433364420447552 1.1839510808060711 1.1344049673153584 1.1560037990579568 1.3491777805418053 1.3094507495714673 1.2462568010330461 1.3054426346850383 1.4660849532207263 1.5346844415151113 1.5396003294258274 0.7061472417233303 0.4940381514260828 0.4360563171095722 0.4484202233416981 0.8732329443765436 0.8408277199663055 0.7209559287928395 -9999.0 -9999.0 -9999.0 -9999.0 -9999.0 -9999.0 -9999.0
10.697834834522688 10.66981907339486 10.473509622767665 10.14722809027396 10.081382535206865 9.584842239594995 9.073623842247347 8.989000021394482 9.038081392796304 8.980306807711436 8.81437026107547 8.587372203512526 8.638571896194748 8.739692730708176 8.42982412612843 8.237259164334164 8.04514654690213 7.884783584446798 7.814448149440674 7.767476758195065 7.682674083595389 7.537052120752658 7.297303954614259 7.040556024449397 7.015656667804833 6.965339521718325 6.687492951991039 6.676672462203214 6.637111413673692 6.49283449171447 6.351562849409481 6.131700588629684 5.838841657366936 5.9163570340373814 5.952765773975867 5.712899197139802 5.648317966814244 5.578056940464505 5.4582397278512484 5.3147605175253 5.284188527628585 5.274452924727656 5.291810364850485 5.0747390663329615 4.741448350664742 4.614534111318334 4.620953222175585 4.726862381156893 4.692496620206376 4.646322052190297 4.580780114316552 4.55282321285606 4.546763888881522 4.497120610700035 4.476886722469965 4.45074220251445 4.392551837475123 4.211487551712627 4.147958176991421 4.074263438139296 3.982822606550189 3.946322337456512 3.853825350873741 3.7620471984309773 3.7266774959279854 3.807309633422813 3.7982687859752926 4.2778809177386465 4.187383633325526 3.974308679561203 3.8446688687701447 3.6592576145737774 3.658565153619969 3.72890459417405 3.668812425758597 3.719586227986416 3.8998394705388066 3.626954004703766 3.5234995867302428 3.620553985389352 3.58679832814171 3.3969306380075683 3.525656814311085 3.69217773563566 3.4605372913909096 3.3453331350071167 3.486282992849736 3.5275147322598497 3.3938607286858073 3.248059579610344 3.1208884974463684 3.1667177425232436 3.0804011555305397 2.7584082749714716 2.6348314622852604 2.556011612889778 2.6853639264359304 2.692553115918188 2.619360527115605 2.4740388056139104 2.2848360729474044 2.1595814260910156 2.1592063509681125 2.088342897901129 2.0944717408701323 2.207017279636234 2.495071597121839 3.192298150324119 3.0543079301872376 2.6215457882766198 2.7438170348683992 3.4876026743437576 3.5843931609913717 2.682271164301717 2.607187949665541 2.5429754585553637 2.4316280806331885 2.29671261276846 2.1723422819116958 2.1146924960446496 2.064245068176405 1.9391928266985885 1.8590146905250116 1.7339803050077642 1.5647512215107438 1.3645689700150156 1.2299930522377707 1.1563541252717138 1.0269925969543705 1.1540789079086267 1.2632003741637472 1.18046842669114 1.176838481276452 1.288603364167494 1.5659418797862585 1.6555955981372377 0.9335949261897161 0.5639535608473446 0.5621782854022137 0.5198249379024404 0.5453754545223185 0.7092643938449539 0.7820611252947316 0.4319416285954078 -9999.0 -9999.0 -9999.0 -9999.0 -9999.0 -9999.0
10.850429043550557 10.68149364146878 10.181587165040698 9.70714666636558 9.590442619669009 9.398290382361491 9.127598916960336 9.083559825300334 9.092016085303927 8.995036043356698 8.812984272706748 8.581122230987786 8.571193833292826 8.621039461967015 8.426887929521456 8.292848254758383 8.122471487762892 8.017993270744158 7.934999950595845 7.856375762006865 7.715117719285761 7.589626130770916 7.513046467780985 7.317912711545818 7.2391242360236445 7.03289116863376 6.731983176334568 6.657103126854996 6.457880049639298 6.332415049535094 6.264492128384555 6.259848247308904 5.961482989314083 5.909977112379577 5.992278259026761 5.688097505274327 5.601502445135587 5.557343278737913 5.570391168987013 5.572390534245746 5.481938449099138 5.442362543559939 5.521573067164258 5.376436991200615 4.7864280577996 4.636206389372098 4.676614735193279 4.781386348720454 4.731625070953887 4.683779543745331 4.637172820189637 4.624542169111856 4.653209152179984 4.624494169505363 4.607345562346485 4.488125779831994 4.367912708743009 4.165932604085509 4.178494724417572 4.347794448083398 4.19364512379007 3.9523733167206156 3.9351005857828896 3.9447283455426008 3.928532728608608 3.991143133193923 4.360979014628286 4.864262069592136 4.154130487944821 4.0145176373194325 3.991981738303847 3.9248802232427877 3.9281309500725334 4.084793008844221 4.173932245269178 4.15122275448322 4.1283194508254635 3.9110478632633887 3.773945935836079 3.899951251932639 3.861014526047436 3.6091718241936603 3.6621226507761633 3.771768967813502 3.6610036232849756 3.4623136573178845 3.470893829334647 3.5524905667037956 3.5713284949072324 3.4050380884853477 3.3158307270039926 3.258662118499529 3.176337227062414 2.960086812906955 2.7873681399693306 2.7500112061585598 2.9781882209851918 2.9918577974751845 2.9357944338853073 2.8275237047805937 2.640867593180621 2.4927976948146506 2.5147252510773757 2.5788970624985876 2.6582784558904513 2.8194002141245313 3.3663250895435493 3.5393980546441655 3.361275915522232 3.0751010756137016 2.979210710520053 2.929407918349754 3.036951477441568 3.1108414367731463 2.727818319620583 2.646809534241512 2.547336022236998 2.3425113219842424 2.203841706422819 2.246904750271806 2.4248619133143348 2.2957075801777695 1.900214863071087 1.6294875279400716 1.576665191478035 1.5188271249433278 1.4117865109593428 1.3881622184835265 1.0460140944465923 0.9734232018574192 1.074828806924988 1.1446820626147909 1.1357120107597785 1.201917016140627 1.2688483920625153 1.528421804113673 1.539670348784599 0.8117989882601988 0.7090616505134895 0.4745735349571075 0.3187971702225947 0.5256916199876231 0.6904782049270379 0.4765362335674912 -9999.0 -9999.0 -9999.0 -9999.0 -9999.0 -9999.0
